haoxiangNtu/stiff-physics/assets/trajectories/franka_fold.txt
# time panda_joint1 panda_joint2 panda_joint3 panda_joint4 panda_joint5 panda_joint6 panda_joint7 panda_finger_joint1 panda_finger_joint2
0.000000 -0.00012013 -0.56703891 -0.00016327 -2.10925115 0.00001584 3.03717980 0.74100000 0.04000000 0.04000000
0.005000 -0.00024006 -0.56507594 -0.00032628 -2.10849861 0.00003167 3.03736054 0.74100000 0.04000000 0.04000000
0.010000 -0.00035979 -0.56311109 -0.00048903 -2.10774237 0.00004747 3.03754222 0.74100000 0.04000000 0.04000000
0.015000 -0.00047933 -0.56114438 -0.00065152 -2.10698244 0.00006325 3.03772484 0.74100000 0.04000000 0.04000000
0.020000 -0.00059866 -0.55917581 -0.00081375 -2.10621880 0.00007901 3.03790839 0.74100000 0.04000000 0.04000000
0.025000 -0.00071780 -0.55720539 -0.00097571 -2.10545148 0.00009474 3.03809287 0.74100000 0.04000000 0.04000000
0.030000 -0.00083674 -0.55523312 -0.00113742 -2.10468045 0.00011046 3.03827827 0.74100000 0.04000000 0.04000000
0.035000 -0.00095548 -0.55325901 -0.00129886 -2.10390573 0.00012615 3.03846461 0.74100000 0.04000000 0.04000000
0.040000 -0.00107403 -0.55128307 -0.00146005 -2.10312730 0.00014182 3.03865187 0.74100000 0.04000000 0.04000000
0.045000 -0.00119238 -0.54930530 -0.00162098 -2.10234519 0.00015747 3.03884005 0.74100000 0.04000000 0.04000000
0.050000 -0.00131053 -0.54732571 -0.00178164 -2.10155937 0.00017310 3.03902915 0.74100000 0.04000000 0.04000000
0.055000 -0.00142849 -0.54534431 -0.00194205 -2.10076986 0.00018870 3.03921916 0.74100000 0.04000000 0.04000000
0.060000 -0.00154626 -0.54336110 -0.00210219 -2.09997665 0.00020429 3.03941009 0.74100000 0.04000000 0.04000000
0.065000 -0.00166383 -0.54137609 -0.00226208 -2.09917974 0.00021985 3.03960193 0.74100000 0.04000000 0.04000000
0.070000 -0.00178121 -0.53938929 -0.00242171 -2.09837913 0.00023539 3.03979468 0.74100000 0.04000000 0.04000000
0.075000 -0.00189839 -0.53740070 -0.00258107 -2.09757483 0.00025092 3.03998834 0.74100000 0.04000000 0.04000000
0.080000 -0.00201538 -0.53541034 -0.00274018 -2.09676683 0.00026641 3.04018290 0.74100000 0.04000000 0.04000000
0.085000 -0.00213218 -0.53341820 -0.00289903 -2.09595513 0.00028189 3.04037837 0.74100000 0.04000000 0.04000000
0.090000 -0.00224879 -0.53142429 -0.00305762 -2.09513973 0.00029735 3.04057473 0.74100000 0.04000000 0.04000000
0.095000 -0.00236521 -0.52942862 -0.00321595 -2.09432063 0.00031278 3.04077199 0.74100000 0.04000000 0.04000000
0.100000 -0.00248144 -0.52743119 -0.00337402 -2.09349783 0.00032820 3.04097015 0.74100000 0.04000000 0.04000000
0.105000 -0.00259748 -0.52543202 -0.00353184 -2.09267134 0.00034359 3.04116920 0.74100000 0.04000000 0.04000000
0.110000 -0.00271333 -0.52343111 -0.00368939 -2.09184114 0.00035896 3.04136913 0.74100000 0.04000000 0.04000000
0.115000 -0.00282899 -0.52142846 -0.00384669 -2.09100725 0.00037431 3.04156996 0.74100000 0.04000000 0.04000000
0.120000 -0.00294446 -0.51942409 -0.00400372 -2.09016965 0.00038964 3.04177167 0.74100000 0.04000000 0.04000000
0.125000 -0.00305974 -0.51741799 -0.00416050 -2.08932836 0.00040494 3.04197426 0.74100000 0.04000000 0.04000000
0.130000 -0.00317484 -0.51541017 -0.00431702 -2.08848337 0.00042023 3.04217773 0.74100000 0.04000000 0.04000000
0.135000 -0.00328975 -0.51340065 -0.00447328 -2.08763467 0.00043549 3.04238207 0.74100000 0.04000000 0.04000000
0.140000 -0.00340448 -0.51138942 -0.00462929 -2.08678227 0.00045074 3.04258730 0.74100000 0.04000000 0.04000000
0.145000 -0.00351902 -0.50937650 -0.00478503 -2.08592618 0.00046596 3.04279339 0.74100000 0.04000000 0.04000000
0.150000 -0.00363338 -0.50736189 -0.00494052 -2.08506638 0.00048116 3.04300035 0.74100000 0.04000000 0.04000000
0.155000 -0.00374756 -0.50534559 -0.00509575 -2.08420288 0.00049634 3.04320818 0.74100000 0.04000000 0.04000000
0.160000 -0.00386155 -0.50332761 -0.00525072 -2.08333568 0.00051150 3.04341687 0.74100000 0.04000000 0.04000000
0.165000 -0.00397536 -0.50130796 -0.00540543 -2.08246477 0.00052663 3.04362643 0.74100000 0.04000000 0.04000000
0.170000 -0.00408899 -0.49928665 -0.00555989 -2.08159017 0.00054175 3.04383684 0.74100000 0.04000000 0.04000000
0.175000 -0.00420243 -0.49726367 -0.00571408 -2.08071186 0.00055684 3.04404811 0.74100000 0.04000000 0.04000000
0.180000 -0.00431570 -0.49523905 -0.00586802 -2.07982984 0.00057191 3.04426024 0.74100000 0.04000000 0.04000000
0.185000 -0.00442879 -0.49321277 -0.00602170 -2.07894413 0.00058697 3.04447321 0.74100000 0.04000000 0.04000000
0.190000 -0.00454170 -0.49118486 -0.00617513 -2.07805470 0.00060200 3.04468704 0.74100000 0.04000000 0.04000000
0.195000 -0.00465443 -0.48915531 -0.00632829 -2.07716158 0.00061701 3.04490171 0.74100000 0.04000000 0.04000000
0.200000 -0.00476699 -0.48712413 -0.00648120 -2.07626475 0.00063199 3.04511722 0.74100000 0.04000000 0.04000000
0.205000 -0.00487936 -0.48509133 -0.00663385 -2.07536421 0.00064696 3.04533357 0.74100000 0.04000000 0.04000000
0.210000 -0.00499157 -0.48305691 -0.00678624 -2.07445997 0.00066191 3.04555076 0.74100000 0.04000000 0.04000000
0.215000 -0.00510360 -0.48102088 -0.00693838 -2.07355202 0.00067683 3.04576879 0.74100000 0.04000000 0.04000000
0.220000 -0.00521545 -0.47898324 -0.00709025 -2.07264037 0.00069174 3.04598765 0.74100000 0.04000000 0.04000000
0.225000 -0.00532713 -0.47694401 -0.00724187 -2.07172501 0.00070662 3.04620734 0.74100000 0.04000000 0.04000000
0.230000 -0.00543864 -0.47490318 -0.00739324 -2.07080594 0.00072148 3.04642785 0.74100000 0.04000000 0.04000000
0.235000 -0.00554998 -0.47286077 -0.00754434 -2.06988316 0.00073632 3.04664919 0.74100000 0.04000000 0.04000000
0.240000 -0.00566114 -0.47081677 -0.00769519 -2.06895667 0.00075114 3.04687135 0.74100000 0.04000000 0.04000000
0.245000 -0.00577214 -0.46877120 -0.00784578 -2.06802648 0.00076594 3.04709434 0.74100000 0.04000000 0.04000000
0.250000 -0.00588296 -0.46672406 -0.00799611 -2.06709257 0.00078071 3.04731813 0.74100000 0.04000000 0.04000000
0.255000 -0.00599362 -0.46467536 -0.00814618 -2.06615496 0.00079547 3.04754274 0.74100000 0.04000000 0.04000000
0.260000 -0.00610411 -0.46262510 -0.00829600 -2.06521363 0.00081020 3.04776817 0.74100000 0.04000000 0.04000000
0.265000 -0.00621443 -0.46057328 -0.00844556 -2.06426860 0.00082492 3.04799440 0.74100000 0.04000000 0.04000000
0.270000 -0.00632459 -0.45851992 -0.00859486 -2.06331985 0.00083961 3.04822143 0.74100000 0.04000000 0.04000000
0.275000 -0.00643458 -0.45646502 -0.00874391 -2.06236739 0.00085428 3.04844927 0.74100000 0.04000000 0.04000000
0.280000 -0.00654441 -0.45440858 -0.00889269 -2.06141121 0.00086893 3.04867791 0.74100000 0.04000000 0.04000000
0.285000 -0.00665407 -0.45235062 -0.00904122 -2.06045133 0.00088356 3.04890734 0.74100000 0.04000000 0.04000000
0.290000 -0.00676357 -0.45029113 -0.00918949 -2.05948772 0.00089816 3.04913757 0.74100000 0.04000000 0.04000000
0.295000 -0.00687291 -0.44823012 -0.00933751 -2.05852041 0.00091275 3.04936859 0.74100000 0.04000000 0.04000000
0.300000 -0.00698209 -0.44616760 -0.00948526 -2.05754937 0.00092731 3.04960040 0.74100000 0.04000000 0.04000000
0.305000 -0.00709111 -0.44410358 -0.00963276 -2.05657462 0.00094186 3.04983300 0.74100000 0.04000000 0.04000000
0.310000 -0.00719997 -0.44203805 -0.00978000 -2.05559616 0.00095638 3.05006638 0.74100000 0.04000000 0.04000000
0.315000 -0.00730867 -0.43997103 -0.00992699 -2.05461397 0.00097088 3.05030054 0.74100000 0.04000000 0.04000000
0.320000 -0.00741721 -0.43790252 -0.01007371 -2.05362807 0.00098536 3.05053547 0.74100000 0.04000000 0.04000000
0.325000 -0.00752560 -0.43583252 -0.01022018 -2.05263845 0.00099982 3.05077118 0.74100000 0.04000000 0.04000000
0.330000 -0.00763383 -0.43376104 -0.01036639 -2.05164511 0.00101426 3.05100767 0.74100000 0.04000000 0.04000000
0.335000 -0.00774191 -0.43168809 -0.01051234 -2.05064804 0.00102868 3.05124492 0.74100000 0.04000000 0.04000000
0.340000 -0.00784983 -0.42961367 -0.01065803 -2.04964726 0.00104307 3.05148293 0.74100000 0.04000000 0.04000000
0.345000 -0.00795760 -0.42753779 -0.01080347 -2.04864275 0.00105745 3.05172172 0.74100000 0.04000000 0.04000000
0.350000 -0.00806522 -0.42546045 -0.01094865 -2.04763452 0.00107180 3.05196126 0.74100000 0.04000000 0.04000000
0.355000 -0.00817269 -0.42338166 -0.01109357 -2.04662257 0.00108613 3.05220155 0.74100000 0.04000000 0.04000000
0.360000 -0.00828001 -0.42130142 -0.01123823 -2.04560689 0.00110044 3.05244261 0.74100000 0.04000000 0.04000000
0.365000 -0.00838718 -0.41921974 -0.01138263 -2.04458748 0.00111473 3.05268441 0.74100000 0.04000000 0.04000000
0.370000 -0.00849420 -0.41713663 -0.01152678 -2.04356435 0.00112900 3.05292696 0.74100000 0.04000000 0.04000000
0.375000 -0.00860108 -0.41505208 -0.01167066 -2.04253749 0.00114325 3.05317026 0.74100000 0.04000000 0.04000000
0.380000 -0.00870781 -0.41296611 -0.01181429 -2.04150690 0.00115747 3.05341431 0.74100000 0.04000000 0.04000000
0.385000 -0.00881439 -0.41087871 -0.01195766 -2.04047259 0.00117168 3.05365909 0.74100000 0.04000000 0.04000000
0.390000 -0.00892083 -0.40878990 -0.01210077 -2.03943454 0.00118586 3.05390461 0.74100000 0.04000000 0.04000000
0.395000 -0.00902713 -0.40669968 -0.01224362 -2.03839276 0.00120002 3.05415086 0.74100000 0.04000000 0.04000000
0.400000 -0.00913328 -0.40460806 -0.01238622 -2.03734725 0.00121416 3.05439784 0.74100000 0.04000000 0.04000000
0.405000 -0.00923930 -0.40251503 -0.01252855 -2.03629800 0.00122828 3.05464555 0.74100000 0.04000000 0.04000000
0.410000 -0.00934517 -0.40042061 -0.01267063 -2.03524502 0.00124238 3.05489399 0.74100000 0.04000000 0.04000000
0.415000 -0.00945091 -0.39832480 -0.01281244 -2.03418831 0.00125646 3.05514315 0.74100000 0.04000000 0.04000000
0.420000 -0.00955650 -0.39622761 -0.01295400 -2.03312786 0.00127051 3.05539303 0.74100000 0.04000000 0.04000000
0.425000 -0.00966197 -0.39412903 -0.01309530 -2.03206367 0.00128455 3.05564362 0.74100000 0.04000000 0.04000000
0.430000 -0.00976729 -0.39202908 -0.01323634 -2.03099574 0.00129856 3.05589493 0.74100000 0.04000000 0.04000000
0.435000 -0.00987248 -0.38992776 -0.01337712 -2.02992407 0.00131255 3.05614695 0.74100000 0.04000000 0.04000000
0.440000 -0.00997754 -0.38782507 -0.01351764 -2.02884866 0.00132652 3.05639967 0.74100000 0.04000000 0.04000000
0.445000 -0.01008246 -0.38572103 -0.01365790 -2.02776951 0.00134047 3.05665310 0.74100000 0.04000000 0.04000000
0.450000 -0.01018725 -0.38361562 -0.01379790 -2.02668662 0.00135439 3.05690723 0.74100000 0.04000000 0.04000000
0.455000 -0.01029191 -0.38150887 -0.01393764 -2.02559998 0.00136830 3.05716206 0.74100000 0.04000000 0.04000000
0.460000 -0.01039644 -0.37940077 -0.01407712 -2.02450960 0.00138218 3.05741758 0.74100000 0.04000000 0.04000000
0.465000 -0.01050085 -0.37729133 -0.01421634 -2.02341546 0.00139605 3.05767380 0.74100000 0.04000000 0.04000000
0.470000 -0.01060512 -0.37518055 -0.01435530 -2.02231758 0.00140989 3.05793070 0.74100000 0.04000000 0.04000000
0.475000 -0.01070927 -0.37306844 -0.01449401 -2.02121595 0.00142371 3.05818829 0.74100000 0.04000000 0.04000000
0.480000 -0.01081329 -0.37095501 -0.01463245 -2.02011057 0.00143750 3.05844656 0.74100000 0.04000000 0.04000000
0.485000 -0.01091719 -0.36884025 -0.01477062 -2.01900144 0.00145128 3.05870552 0.74100000 0.04000000 0.04000000
0.490000 -0.01102097 -0.36672417 -0.01490854 -2.01788856 0.00146503 3.05896514 0.74100000 0.04000000 0.04000000
0.495000 -0.01112462 -0.36460678 -0.01504620 -2.01677191 0.00147877 3.05922545 0.74100000 0.04000000 0.04000000
0.500000 -0.01122816 -0.36248808 -0.01518360 -2.01565152 0.00149248 3.05948642 0.74100000 0.04000000 0.04000000
0.505000 -0.01133157 -0.36036808 -0.01532073 -2.01452736 0.00150617 3.05974806 0.74100000 0.04000000 0.04000000
0.510000 -0.01143487 -0.35824678 -0.01545761 -2.01339945 0.00151983 3.06001036 0.74100000 0.04000000 0.04000000
0.515000 -0.01153805 -0.35612418 -0.01559422 -2.01226777 0.00153348 3.06027332 0.74100000 0.04000000 0.04000000
0.520000 -0.01164111 -0.35400029 -0.01573057 -2.01113234 0.00154710 3.06053694 0.74100000 0.04000000 0.04000000
0.525000 -0.01174405 -0.35187512 -0.01586666 -2.00999314 0.00156071 3.06080122 0.74100000 0.04000000 0.04000000
0.530000 -0.01184689 -0.34974866 -0.01600249 -2.00885017 0.00157429 3.06106615 0.74100000 0.04000000 0.04000000
0.535000 -0.01194961 -0.34762093 -0.01613806 -2.00770344 0.00158785 3.06133172 0.74100000 0.04000000 0.04000000
0.540000 -0.01205221 -0.34549192 -0.01627336 -2.00655294 0.00160138 3.06159794 0.74100000 0.04000000 0.04000000
0.545000 -0.01215471 -0.34336165 -0.01640841 -2.00539867 0.00161490 3.06186480 0.74100000 0.04000000 0.04000000
0.550000 -0.01225710 -0.34123011 -0.01654318 -2.00424063 0.00162839 3.06213230 0.74100000 0.04000000 0.04000000
0.555000 -0.01235938 -0.33909731 -0.01667770 -2.00307882 0.00164186 3.06240044 0.74100000 0.04000000 0.04000000
0.560000 -0.01246155 -0.33696325 -0.01681196 -2.00191323 0.00165531 3.06266921 0.74100000 0.04000000 0.04000000
0.565000 -0.01256361 -0.33482795 -0.01694595 -2.00074387 0.00166874 3.06293860 0.74100000 0.04000000 0.04000000
0.570000 -0.01266557 -0.33269139 -0.01707967 -1.99957072 0.00168215 3.06320863 0.74100000 0.04000000 0.04000000
0.575000 -0.01276743 -0.33055359 -0.01721314 -1.99839380 0.00169553 3.06347927 0.74100000 0.04000000 0.04000000
0.580000 -0.01286918 -0.32841456 -0.01734634 -1.99721310 0.00170889 3.06375053 0.74100000 0.04000000 0.04000000
0.585000 -0.01297084 -0.32627428 -0.01747928 -1.99602861 0.00172223 3.06402241 0.74100000 0.04000000 0.04000000
0.590000 -0.01307239 -0.32413278 -0.01761195 -1.99484034 0.00173555 3.06429490 0.74100000 0.04000000 0.04000000
0.595000 -0.01317384 -0.32199005 -0.01774436 -1.99364828 0.00174884 3.06456800 0.74100000 0.04000000 0.04000000
0.600000 -0.01327520 -0.31984609 -0.01787651 -1.99245244 0.00176212 3.06484171 0.74100000 0.04000000 0.04000000
0.605000 -0.01337646 -0.31770092 -0.01800839 -1.99125280 0.00177537 3.06511602 0.74100000 0.04000000 0.04000000
0.610000 -0.01347762 -0.31555453 -0.01814000 -1.99004937 0.00178860 3.06539093 0.74100000 0.04000000 0.04000000
0.615000 -0.01357869 -0.31340693 -0.01827135 -1.98884215 0.00180180 3.06566643 0.74100000 0.04000000 0.04000000
0.620000 -0.01367966 -0.31125813 -0.01840244 -1.98763113 0.00181499 3.06594253 0.74100000 0.04000000 0.04000000
0.625000 -0.01378055 -0.30910812 -0.01853326 -1.98641631 0.00182815 3.06621922 0.74100000 0.04000000 0.04000000
0.630000 -0.01388134 -0.30695691 -0.01866382 -1.98519769 0.00184129 3.06649649 0.74100000 0.04000000 0.04000000
0.635000 -0.01398204 -0.30480450 -0.01879411 -1.98397527 0.00185441 3.06677434 0.74100000 0.04000000 0.04000000
0.640000 -0.01408266 -0.30265090 -0.01892413 -1.98274905 0.00186750 3.06705278 0.74100000 0.04000000 0.04000000
0.645000 -0.01418319 -0.30049612 -0.01905389 -1.98151902 0.00188057 3.06733179 0.74100000 0.04000000 0.04000000
0.650000 -0.01428363 -0.29834015 -0.01918338 -1.98028518 0.00189362 3.06761137 0.74100000 0.04000000 0.04000000
0.655000 -0.01438399 -0.29618299 -0.01931261 -1.97904753 0.00190665 3.06789152 0.74100000 0.04000000 0.04000000
0.660000 -0.01448426 -0.29402467 -0.01944157 -1.97780607 0.00191965 3.06817223 0.74100000 0.04000000 0.04000000
0.665000 -0.01458445 -0.29186516 -0.01957026 -1.97656079 0.00193264 3.06845351 0.74100000 0.04000000 0.04000000
0.670000 -0.01468457 -0.28970449 -0.01969868 -1.97531170 0.00194559 3.06873535 0.74100000 0.04000000 0.04000000
0.675000 -0.01478460 -0.28754265 -0.01982684 -1.97405879 0.00195853 3.06901774 0.74100000 0.04000000 0.04000000
0.680000 -0.01488455 -0.28537965 -0.01995473 -1.97280205 0.00197145 3.06930068 0.74100000 0.04000000 0.04000000
0.685000 -0.01498443 -0.28321549 -0.02008235 -1.97154149 0.00198434 3.06958418 0.74100000 0.04000000 0.04000000
0.690000 -0.01508423 -0.28105017 -0.02020971 -1.97027711 0.00199720 3.06986821 0.74100000 0.04000000 0.04000000
0.695000 -0.01518395 -0.27888370 -0.02033679 -1.96900890 0.00201005 3.07015279 0.74100000 0.04000000 0.04000000
0.700000 -0.01528360 -0.27671608 -0.02046361 -1.96773686 0.00202287 3.07043790 0.74100000 0.04000000 0.04000000
0.705000 -0.01538318 -0.27454732 -0.02059016 -1.96646098 0.00203567 3.07072355 0.74100000 0.04000000 0.04000000
0.710000 -0.01548269 -0.27237741 -0.02071644 -1.96518127 0.00204845 3.07100973 0.74100000 0.04000000 0.04000000
0.715000 -0.01558213 -0.27020637 -0.02084245 -1.96389772 0.00206120 3.07129644 0.74100000 0.04000000 0.04000000
0.720000 -0.01568150 -0.26803419 -0.02096819 -1.96261033 0.00207393 3.07158367 0.74100000 0.04000000 0.04000000
0.725000 -0.01578081 -0.26586087 -0.02109366 -1.96131910 0.00208664 3.07187142 0.74100000 0.04000000 0.04000000
0.730000 -0.01588004 -0.26368643 -0.02121886 -1.96002402 0.00209933 3.07215969 0.74100000 0.04000000 0.04000000
0.735000 -0.01597922 -0.26151086 -0.02134380 -1.95872509 0.00211199 3.07244847 0.74100000 0.04000000 0.04000000
0.740000 -0.01607833 -0.25933417 -0.02146846 -1.95742231 0.00212463 3.07273775 0.74100000 0.04000000 0.04000000
0.745000 -0.01617737 -0.25715636 -0.02159285 -1.95611568 0.00213724 3.07302755 0.74100000 0.04000000 0.04000000
0.750000 -0.01627636 -0.25497744 -0.02171697 -1.95480520 0.00214983 3.07331784 0.74100000 0.04000000 0.04000000
0.755000 -0.01637529 -0.25279740 -0.02184081 -1.95349085 0.00216240 3.07360864 0.74100000 0.04000000 0.04000000
0.760000 -0.01647415 -0.25061625 -0.02196439 -1.95217265 0.00217495 3.07389993 0.74100000 0.04000000 0.04000000
0.765000 -0.01657296 -0.24843399 -0.02208770 -1.95085058 0.00218747 3.07419171 0.74100000 0.04000000 0.04000000
0.770000 -0.01667172 -0.24625063 -0.02221073 -1.94952464 0.00219997 3.07448397 0.74100000 0.04000000 0.04000000
0.775000 -0.01677042 -0.24406616 -0.02233349 -1.94819483 0.00221244 3.07477672 0.74100000 0.04000000 0.04000000
0.780000 -0.01686907 -0.24188060 -0.02245598 -1.94686115 0.00222489 3.07506995 0.74100000 0.04000000 0.04000000
0.785000 -0.01696766 -0.23969395 -0.02257819 -1.94552360 0.00223732 3.07536366 0.74100000 0.04000000 0.04000000
0.790000 -0.01706621 -0.23750620 -0.02270014 -1.94418216 0.00224973 3.07565784 0.74100000 0.04000000 0.04000000
0.795000 -0.01716471 -0.23531736 -0.02282180 -1.94283685 0.00226211 3.07595249 0.74100000 0.04000000 0.04000000
0.800000 -0.01726315 -0.23312743 -0.02294320 -1.94148765 0.00227446 3.07624760 0.74100000 0.04000000 0.04000000
0.805000 -0.01736155 -0.23093642 -0.02306432 -1.94013456 0.00228680 3.07654317 0.74100000 0.04000000 0.04000000
0.810000 -0.01745991 -0.22874433 -0.02318517 -1.93877759 0.00229911 3.07683920 0.74100000 0.04000000 0.04000000
0.815000 -0.01755822 -0.22655116 -0.02330574 -1.93741672 0.00231139 3.07713569 0.74100000 0.04000000 0.04000000
0.820000 -0.01765649 -0.22435692 -0.02342604 -1.93605195 0.00232365 3.07743262 0.74100000 0.04000000 0.04000000
0.825000 -0.01775472 -0.22216160 -0.02354606 -1.93468329 0.00233589 3.07773000 0.74100000 0.04000000 0.04000000
0.830000 -0.01785290 -0.21996521 -0.02366581 -1.93331072 0.00234810 3.07802783 0.74100000 0.04000000 0.04000000
0.835000 -0.01795105 -0.21776776 -0.02378528 -1.93193425 0.00236029 3.07832609 0.74100000 0.04000000 0.04000000
0.840000 -0.01804916 -0.21556924 -0.02390448 -1.93055386 0.00237246 3.07862478 0.74100000 0.04000000 0.04000000
0.845000 -0.01814723 -0.21336965 -0.02402340 -1.92916957 0.00238460 3.07892391 0.74100000 0.04000000 0.04000000
0.850000 -0.01824527 -0.21116901 -0.02414204 -1.92778136 0.00239671 3.07922346 0.74100000 0.04000000 0.04000000
0.855000 -0.01834327 -0.20896731 -0.02426041 -1.92638923 0.00240881 3.07952344 0.74100000 0.04000000 0.04000000
0.860000 -0.01844125 -0.20676455 -0.02437850 -1.92499318 0.00242088 3.07982383 0.74100000 0.04000000 0.04000000
0.865000 -0.01853919 -0.20456074 -0.02449631 -1.92359320 0.00243292 3.08012464 0.74100000 0.04000000 0.04000000
0.870000 -0.01863710 -0.20235588 -0.02461384 -1.92218929 0.00244494 3.08042586 0.74100000 0.04000000 0.04000000
0.875000 -0.01873498 -0.20014997 -0.02473110 -1.92078145 0.00245693 3.08072749 0.74100000 0.04000000 0.04000000
0.880000 -0.01883283 -0.19794302 -0.02484808 -1.91936967 0.00246890 3.08102952 0.74100000 0.04000000 0.04000000
0.885000 -0.01893066 -0.19573502 -0.02496478 -1.91795396 0.00248085 3.08133194 0.74100000 0.04000000 0.04000000
0.890000 -0.01902847 -0.19352599 -0.02508120 -1.91653430 0.00249277 3.08163477 0.74100000 0.04000000 0.04000000
0.895000 -0.01912625 -0.19131591 -0.02519734 -1.91511069 0.00250467 3.08193798 0.74100000 0.04000000 0.04000000
0.900000 -0.01922401 -0.18910480 -0.02531320 -1.91368314 0.00251654 3.08224158 0.74100000 0.04000000 0.04000000
0.905000 -0.01932174 -0.18689265 -0.02542878 -1.91225163 0.00252838 3.08254557 0.74100000 0.04000000 0.04000000
0.910000 -0.01941946 -0.18467948 -0.02554408 -1.91081616 0.00254020 3.08284993 0.74100000 0.04000000 0.04000000
0.915000 -0.01951716 -0.18246527 -0.02565910 -1.90937673 0.00255200 3.08315467 0.74100000 0.04000000 0.04000000
0.920000 -0.01961485 -0.18025003 -0.02577384 -1.90793333 0.00256377 3.08345978 0.74100000 0.04000000 0.04000000
0.925000 -0.01971251 -0.17803377 -0.02588830 -1.90648596 0.00257552 3.08376525 0.74100000 0.04000000 0.04000000
0.930000 -0.01981017 -0.17581649 -0.02600248 -1.90503463 0.00258724 3.08407109 0.74100000 0.04000000 0.04000000
0.935000 -0.01990781 -0.17359818 -0.02611638 -1.90357931 0.00259894 3.08437728 0.74100000 0.04000000 0.04000000
0.940000 -0.02000544 -0.17137885 -0.02622999 -1.90212001 0.00261061 3.08468383 0.74100000 0.04000000 0.04000000
0.945000 -0.02010306 -0.16915851 -0.02634332 -1.90065673 0.00262225 3.08499073 0.74100000 0.04000000 0.04000000
0.950000 -0.02020067 -0.16693715 -0.02645637 -1.89918946 0.00263387 3.08529798 0.74100000 0.04000000 0.04000000
0.955000 -0.02029827 -0.16471478 -0.02656913 -1.89771820 0.00264547 3.08560556 0.74100000 0.04000000 0.04000000
0.960000 -0.02039587 -0.16249139 -0.02668161 -1.89624294 0.00265704 3.08591348 0.74100000 0.04000000 0.04000000
0.965000 -0.02049346 -0.16026700 -0.02679381 -1.89476367 0.00266858 3.08622174 0.74100000 0.04000000 0.04000000
0.970000 -0.02059104 -0.15804160 -0.02690573 -1.89328040 0.00268010 3.08653032 0.74100000 0.04000000 0.04000000
0.975000 -0.02068863 -0.15581519 -0.02701735 -1.89179313 0.00269159 3.08683923 0.74100000 0.04000000 0.04000000
0.980000 -0.02078621 -0.15358777 -0.02712870 -1.89030183 0.00270306 3.08714846 0.74100000 0.04000000 0.04000000
0.985000 -0.02088380 -0.15135936 -0.02723976 -1.88880652 0.00271450 3.08745800 0.74100000 0.04000000 0.04000000
0.990000 -0.02098138 -0.14912994 -0.02735053 -1.88730719 0.00272592 3.08776786 0.74100000 0.04000000 0.04000000
0.995000 -0.02107897 -0.14689952 -0.02746102 -1.88580383 0.00273730 3.08807802 0.74100000 0.04000000 0.04000000
1.000000 -0.02117656 -0.14466811 -0.02757122 -1.88429644 0.00274867 3.08838848 0.74100000 0.04000000 0.04000000
1.005000 -0.02127416 -0.14243570 -0.02768114 -1.88278501 0.00276001 3.08869924 0.74100000 0.04000000 0.04000000
1.010000 -0.02137177 -0.14020229 -0.02779076 -1.88126954 0.00277132 3.08901030 0.74100000 0.04000000 0.04000000
1.015000 -0.02146938 -0.13796789 -0.02790010 -1.87975003 0.00278260 3.08932164 0.74100000 0.04000000 0.04000000
1.020000 -0.02156700 -0.13573250 -0.02800916 -1.87822647 0.00279386 3.08963327 0.74100000 0.04000000 0.04000000
1.025000 -0.02166463 -0.13349612 -0.02811792 -1.87669885 0.00280509 3.08994518 0.74100000 0.04000000 0.04000000
1.030000 -0.02176228 -0.13125875 -0.02822640 -1.87516718 0.00281630 3.09025737 0.74100000 0.04000000 0.04000000
1.035000 -0.02185994 -0.12902040 -0.02833459 -1.87363144 0.00282748 3.09056982 0.74100000 0.04000000 0.04000000
1.040000 -0.02195761 -0.12678106 -0.02844249 -1.87209163 0.00283863 3.09088254 0.74100000 0.04000000 0.04000000
1.045000 -0.02205530 -0.12454073 -0.02855009 -1.87054775 0.00284976 3.09119553 0.74100000 0.04000000 0.04000000
1.050000 -0.02215300 -0.12229943 -0.02865741 -1.86899979 0.00286085 3.09150877 0.74100000 0.04000000 0.04000000
1.055000 -0.02225073 -0.12005714 -0.02876444 -1.86744775 0.00287193 3.09182226 0.74100000 0.04000000 0.04000000
1.060000 -0.02234847 -0.11781387 -0.02887118 -1.86589163 0.00288297 3.09213601 0.74100000 0.04000000 0.04000000
1.065000 -0.02244623 -0.11556962 -0.02897763 -1.86433140 0.00289399 3.09244999 0.74100000 0.04000000 0.04000000
1.070000 -0.02254402 -0.11332440 -0.02908379 -1.86276709 0.00290498 3.09276422 0.74100000 0.04000000 0.04000000
1.075000 -0.02264183 -0.11107820 -0.02918965 -1.86119866 0.00291595 3.09307868 0.74100000 0.04000000 0.04000000
1.080000 -0.02273967 -0.10883102 -0.02929523 -1.85962614 0.00292689 3.09339336 0.74100000 0.04000000 0.04000000
1.085000 -0.02283753 -0.10658287 -0.02940051 -1.85804949 0.00293780 3.09370828 0.74100000 0.04000000 0.04000000
1.090000 -0.02293542 -0.10433375 -0.02950549 -1.85646873 0.00294868 3.09402341 0.74100000 0.04000000 0.04000000
1.095000 -0.02303334 -0.10208365 -0.02961019 -1.85488385 0.00295954 3.09433875 0.74100000 0.04000000 0.04000000
1.100000 -0.02313129 -0.09983259 -0.02971459 -1.85329484 0.00297037 3.09465431 0.74100000 0.04000000 0.04000000
1.105000 -0.02322927 -0.09758055 -0.02981870 -1.85170169 0.00298117 3.09497007 0.74100000 0.04000000 0.04000000
1.110000 -0.02332728 -0.09532755 -0.02992251 -1.85010441 0.00299194 3.09528604 0.74100000 0.04000000 0.04000000
1.115000 -0.02342532 -0.09307358 -0.03002603 -1.84850298 0.00300269 3.09560219 0.74100000 0.04000000 0.04000000
1.120000 -0.02352341 -0.09081865 -0.03012925 -1.84689740 0.00301341 3.09591854 0.74100000 0.04000000 0.04000000
1.125000 -0.02362152 -0.08856275 -0.03023218 -1.84528767 0.00302410 3.09623508 0.74100000 0.04000000 0.04000000
1.130000 -0.02371968 -0.08630588 -0.03033481 -1.84367377 0.00303476 3.09655179 0.74100000 0.04000000 0.04000000
1.135000 -0.02381787 -0.08404805 -0.03043715 -1.84205571 0.00304539 3.09686868 0.74100000 0.04000000 0.04000000
1.140000 -0.02391611 -0.08178926 -0.03053919 -1.84043347 0.00305600 3.09718574 0.74100000 0.04000000 0.04000000
1.145000 -0.02401439 -0.07952951 -0.03064093 -1.83880706 0.00306658 3.09750297 0.74100000 0.04000000 0.04000000
1.150000 -0.02411271 -0.07726879 -0.03074238 -1.83717646 0.00307713 3.09782035 0.74100000 0.04000000 0.04000000
1.155000 -0.02421107 -0.07500712 -0.03084353 -1.83554168 0.00308765 3.09813790 0.74100000 0.04000000 0.04000000
1.160000 -0.02430948 -0.07274449 -0.03094438 -1.83390270 0.00309815 3.09845559 0.74100000 0.04000000 0.04000000
1.165000 -0.02440793 -0.07048089 -0.03104493 -1.83225951 0.00310861 3.09877342 0.74100000 0.04000000 0.04000000
1.170000 -0.02450644 -0.06821635 -0.03114518 -1.83061212 0.00311905 3.09909140 0.74100000 0.04000000 0.04000000
1.175000 -0.02460499 -0.06595084 -0.03124513 -1.82896052 0.00312946 3.09940951 0.74100000 0.04000000 0.04000000
1.180000 -0.02470359 -0.06368438 -0.03134479 -1.82730470 0.00313984 3.09972775 0.74100000 0.04000000 0.04000000
1.185000 -0.02480225 -0.06141696 -0.03144414 -1.82564465 0.00315019 3.10004612 0.74100000 0.04000000 0.04000000
1.190000 -0.02490096 -0.05914859 -0.03154319 -1.82398038 0.00316051 3.10036460 0.74100000 0.04000000 0.04000000
1.195000 -0.02499972 -0.05687926 -0.03164194 -1.82231186 0.00317081 3.10068320 0.74100000 0.04000000 0.04000000
1.200000 -0.02509854 -0.05460898 -0.03174039 -1.82063910 0.00318107 3.10100190 0.74100000 0.04000000 0.04000000
1.205000 -0.02519741 -0.05233774 -0.03183854 -1.81896209 0.00319131 3.10132071 0.74100000 0.04000000 0.04000000
1.210000 -0.02529634 -0.05006556 -0.03193639 -1.81728083 0.00320151 3.10163962 0.74100000 0.04000000 0.04000000
1.215000 -0.02539533 -0.04779242 -0.03203393 -1.81559530 0.00321169 3.10195861 0.74100000 0.04000000 0.04000000
1.220000 -0.02549438 -0.04551833 -0.03213117 -1.81390551 0.00322184 3.10227769 0.74100000 0.04000000 0.04000000
1.225000 -0.02559350 -0.04324329 -0.03222811 -1.81221143 0.00323196 3.10259686 0.74100000 0.04000000 0.04000000
1.230000 -0.02569267 -0.04096730 -0.03232474 -1.81051308 0.00324205 3.10291610 0.74100000 0.04000000 0.04000000
1.235000 -0.02579191 -0.03869036 -0.03242107 -1.80881044 0.00325210 3.10323541 0.74100000 0.04000000 0.04000000
1.240000 -0.02589122 -0.03641246 -0.03251710 -1.80710350 0.00326213 3.10355478 0.74100000 0.04000000 0.04000000
1.245000 -0.02599059 -0.03413362 -0.03261282 -1.80539227 0.00327214 3.10387421 0.74100000 0.04000000 0.04000000
1.250000 -0.02609002 -0.03185384 -0.03270823 -1.80367672 0.00328211 3.10419369 0.74100000 0.04000000 0.04000000
1.255000 -0.02618953 -0.02957310 -0.03280334 -1.80195686 0.00329205 3.10451322 0.74100000 0.04000000 0.04000000
1.260000 -0.02628911 -0.02729141 -0.03289815 -1.80023268 0.00330196 3.10483279 0.74100000 0.04000000 0.04000000
1.265000 -0.02638876 -0.02500878 -0.03299264 -1.79850416 0.00331184 3.10515240 0.74100000 0.04000000 0.04000000
1.270000 -0.02648848 -0.02272520 -0.03308683 -1.79677132 0.00332169 3.10547204 0.74100000 0.04000000 0.04000000
1.275000 -0.02658827 -0.02044067 -0.03318071 -1.79503413 0.00333151 3.10579170 0.74100000 0.04000000 0.04000000
1.280000 -0.02668814 -0.01815519 -0.03327429 -1.79329259 0.00334130 3.10611138 0.74100000 0.04000000 0.04000000
1.285000 -0.02678809 -0.01586877 -0.03336755 -1.79154669 0.00335106 3.10643107 0.74100000 0.04000000 0.04000000
1.290000 -0.02688811 -0.01358140 -0.03346051 -1.78979643 0.00336078 3.10675076 0.74100000 0.04000000 0.04000000
1.295000 -0.02698821 -0.01129308 -0.03355316 -1.78804180 0.00337048 3.10707046 0.74100000 0.04000000 0.04000000
1.300000 -0.02708839 -0.00900382 -0.03364549 -1.78628279 0.00338015 3.10739015 0.74100000 0.04000000 0.04000000
1.305000 -0.02718865 -0.00671361 -0.03373752 -1.78451940 0.00338979 3.10770983 0.74100000 0.04000000 0.04000000
1.310000 -0.02728900 -0.00442246 -0.03382924 -1.78275161 0.00339939 3.10802949 0.74100000 0.04000000 0.04000000
1.315000 -0.02738942 -0.00213036 -0.03392064 -1.78097943 0.00340897 3.10834913 0.74100000 0.04000000 0.04000000
1.320000 -0.02748993 0.00016269 -0.03401174 -1.77920283 0.00341851 3.10866873 0.74100000 0.04000000 0.04000000
1.325000 -0.02759053 0.00245668 -0.03410252 -1.77742182 0.00342802 3.10898830 0.74100000 0.04000000 0.04000000
1.330000 -0.02769121 0.00475161 -0.03419300 -1.77563639 0.00343750 3.10930782 0.74100000 0.04000000 0.04000000
1.335000 -0.02779198 0.00704750 -0.03428315 -1.77384653 0.00344695 3.10962730 0.74100000 0.04000000 0.04000000
1.340000 -0.02789284 0.00934432 -0.03437300 -1.77205223 0.00345637 3.10994672 0.74100000 0.04000000 0.04000000
1.345000 -0.02799379 0.01164210 -0.03446253 -1.77025349 0.00346576 3.11026608 0.74100000 0.04000000 0.04000000
1.350000 -0.02809483 0.01394082 -0.03455175 -1.76845029 0.00347511 3.11058537 0.74100000 0.04000000 0.04000000
1.355000 -0.02819596 0.01624048 -0.03464065 -1.76664263 0.00348444 3.11090459 0.74100000 0.04000000 0.04000000
1.360000 -0.02829718 0.01854109 -0.03472924 -1.76483051 0.00349373 3.11122372 0.74100000 0.04000000 0.04000000
1.365000 -0.02839850 0.02084265 -0.03481752 -1.76301390 0.00350299 3.11154277 0.74100000 0.04000000 0.04000000
1.370000 -0.02849991 0.02314515 -0.03490548 -1.76119282 0.00351222 3.11186172 0.74100000 0.04000000 0.04000000
1.375000 -0.02860143 0.02544859 -0.03499312 -1.75936723 0.00352141 3.11218057 0.74100000 0.04000000 0.04000000
1.380000 -0.02870303 0.02775298 -0.03508045 -1.75753715 0.00353057 3.11249931 0.74100000 0.04000000 0.04000000
1.385000 -0.02880474 0.03005832 -0.03516745 -1.75570256 0.00353971 3.11281794 0.74100000 0.04000000 0.04000000
1.390000 -0.02890655 0.03236461 -0.03525415 -1.75386346 0.00354880 3.11313644 0.74100000 0.04000000 0.04000000
1.395000 -0.02900846 0.03467184 -0.03534052 -1.75201982 0.00355787 3.11345482 0.74100000 0.04000000 0.04000000
1.400000 -0.02911047 0.03698001 -0.03542657 -1.75017166 0.00356690 3.11377306 0.74100000 0.04000000 0.04000000
1.405000 -0.02921258 0.03928913 -0.03551231 -1.74831895 0.00357590 3.11409117 0.74100000 0.04000000 0.04000000
1.410000 -0.02931480 0.04159920 -0.03559773 -1.74646169 0.00358487 3.11440912 0.74100000 0.04000000 0.04000000
1.415000 -0.02941712 0.04391022 -0.03568283 -1.74459988 0.00359381 3.11472691 0.74100000 0.04000000 0.04000000
1.420000 -0.02951955 0.04622218 -0.03576761 -1.74273350 0.00360271 3.11504455 0.74100000 0.04000000 0.04000000
1.425000 -0.02962208 0.04853509 -0.03585206 -1.74086254 0.00361158 3.11536201 0.74100000 0.04000000 0.04000000
1.430000 -0.02972473 0.05084895 -0.03593620 -1.73898699 0.00362041 3.11567930 0.74100000 0.04000000 0.04000000
1.435000 -0.02982748 0.05316375 -0.03602001 -1.73710686 0.00362921 3.11599640 0.74100000 0.04000000 0.04000000
1.440000 -0.02993035 0.05547950 -0.03610351 -1.73522212 0.00363798 3.11631331 0.74100000 0.04000000 0.04000000
1.445000 -0.03003332 0.05779620 -0.03618668 -1.73333277 0.00364672 3.11663002 0.74100000 0.04000000 0.04000000
1.450000 -0.03013641 0.06011385 -0.03626953 -1.73143880 0.00365542 3.11694652 0.74100000 0.04000000 0.04000000
1.455000 -0.03023961 0.06243244 -0.03635205 -1.72954021 0.00366409 3.11726281 0.74100000 0.04000000 0.04000000
1.460000 -0.03034293 0.06475199 -0.03643425 -1.72763698 0.00367272 3.11757888 0.74100000 0.04000000 0.04000000
1.465000 -0.03044636 0.06707248 -0.03651613 -1.72572910 0.00368132 3.11789473 0.74100000 0.04000000 0.04000000
1.470000 -0.03054990 0.06939392 -0.03659768 -1.72381657 0.00368988 3.11821033 0.74100000 0.04000000 0.04000000
1.475000 -0.03065357 0.07171632 -0.03667891 -1.72189937 0.00369842 3.11852569 0.74100000 0.04000000 0.04000000
1.480000 -0.03075735 0.07403966 -0.03675981 -1.71997750 0.00370691 3.11884080 0.74100000 0.04000000 0.04000000
1.485000 -0.03086126 0.07636395 -0.03684039 -1.71805094 0.00371538 3.11915565 0.74100000 0.04000000 0.04000000
1.490000 -0.03096528 0.07868919 -0.03692064 -1.71611970 0.00372380 3.11947023 0.74100000 0.04000000 0.04000000
1.495000 -0.03106942 0.08101538 -0.03700056 -1.71418375 0.00373220 3.11978454 0.74100000 0.04000000 0.04000000
1.500000 -0.03117369 0.08334252 -0.03708015 -1.71224310 0.00374056 3.12009857 0.74100000 0.04000000 0.04000000
1.505000 -0.03127808 0.08567061 -0.03715942 -1.71029772 0.00374888 3.12041230 0.74100000 0.04000000 0.04000000
1.510000 -0.03138259 0.08799966 -0.03723836 -1.70834761 0.00375717 3.12072574 0.74100000 0.04000000 0.04000000
1.515000 -0.03148723 0.09032965 -0.03731697 -1.70639277 0.00376542 3.12103886 0.74100000 0.04000000 0.04000000
1.520000 -0.03159200 0.09266060 -0.03739525 -1.70443317 0.00377364 3.12135168 0.74100000 0.04000000 0.04000000
1.525000 -0.03169689 0.09499250 -0.03747320 -1.70246882 0.00378182 3.12166417 0.74100000 0.04000000 0.04000000
1.530000 -0.03180191 0.09732535 -0.03755082 -1.70049970 0.00378997 3.12197633 0.74100000 0.04000000 0.04000000
1.535000 -0.03190706 0.09965915 -0.03762812 -1.69852581 0.00379808 3.12228814 0.74100000 0.04000000 0.04000000
1.540000 -0.03201233 0.10199391 -0.03770508 -1.69654712 0.00380616 3.12259962 0.74100000 0.04000000 0.04000000
1.545000 -0.03211774 0.10432962 -0.03778170 -1.69456364 0.00381420 3.12291073 0.74100000 0.04000000 0.04000000
1.550000 -0.03222328 0.10666628 -0.03785800 -1.69257535 0.00382221 3.12322148 0.74100000 0.04000000 0.04000000
1.555000 -0.03232895 0.10900390 -0.03793396 -1.69058225 0.00383017 3.12353185 0.74100000 0.04000000 0.04000000
1.560000 -0.03243476 0.11134247 -0.03800959 -1.68858432 0.00383811 3.12384185 0.74100000 0.04000000 0.04000000
1.565000 -0.03254070 0.11368199 -0.03808489 -1.68658155 0.00384600 3.12415145 0.74100000 0.04000000 0.04000000
1.570000 -0.03264677 0.11602247 -0.03815985 -1.68457393 0.00385386 3.12446065 0.74100000 0.04000000 0.04000000
1.575000 -0.03275298 0.11836390 -0.03823448 -1.68256146 0.00386169 3.12476944 0.74100000 0.04000000 0.04000000
1.580000 -0.03285932 0.12070628 -0.03830878 -1.68054412 0.00386947 3.12507782 0.74100000 0.04000000 0.04000000
1.585000 -0.03296580 0.12304962 -0.03838274 -1.67852190 0.00387722 3.12538576 0.74100000 0.04000000 0.04000000
1.590000 -0.03307242 0.12539392 -0.03845636 -1.67649479 0.00388494 3.12569328 0.74100000 0.04000000 0.04000000
1.595000 -0.03317918 0.12773917 -0.03852964 -1.67446279 0.00389261 3.12600034 0.74100000 0.04000000 0.04000000
1.600000 -0.03328608 0.13008537 -0.03860259 -1.67242587 0.00390025 3.12630696 0.74100000 0.04000000 0.04000000
1.605000 -0.03339312 0.13243253 -0.03867521 -1.67038404 0.00390786 3.12661311 0.74100000 0.04000000 0.04000000
1.610000 -0.03350030 0.13478065 -0.03874748 -1.66833727 0.00391542 3.12691878 0.74100000 0.04000000 0.04000000
1.615000 -0.03360762 0.13712972 -0.03881942 -1.66628557 0.00392295 3.12722398 0.74100000 0.04000000 0.04000000
1.620000 -0.03371508 0.13947974 -0.03889101 -1.66422892 0.00393044 3.12752868 0.74100000 0.04000000 0.04000000
1.625000 -0.03382269 0.14183073 -0.03896227 -1.66216730 0.00393789 3.12783288 0.74100000 0.04000000 0.04000000
1.630000 -0.03393044 0.14418266 -0.03903319 -1.66010071 0.00394530 3.12813657 0.74100000 0.04000000 0.04000000
1.635000 -0.03403834 0.14653555 -0.03910377 -1.65802914 0.00395268 3.12843974 0.74100000 0.04000000 0.04000000
1.640000 -0.03414638 0.14888940 -0.03917401 -1.65595258 0.00396002 3.12874238 0.74100000 0.04000000 0.04000000
1.645000 -0.03425456 0.15124420 -0.03924390 -1.65387101 0.00396732 3.12904448 0.74100000 0.04000000 0.04000000
1.650000 -0.03436290 0.15359996 -0.03931346 -1.65178442 0.00397458 3.12934603 0.74100000 0.04000000 0.04000000
1.655000 -0.03447127 0.15595407 -0.03938259 -1.64969516 0.00398179 3.12964662 0.74100000 0.04000000 0.04000000
1.660000 -0.03457930 0.15829692 -0.03945099 -1.64761195 0.00398893 3.12994477 0.74100000 0.04000000 0.04000000
1.665000 -0.03468698 0.16062855 -0.03951867 -1.64553478 0.00399600 3.13024049 0.74100000 0.04000000 0.04000000
1.670000 -0.03479432 0.16294902 -0.03958563 -1.64346366 0.00400299 3.13053378 0.74100000 0.04000000 0.04000000
1.675000 -0.03490131 0.16525838 -0.03965189 -1.64139861 0.00400990 3.13082466 0.74100000 0.04000000 0.04000000
1.680000 -0.03500797 0.16755668 -0.03971743 -1.63933961 0.00401674 3.13111312 0.74100000 0.04000000 0.04000000
1.685000 -0.03511428 0.16984398 -0.03978228 -1.63728669 0.00402351 3.13139918 0.74100000 0.04000000 0.04000000
1.690000 -0.03522025 0.17212032 -0.03984644 -1.63523983 0.00403021 3.13168283 0.74100000 0.04000000 0.04000000
1.695000 -0.03532589 0.17438575 -0.03990990 -1.63319905 0.00403683 3.13196410 0.74100000 0.04000000 0.04000000
1.700000 -0.03543119 0.17664033 -0.03997269 -1.63116434 0.00404338 3.13224298 0.74100000 0.04000000 0.04000000
1.705000 -0.03553615 0.17888410 -0.04003480 -1.62913572 0.00404986 3.13251948 0.74100000 0.04000000 0.04000000
1.710000 -0.03564078 0.18111711 -0.04009624 -1.62711318 0.00405627 3.13279361 0.74100000 0.04000000 0.04000000
1.715000 -0.03574508 0.18333942 -0.04015701 -1.62509673 0.00406262 3.13306537 0.74100000 0.04000000 0.04000000
1.720000 -0.03584905 0.18555107 -0.04021712 -1.62308636 0.00406889 3.13333478 0.74100000 0.04000000 0.04000000
1.725000 -0.03595269 0.18775212 -0.04027658 -1.62108209 0.00407509 3.13360184 0.74100000 0.04000000 0.04000000
1.730000 -0.03605600 0.18994261 -0.04033539 -1.61908391 0.00408123 3.13386655 0.74100000 0.04000000 0.04000000
1.735000 -0.03615899 0.19212259 -0.04039356 -1.61709182 0.00408730 3.13412894 0.74100000 0.04000000 0.04000000
1.740000 -0.03626164 0.19429211 -0.04045109 -1.61510582 0.00409330 3.13438899 0.74100000 0.04000000 0.04000000
1.745000 -0.03636398 0.19645121 -0.04050798 -1.61312592 0.00409923 3.13464673 0.74100000 0.04000000 0.04000000
1.750000 -0.03646599 0.19859995 -0.04056425 -1.61115212 0.00410510 3.13490215 0.74100000 0.04000000 0.04000000
1.755000 -0.03656768 0.20073838 -0.04061989 -1.60918441 0.00411090 3.13515527 0.74100000 0.04000000 0.04000000
1.760000 -0.03666905 0.20286653 -0.04067492 -1.60722280 0.00411664 3.13540609 0.74100000 0.04000000 0.04000000
1.765000 -0.03677010 0.20498447 -0.04072933 -1.60526729 0.00412231 3.13565462 0.74100000 0.04000000 0.04000000
1.770000 -0.03687083 0.20709223 -0.04078314 -1.60331787 0.00412792 3.13590087 0.74100000 0.04000000 0.04000000
1.775000 -0.03697124 0.20918986 -0.04083634 -1.60137454 0.00413347 3.13614485 0.74100000 0.04000000 0.04000000
1.780000 -0.03707133 0.21127741 -0.04088894 -1.59943731 0.00413895 3.13638656 0.74100000 0.04000000 0.04000000
1.785000 -0.03717111 0.21335493 -0.04094095 -1.59750618 0.00414437 3.13662601 0.74100000 0.04000000 0.04000000
1.790000 -0.03727058 0.21542246 -0.04099238 -1.59558113 0.00414973 3.13686322 0.74100000 0.04000000 0.04000000
1.795000 -0.03736973 0.21748005 -0.04104322 -1.59366218 0.00415503 3.13709818 0.74100000 0.04000000 0.04000000
1.800000 -0.03746857 0.21952775 -0.04109348 -1.59174931 0.00416026 3.13733091 0.74100000 0.04000000 0.04000000
1.805000 -0.03756710 0.22156559 -0.04114316 -1.58984254 0.00416544 3.13756142 0.74100000 0.04000000 0.04000000
1.810000 -0.03766532 0.22359363 -0.04119228 -1.58794184 0.00417055 3.13778971 0.74100000 0.04000000 0.04000000
1.815000 -0.03776323 0.22561191 -0.04124083 -1.58604723 0.00417561 3.13801579 0.74100000 0.04000000 0.04000000
1.820000 -0.03786083 0.22762048 -0.04128882 -1.58415870 0.00418060 3.13823967 0.74100000 0.04000000 0.04000000
1.825000 -0.03795812 0.22961937 -0.04133626 -1.58227624 0.00418554 3.13846136 0.74100000 0.04000000 0.04000000
1.830000 -0.03805511 0.23160865 -0.04138314 -1.58039986 0.00419042 3.13868086 0.74100000 0.04000000 0.04000000
1.835000 -0.03815179 0.23358834 -0.04142948 -1.57852955 0.00419524 3.13889819 0.74100000 0.04000000 0.04000000
1.840000 -0.03824816 0.23555849 -0.04147528 -1.57666530 0.00420000 3.13911336 0.74100000 0.04000000 0.04000000
1.845000 -0.03834424 0.23751916 -0.04152054 -1.57480712 0.00420471 3.13932636 0.74100000 0.04000000 0.04000000
1.850000 -0.03844001 0.23947037 -0.04156526 -1.57295500 0.00420936 3.13953722 0.74100000 0.04000000 0.04000000
1.855000 -0.03853548 0.24141218 -0.04160945 -1.57110893 0.00421396 3.13974593 0.74100000 0.04000000 0.04000000
1.860000 -0.03863064 0.24334463 -0.04165312 -1.56926892 0.00421849 3.13995252 0.74100000 0.04000000 0.04000000
1.865000 -0.03872551 0.24526776 -0.04169627 -1.56743495 0.00422298 3.14015698 0.74100000 0.04000000 0.04000000
1.870000 -0.03882008 0.24718162 -0.04173890 -1.56560702 0.00422741 3.14035932 0.74100000 0.04000000 0.04000000
1.875000 -0.03891435 0.24908624 -0.04178102 -1.56378514 0.00423178 3.14055956 0.74100000 0.04000000 0.04000000
1.880000 -0.03900832 0.25098167 -0.04182264 -1.56196928 0.00423610 3.14075770 0.74100000 0.04000000 0.04000000
1.885000 -0.03910199 0.25286796 -0.04186374 -1.56015946 0.00424037 3.14095375 0.74100000 0.04000000 0.04000000
1.890000 -0.03919537 0.25474514 -0.04190435 -1.55835565 0.00424458 3.14114773 0.74100000 0.04000000 0.04000000
1.895000 -0.03928846 0.25661326 -0.04194446 -1.55655786 0.00424874 3.14133963 0.74100000 0.04000000 0.04000000
1.900000 -0.03938125 0.25847235 -0.04198408 -1.55476609 0.00425285 3.14152947 0.74100000 0.04000000 0.04000000
1.905000 -0.03947374 0.26032247 -0.04202321 -1.55298032 0.00425691 3.14171725 0.74100000 0.04000000 0.04000000
1.910000 -0.03956595 0.26216364 -0.04206185 -1.55120055 0.00426092 3.14190299 0.74100000 0.04000000 0.04000000
1.915000 -0.03965786 0.26399592 -0.04210002 -1.54942677 0.00426487 3.14208670 0.74100000 0.04000000 0.04000000
1.920000 -0.03974948 0.26581934 -0.04213771 -1.54765899 0.00426878 3.14226838 0.74100000 0.04000000 0.04000000
1.925000 -0.03984081 0.26763395 -0.04217492 -1.54589718 0.00427263 3.14244804 0.74100000 0.04000000 0.04000000
1.930000 -0.03993185 0.26943978 -0.04221167 -1.54414135 0.00427643 3.14262569 0.74100000 0.04000000 0.04000000
1.935000 -0.04002261 0.27123687 -0.04224795 -1.54239149 0.00428019 3.14280134 0.74100000 0.04000000 0.04000000
1.940000 -0.04011307 0.27302527 -0.04228377 -1.54064759 0.00428389 3.14297500 0.74100000 0.04000000 0.04000000
1.945000 -0.04020325 0.27480502 -0.04231913 -1.53890964 0.00428755 3.14314668 0.74100000 0.04000000 0.04000000
1.950000 -0.04029314 0.27657615 -0.04235404 -1.53717764 0.00429116 3.14331639 0.74100000 0.04000000 0.04000000
1.955000 -0.04038274 0.27833871 -0.04238850 -1.53545158 0.00429472 3.14348413 0.74100000 0.04000000 0.04000000
1.960000 -0.04047206 0.28009273 -0.04242251 -1.53373145 0.00429823 3.14364992 0.74100000 0.04000000 0.04000000
1.965000 -0.04056110 0.28183826 -0.04245608 -1.53201725 0.00430170 3.14381376 0.74100000 0.04000000 0.04000000
1.970000 -0.04064985 0.28357532 -0.04248920 -1.53030897 0.00430512 3.14397566 0.74100000 0.04000000 0.04000000
1.975000 -0.04073832 0.28530397 -0.04252190 -1.52860660 0.00430849 3.14413564 0.74100000 0.04000000 0.04000000
1.980000 -0.04082651 0.28702424 -0.04255415 -1.52691013 0.00431182 3.14429370 0.74100000 0.04000000 0.04000000
1.985000 -0.04091441 0.28873617 -0.04258598 -1.52521955 0.00431510 3.14444985 0.74100000 0.04000000 0.04000000
1.990000 -0.04100204 0.29043980 -0.04261739 -1.52353486 0.00431834 3.14460410 0.74100000 0.04000000 0.04000000
1.995000 -0.04108938 0.29213517 -0.04264837 -1.52185605 0.00432153 3.14475646 0.74100000 0.04000000 0.04000000
2.000000 -0.04117645 0.29382230 -0.04267893 -1.52018310 0.00432467 3.14490694 0.74100000 0.04000000 0.04000000
2.005000 -0.04068309 0.29434733 -0.04223041 -1.52051940 0.00426619 3.14469509 0.74100000 0.04000000 0.04000000
2.010000 -0.04018995 0.29487654 -0.04178228 -1.52085059 0.00420780 3.14448452 0.74100000 0.04000000 0.04000000
2.015000 -0.03969702 0.29540992 -0.04133452 -1.52117668 0.00414950 3.14427523 0.74100000 0.04000000 0.04000000
2.020000 -0.03920431 0.29594748 -0.04088714 -1.52149766 0.00409128 3.14406721 0.74100000 0.04000000 0.04000000
2.025000 -0.03871180 0.29648920 -0.04044015 -1.52181353 0.00403315 3.14386047 0.74100000 0.04000000 0.04000000
2.030000 -0.03821950 0.29703509 -0.03999353 -1.52212431 0.00397511 3.14365500 0.74100000 0.04000000 0.04000000
2.035000 -0.03772741 0.29758514 -0.03954730 -1.52242998 0.00391716 3.14345081 0.74100000 0.04000000 0.04000000
2.040000 -0.03723553 0.29813934 -0.03910145 -1.52273055 0.00385930 3.14324790 0.74100000 0.04000000 0.04000000
2.045000 -0.03674385 0.29869770 -0.03865598 -1.52302602 0.00380152 3.14304626 0.74100000 0.04000000 0.04000000
2.050000 -0.03625237 0.29926021 -0.03821089 -1.52331639 0.00374384 3.14284590 0.74100000 0.04000000 0.04000000
2.055000 -0.03576109 0.29982687 -0.03776619 -1.52360166 0.00368624 3.14264680 0.74100000 0.04000000 0.04000000
2.060000 -0.03527000 0.30039768 -0.03732188 -1.52388184 0.00362872 3.14244898 0.74100000 0.04000000 0.04000000
2.065000 -0.03477912 0.30097262 -0.03687795 -1.52415692 0.00357130 3.14225244 0.74100000 0.04000000 0.04000000
2.070000 -0.03428843 0.30155170 -0.03643441 -1.52442690 0.00351396 3.14205716 0.74100000 0.04000000 0.04000000
2.075000 -0.03379794 0.30213491 -0.03599125 -1.52469178 0.00345671 3.14186316 0.74100000 0.04000000 0.04000000
2.080000 -0.03330763 0.30272225 -0.03554848 -1.52495156 0.00339955 3.14167043 0.74100000 0.04000000 0.04000000
2.085000 -0.03281752 0.30331372 -0.03510610 -1.52520625 0.00334247 3.14147896 0.74100000 0.04000000 0.04000000
2.090000 -0.03232760 0.30390932 -0.03466410 -1.52545585 0.00328548 3.14128877 0.74100000 0.04000000 0.04000000
2.095000 -0.03183786 0.30450903 -0.03422250 -1.52570035 0.00322858 3.14109985 0.74100000 0.04000000 0.04000000
2.100000 -0.03134831 0.30511287 -0.03378129 -1.52593975 0.00317177 3.14091219 0.74100000 0.04000000 0.04000000
2.105000 -0.03085895 0.30572081 -0.03334046 -1.52617405 0.00311504 3.14072580 0.74100000 0.04000000 0.04000000
2.110000 -0.03036977 0.30633287 -0.03290003 -1.52640326 0.00305840 3.14054068 0.74100000 0.04000000 0.04000000
2.115000 -0.02988077 0.30694904 -0.03245999 -1.52662738 0.00300185 3.14035682 0.74100000 0.04000000 0.04000000
2.120000 -0.02939195 0.30756931 -0.03202034 -1.52684640 0.00294538 3.14017423 0.74100000 0.04000000 0.04000000
2.125000 -0.02890330 0.30819368 -0.03158109 -1.52706032 0.00288900 3.13999290 0.74100000 0.04000000 0.04000000
2.130000 -0.02841484 0.30882215 -0.03114223 -1.52726914 0.00283271 3.13981284 0.74100000 0.04000000 0.04000000
2.135000 -0.02792655 0.30945472 -0.03070377 -1.52747286 0.00277650 3.13963404 0.74100000 0.04000000 0.04000000
2.140000 -0.02743844 0.31009137 -0.03026571 -1.52767149 0.00272038 3.13945651 0.74100000 0.04000000 0.04000000
2.145000 -0.02695049 0.31073212 -0.02982804 -1.52786502 0.00266434 3.13928023 0.74100000 0.04000000 0.04000000
2.150000 -0.02646272 0.31137696 -0.02939077 -1.52805345 0.00260839 3.13910522 0.74100000 0.04000000 0.04000000
2.155000 -0.02597512 0.31202588 -0.02895390 -1.52823678 0.00255253 3.13893146 0.74100000 0.04000000 0.04000000
2.160000 -0.02548768 0.31267888 -0.02851742 -1.52841501 0.00249676 3.13875897 0.74100000 0.04000000 0.04000000
2.165000 -0.02500042 0.31333596 -0.02808135 -1.52858814 0.00244107 3.13858773 0.74100000 0.04000000 0.04000000
2.170000 -0.02451332 0.31399712 -0.02764568 -1.52875616 0.00238547 3.13841775 0.74100000 0.04000000 0.04000000
2.175000 -0.02402638 0.31466235 -0.02721042 -1.52891908 0.00232995 3.13824903 0.74100000 0.04000000 0.04000000
2.180000 -0.02353960 0.31533164 -0.02677555 -1.52907690 0.00227452 3.13808157 0.74100000 0.04000000 0.04000000
2.185000 -0.02305299 0.31600501 -0.02634109 -1.52922961 0.00221917 3.13791536 0.74100000 0.04000000 0.04000000
2.190000 -0.02256653 0.31668244 -0.02590704 -1.52937722 0.00216391 3.13775040 0.74100000 0.04000000 0.04000000
2.195000 -0.02208024 0.31736393 -0.02547339 -1.52951971 0.00210874 3.13758670 0.74100000 0.04000000 0.04000000
2.200000 -0.02159410 0.31804948 -0.02504015 -1.52965710 0.00205365 3.13742425 0.74100000 0.04000000 0.04000000
2.205000 -0.02110811 0.31873909 -0.02460732 -1.52978938 0.00199865 3.13726305 0.74100000 0.04000000 0.04000000
2.210000 -0.02062228 0.31943275 -0.02417490 -1.52991654 0.00194374 3.13710310 0.74100000 0.04000000 0.04000000
2.215000 -0.02013660 0.32013047 -0.02374289 -1.53003859 0.00188891 3.13694440 0.74100000 0.04000000 0.04000000
2.220000 -0.01965108 0.32083223 -0.02331129 -1.53015552 0.00183416 3.13678695 0.74100000 0.04000000 0.04000000
2.225000 -0.01916570 0.32153804 -0.02288010 -1.53026734 0.00177950 3.13663075 0.74100000 0.04000000 0.04000000
2.230000 -0.01868047 0.32224790 -0.02244933 -1.53037404 0.00172493 3.13647580 0.74100000 0.04000000 0.04000000
2.235000 -0.01819539 0.32296179 -0.02201897 -1.53047562 0.00167045 3.13632209 0.74100000 0.04000000 0.04000000
2.240000 -0.01771046 0.32367973 -0.02158903 -1.53057207 0.00161604 3.13616963 0.74100000 0.04000000 0.04000000
2.245000 -0.01722567 0.32440170 -0.02115951 -1.53066340 0.00156173 3.13601841 0.74100000 0.04000000 0.04000000
2.250000 -0.01674102 0.32512771 -0.02073040 -1.53074961 0.00150750 3.13586843 0.74100000 0.04000000 0.04000000
2.255000 -0.01625651 0.32585775 -0.02030171 -1.53083068 0.00145335 3.13571970 0.74100000 0.04000000 0.04000000
2.260000 -0.01577215 0.32659182 -0.01987345 -1.53090663 0.00139930 3.13557221 0.74100000 0.04000000 0.04000000
2.265000 -0.01528792 0.32732992 -0.01944560 -1.53097744 0.00134532 3.13542595 0.74100000 0.04000000 0.04000000
2.270000 -0.01480383 0.32807204 -0.01901818 -1.53104311 0.00129144 3.13528094 0.74100000 0.04000000 0.04000000
2.275000 -0.01431988 0.32881819 -0.01859118 -1.53110365 0.00123763 3.13513716 0.74100000 0.04000000 0.04000000
2.280000 -0.01383607 0.32956835 -0.01816461 -1.53115905 0.00118392 3.13499462 0.74100000 0.04000000 0.04000000
2.285000 -0.01335238 0.33032254 -0.01773847 -1.53120930 0.00113029 3.13485332 0.74100000 0.04000000 0.04000000
2.290000 -0.01286883 0.33108075 -0.01731275 -1.53125441 0.00107674 3.13471325 0.74100000 0.04000000 0.04000000
2.295000 -0.01238542 0.33184297 -0.01688746 -1.53129437 0.00102328 3.13457442 0.74100000 0.04000000 0.04000000
2.300000 -0.01190213 0.33260920 -0.01646260 -1.53132918 0.00096991 3.13443681 0.74100000 0.04000000 0.04000000
2.305000 -0.01141897 0.33337944 -0.01603818 -1.53135883 0.00091662 3.13430044 0.74100000 0.04000000 0.04000000
2.310000 -0.01093594 0.33415370 -0.01561419 -1.53138333 0.00086342 3.13416530 0.74100000 0.04000000 0.04000000
2.315000 -0.01045303 0.33493196 -0.01519063 -1.53140267 0.00081030 3.13403139 0.74100000 0.04000000 0.04000000
2.320000 -0.00997025 0.33571422 -0.01476751 -1.53141685 0.00075727 3.13389871 0.74100000 0.04000000 0.04000000
2.325000 -0.00948759 0.33650049 -0.01434482 -1.53142586 0.00070432 3.13376725 0.74100000 0.04000000 0.04000000
2.330000 -0.00900506 0.33729076 -0.01392258 -1.53142970 0.00065146 3.13363702 0.74100000 0.04000000 0.04000000
2.335000 -0.00852265 0.33808503 -0.01350077 -1.53142837 0.00059868 3.13350801 0.74100000 0.04000000 0.04000000
2.340000 -0.00804035 0.33888330 -0.01307940 -1.53142186 0.00054599 3.13338023 0.74100000 0.04000000 0.04000000
2.345000 -0.00755818 0.33968557 -0.01265848 -1.53141017 0.00049339 3.13325367 0.74100000 0.04000000 0.04000000
2.350000 -0.00707612 0.34049183 -0.01223800 -1.53139330 0.00044087 3.13312832 0.74100000 0.04000000 0.04000000
2.355000 -0.00659418 0.34130208 -0.01181797 -1.53137124 0.00038844 3.13300420 0.74100000 0.04000000 0.04000000
2.360000 -0.00611236 0.34211632 -0.01139838 -1.53134400 0.00033609 3.13288130 0.74100000 0.04000000 0.04000000
2.365000 -0.00563065 0.34293455 -0.01097925 -1.53131155 0.00028383 3.13275961 0.74100000 0.04000000 0.04000000
2.370000 -0.00514905 0.34375678 -0.01056056 -1.53127391 0.00023165 3.13263914 0.74100000 0.04000000 0.04000000
2.375000 -0.00466756 0.34458298 -0.01014232 -1.53123107 0.00017956 3.13251989 0.74100000 0.04000000 0.04000000
2.380000 -0.00418618 0.34541318 -0.00972454 -1.53118303 0.00012756 3.13240185 0.74100000 0.04000000 0.04000000
2.385000 -0.00370491 0.34624735 -0.00930721 -1.53112977 0.00007564 3.13228502 0.74100000 0.04000000 0.04000000
2.390000 -0.00322375 0.34708551 -0.00889034 -1.53107130 0.00002381 3.13216940 0.74100000 0.04000000 0.04000000
2.395000 -0.00274270 0.34792765 -0.00847393 -1.53100761 -0.00002794 3.13205499 0.74100000 0.04000000 0.04000000
2.400000 -0.00226175 0.34877377 -0.00805797 -1.53093870 -0.00007960 3.13194178 0.74100000 0.04000000 0.04000000
2.405000 -0.00178091 0.34962386 -0.00764248 -1.53086456 -0.00013117 3.13182979 0.74100000 0.04000000 0.04000000
2.410000 -0.00130017 0.35047794 -0.00722744 -1.53078518 -0.00018266 3.13171900 0.74100000 0.04000000 0.04000000
2.415000 -0.00081953 0.35133598 -0.00681287 -1.53070058 -0.00023407 3.13160941 0.74100000 0.04000000 0.04000000
2.420000 -0.00033899 0.35219801 -0.00639877 -1.53061073 -0.00028538 3.13150103 0.74100000 0.04000000 0.04000000
2.425000 0.00014145 0.35306400 -0.00598513 -1.53051563 -0.00033662 3.13139385 0.74100000 0.04000000 0.04000000
2.430000 0.00062179 0.35393397 -0.00557197 -1.53041529 -0.00038776 3.13128787 0.74100000 0.04000000 0.04000000
2.435000 0.00110203 0.35480791 -0.00515927 -1.53030969 -0.00043882 3.13118308 0.74100000 0.04000000 0.04000000
2.440000 0.00158218 0.35568581 -0.00474705 -1.53019883 -0.00048979 3.13107950 0.74100000 0.04000000 0.04000000
2.445000 0.00206223 0.35656769 -0.00433529 -1.53008270 -0.00054068 3.13097711 0.74100000 0.04000000 0.04000000
2.450000 0.00254219 0.35745353 -0.00392402 -1.52996130 -0.00059148 3.13087591 0.74100000 0.04000000 0.04000000
2.455000 0.00302205 0.35834334 -0.00351322 -1.52983463 -0.00064219 3.13077591 0.74100000 0.04000000 0.04000000
2.460000 0.00350183 0.35923712 -0.00310290 -1.52970267 -0.00069282 3.13067709 0.74100000 0.04000000 0.04000000
2.465000 0.00398151 0.36013486 -0.00269306 -1.52956543 -0.00074336 3.13057947 0.74100000 0.04000000 0.04000000
2.470000 0.00446110 0.36103656 -0.00228371 -1.52942289 -0.00079381 3.13048304 0.74100000 0.04000000 0.04000000
2.475000 0.00494061 0.36194223 -0.00187483 -1.52927506 -0.00084418 3.13038779 0.74100000 0.04000000 0.04000000
2.480000 0.00542003 0.36285186 -0.00146645 -1.52912192 -0.00089446 3.13029373 0.74100000 0.04000000 0.04000000
2.485000 0.00589936 0.36376545 -0.00105855 -1.52896348 -0.00094465 3.13020085 0.74100000 0.04000000 0.04000000
2.490000 0.00637861 0.36468300 -0.00065114 -1.52879971 -0.00099476 3.13010916 0.74100000 0.04000000 0.04000000
2.495000 0.00685778 0.36560451 -0.00024422 -1.52863063 -0.00104478 3.13001864 0.74100000 0.04000000 0.04000000
2.500000 0.00733686 0.36652998 0.00016220 -1.52845622 -0.00109472 3.12992931 0.74100000 0.04000000 0.04000000
2.505000 0.00781586 0.36745941 0.00056813 -1.52827647 -0.00114456 3.12984115 0.74100000 0.04000000 0.04000000
2.510000 0.00829478 0.36839279 0.00097356 -1.52809138 -0.00119432 3.12975417 0.74100000 0.04000000 0.04000000
2.515000 0.00877362 0.36933014 0.00137850 -1.52790095 -0.00124399 3.12966836 0.74100000 0.04000000 0.04000000
2.520000 0.00925238 0.37027144 0.00178293 -1.52770516 -0.00129358 3.12958373 0.74100000 0.04000000 0.04000000
2.525000 0.00973107 0.37121670 0.00218686 -1.52750401 -0.00134307 3.12950027 0.74100000 0.04000000 0.04000000
2.530000 0.01020968 0.37216591 0.00259029 -1.52729750 -0.00139248 3.12941797 0.74100000 0.04000000 0.04000000
2.535000 0.01068821 0.37311908 0.00299320 -1.52708561 -0.00144181 3.12933685 0.74100000 0.04000000 0.04000000
2.540000 0.01116667 0.37407621 0.00339561 -1.52686835 -0.00149104 3.12925689 0.74100000 0.04000000 0.04000000
2.545000 0.01164506 0.37503729 0.00379752 -1.52664569 -0.00154019 3.12917810 0.74100000 0.04000000 0.04000000
2.550000 0.01212337 0.37600233 0.00419890 -1.52641764 -0.00158925 3.12910047 0.74100000 0.04000000 0.04000000
2.555000 0.01260162 0.37697132 0.00459978 -1.52618419 -0.00163822 3.12902401 0.74100000 0.04000000 0.04000000
2.560000 0.01307979 0.37794427 0.00500013 -1.52594533 -0.00168710 3.12894870 0.74100000 0.04000000 0.04000000
2.565000 0.01355790 0.37892117 0.00539997 -1.52570106 -0.00173590 3.12887455 0.74100000 0.04000000 0.04000000
2.570000 0.01403594 0.37990203 0.00579929 -1.52545136 -0.00178460 3.12880156 0.74100000 0.04000000 0.04000000
2.575000 0.01451391 0.38088684 0.00619809 -1.52519623 -0.00183322 3.12872972 0.74100000 0.04000000 0.04000000
2.580000 0.01499181 0.38187560 0.00659636 -1.52493566 -0.00188175 3.12865903 0.74100000 0.04000000 0.04000000
2.585000 0.01546966 0.38286832 0.00699410 -1.52466964 -0.00193019 3.12858950 0.74100000 0.04000000 0.04000000
2.590000 0.01594743 0.38386500 0.00739132 -1.52439817 -0.00197854 3.12852112 0.74100000 0.04000000 0.04000000
2.595000 0.01642515 0.38486563 0.00778800 -1.52412124 -0.00202681 3.12845388 0.74100000 0.04000000 0.04000000
2.600000 0.01690280 0.38587021 0.00818416 -1.52383883 -0.00207498 3.12838779 0.74100000 0.04000000 0.04000000
2.605000 0.01738040 0.38687875 0.00857977 -1.52355095 -0.00212307 3.12832285 0.74100000 0.04000000 0.04000000
2.610000 0.01785793 0.38789125 0.00897485 -1.52325757 -0.00217107 3.12825904 0.74100000 0.04000000 0.04000000
2.615000 0.01833541 0.38890770 0.00936939 -1.52295871 -0.00221898 3.12819638 0.74100000 0.04000000 0.04000000
2.620000 0.01881282 0.38992811 0.00976339 -1.52265433 -0.00226679 3.12813486 0.74100000 0.04000000 0.04000000
2.625000 0.01929018 0.39095248 0.01015685 -1.52234445 -0.00231452 3.12807447 0.74100000 0.04000000 0.04000000
2.630000 0.01976749 0.39198080 0.01054976 -1.52202904 -0.00236216 3.12801522 0.74100000 0.04000000 0.04000000
2.635000 0.02024474 0.39301308 0.01094212 -1.52170810 -0.00240971 3.12795710 0.74100000 0.04000000 0.04000000
2.640000 0.02072194 0.39404932 0.01133393 -1.52138162 -0.00245717 3.12790012 0.74100000 0.04000000 0.04000000
2.645000 0.02119908 0.39508952 0.01172519 -1.52104959 -0.00250454 3.12784426 0.74100000 0.04000000 0.04000000
2.650000 0.02167617 0.39613368 0.01211589 -1.52071200 -0.00255182 3.12778953 0.74100000 0.04000000 0.04000000
2.655000 0.02215321 0.39718180 0.01250603 -1.52036884 -0.00259901 3.12773593 0.74100000 0.04000000 0.04000000
2.660000 0.02263021 0.39823388 0.01289562 -1.52002010 -0.00264611 3.12768345 0.74100000 0.04000000 0.04000000
2.665000 0.02310715 0.39928993 0.01328464 -1.51966578 -0.00269312 3.12763209 0.74100000 0.04000000 0.04000000
2.670000 0.02358404 0.40034994 0.01367310 -1.51930586 -0.00274003 3.12758185 0.74100000 0.04000000 0.04000000
2.675000 0.02406089 0.40141391 0.01406100 -1.51894033 -0.00278686 3.12753273 0.74100000 0.04000000 0.04000000
2.680000 0.02453769 0.40248184 0.01444832 -1.51856919 -0.00283360 3.12748473 0.74100000 0.04000000 0.04000000
2.685000 0.02501445 0.40355374 0.01483508 -1.51819241 -0.00288024 3.12743784 0.74100000 0.04000000 0.04000000
2.690000 0.02549116 0.40462961 0.01522125 -1.51781000 -0.00292679 3.12739206 0.74100000 0.04000000 0.04000000
2.695000 0.02596782 0.40570945 0.01560686 -1.51742194 -0.00297326 3.12734739 0.74100000 0.04000000 0.04000000
2.700000 0.02644445 0.40679326 0.01599188 -1.51702823 -0.00301963 3.12730383 0.74100000 0.04000000 0.04000000
2.705000 0.02692103 0.40788104 0.01637633 -1.51662884 -0.00306590 3.12726138 0.74100000 0.04000000 0.04000000
2.710000 0.02739758 0.40897279 0.01676019 -1.51622377 -0.00311209 3.12722003 0.74100000 0.04000000 0.04000000
2.715000 0.02787408 0.41006851 0.01714346 -1.51581301 -0.00315818 3.12717978 0.74100000 0.04000000 0.04000000
2.720000 0.02835054 0.41116821 0.01752615 -1.51539655 -0.00320418 3.12714063 0.74100000 0.04000000 0.04000000
2.725000 0.02882696 0.41227189 0.01790824 -1.51497437 -0.00325009 3.12710258 0.74100000 0.04000000 0.04000000
2.730000 0.02930335 0.41337954 0.01828974 -1.51454647 -0.00329591 3.12706563 0.74100000 0.04000000 0.04000000
2.735000 0.02977970 0.41449118 0.01867065 -1.51411283 -0.00334163 3.12702977 0.74100000 0.04000000 0.04000000
2.740000 0.03025602 0.41560679 0.01905096 -1.51367345 -0.00338726 3.12699500 0.74100000 0.04000000 0.04000000
2.745000 0.03073230 0.41672639 0.01943066 -1.51322830 -0.00343280 3.12696131 0.74100000 0.04000000 0.04000000
2.750000 0.03120854 0.41784997 0.01980977 -1.51277738 -0.00347824 3.12692872 0.74100000 0.04000000 0.04000000
2.755000 0.03168475 0.41897754 0.02018826 -1.51232068 -0.00352359 3.12689721 0.74100000 0.04000000 0.04000000
2.760000 0.03216093 0.42010910 0.02056615 -1.51185818 -0.00356885 3.12686678 0.74100000 0.04000000 0.04000000
2.765000 0.03263708 0.42124465 0.02094342 -1.51138987 -0.00361401 3.12683744 0.74100000 0.04000000 0.04000000
2.770000 0.03311320 0.42238419 0.02132009 -1.51091573 -0.00365908 3.12680917 0.74100000 0.04000000 0.04000000
2.775000 0.03358928 0.42352773 0.02169613 -1.51043577 -0.00370405 3.12678197 0.74100000 0.04000000 0.04000000
2.780000 0.03406534 0.42467526 0.02207156 -1.50994995 -0.00374893 3.12675585 0.74100000 0.04000000 0.04000000
2.785000 0.03454137 0.42582680 0.02244636 -1.50945828 -0.00379372 3.12673080 0.74100000 0.04000000 0.04000000
2.790000 0.03501736 0.42698233 0.02282054 -1.50896073 -0.00383840 3.12670683 0.74100000 0.04000000 0.04000000
2.795000 0.03549334 0.42814187 0.02319408 -1.50845729 -0.00388300 3.12668391 0.74100000 0.04000000 0.04000000
2.800000 0.03596928 0.42930541 0.02356700 -1.50794796 -0.00392750 3.12666206 0.74100000 0.04000000 0.04000000
2.805000 0.03644520 0.43047297 0.02393929 -1.50743271 -0.00397190 3.12664128 0.74100000 0.04000000 0.04000000
2.810000 0.03692110 0.43164453 0.02431094 -1.50691153 -0.00401620 3.12662155 0.74100000 0.04000000 0.04000000
2.815000 0.03739697 0.43282011 0.02468195 -1.50638440 -0.00406041 3.12660288 0.74100000 0.04000000 0.04000000
2.820000 0.03787281 0.43399970 0.02505232 -1.50585133 -0.00410453 3.12658527 0.74100000 0.04000000 0.04000000
2.825000 0.03834863 0.43518332 0.02542204 -1.50531228 -0.00414855 3.12656870 0.74100000 0.04000000 0.04000000
2.830000 0.03882443 0.43637096 0.02579112 -1.50476724 -0.00419247 3.12655319 0.74100000 0.04000000 0.04000000
2.835000 0.03930021 0.43756262 0.02615955 -1.50421621 -0.00423629 3.12653873 0.74100000 0.04000000 0.04000000
2.840000 0.03977597 0.43875831 0.02652732 -1.50365916 -0.00428001 3.12652531 0.74100000 0.04000000 0.04000000
2.845000 0.04025171 0.43995803 0.02689444 -1.50309608 -0.00432364 3.12651293 0.74100000 0.04000000 0.04000000
2.850000 0.04072742 0.44116179 0.02726089 -1.50252695 -0.00436717 3.12650159 0.74100000 0.04000000 0.04000000
2.855000 0.04120312 0.44236958 0.02762669 -1.50195176 -0.00441060 3.12649129 0.74100000 0.04000000 0.04000000
2.860000 0.04167880 0.44358141 0.02799182 -1.50137050 -0.00445394 3.12648203 0.74100000 0.04000000 0.04000000
2.865000 0.04215446 0.44479729 0.02835628 -1.50078314 -0.00449717 3.12647379 0.74100000 0.04000000 0.04000000
2.870000 0.04263010 0.44601722 0.02872007 -1.50018968 -0.00454031 3.12646659 0.74100000 0.04000000 0.04000000
2.875000 0.04310572 0.44724120 0.02908319 -1.49959009 -0.00458334 3.12646042 0.74100000 0.04000000 0.04000000
2.880000 0.04358133 0.44846923 0.02944563 -1.49898436 -0.00462628 3.12645527 0.74100000 0.04000000 0.04000000
2.885000 0.04405692 0.44970132 0.02980739 -1.49837247 -0.00466912 3.12645114 0.74100000 0.04000000 0.04000000
2.890000 0.04453250 0.45093747 0.03016846 -1.49775441 -0.00471186 3.12644803 0.74100000 0.04000000 0.04000000
2.895000 0.04500806 0.45217769 0.03052885 -1.49713015 -0.00475449 3.12644594 0.74100000 0.04000000 0.04000000
2.900000 0.04548360 0.45342198 0.03088855 -1.49649969 -0.00479703 3.12644486 0.74100000 0.04000000 0.04000000
2.905000 0.04595914 0.45467035 0.03124755 -1.49586300 -0.00483947 3.12644480 0.74100000 0.04000000 0.04000000
2.910000 0.04643465 0.45592279 0.03160586 -1.49522006 -0.00488180 3.12644574 0.74100000 0.04000000 0.04000000
2.915000 0.04691016 0.45717931 0.03196347 -1.49457086 -0.00492403 3.12644769 0.74100000 0.04000000 0.04000000
2.920000 0.04738565 0.45843992 0.03232038 -1.49391539 -0.00496616 3.12645064 0.74100000 0.04000000 0.04000000
2.925000 0.04786113 0.45970462 0.03267658 -1.49325361 -0.00500819 3.12645459 0.74100000 0.04000000 0.04000000
2.930000 0.04833659 0.46097342 0.03303207 -1.49258552 -0.00505012 3.12645954 0.74100000 0.04000000 0.04000000
2.935000 0.04881205 0.46224631 0.03338685 -1.49191109 -0.00509194 3.12646548 0.74100000 0.04000000 0.04000000
2.940000 0.04928749 0.46352332 0.03374092 -1.49123031 -0.00513366 3.12647242 0.74100000 0.04000000 0.04000000
2.945000 0.04976292 0.46480442 0.03409426 -1.49054316 -0.00517528 3.12648034 0.74100000 0.04000000 0.04000000
2.950000 0.05023834 0.46608965 0.03444688 -1.48984961 -0.00521680 3.12648925 0.74100000 0.04000000 0.04000000
2.955000 0.05071375 0.46737899 0.03479878 -1.48914965 -0.00525821 3.12649915 0.74100000 0.04000000 0.04000000
2.960000 0.05118915 0.46867246 0.03514994 -1.48844325 -0.00529951 3.12651002 0.74100000 0.04000000 0.04000000
2.965000 0.05166454 0.46997005 0.03550038 -1.48773041 -0.00534071 3.12652187 0.74100000 0.04000000 0.04000000
2.970000 0.05213992 0.47127178 0.03585007 -1.48701109 -0.00538181 3.12653470 0.74100000 0.04000000 0.04000000
2.975000 0.05261529 0.47257765 0.03619903 -1.48628527 -0.00542280 3.12654849 0.74100000 0.04000000 0.04000000
2.980000 0.05309065 0.47388766 0.03654724 -1.48555294 -0.00546368 3.12656326 0.74100000 0.04000000 0.04000000
2.985000 0.05356600 0.47520182 0.03689471 -1.48481408 -0.00550446 3.12657899 0.74100000 0.04000000 0.04000000
2.990000 0.05404134 0.47652014 0.03724142 -1.48406866 -0.00554513 3.12659568 0.74100000 0.04000000 0.04000000
2.995000 0.05451667 0.47784262 0.03758739 -1.48331665 -0.00558570 3.12661333 0.74100000 0.04000000 0.04000000
3.000000 0.05499090 0.47916556 0.03793178 -1.48256061 -0.00562606 3.12663164 0.74100000 0.04000000 0.04000000
3.005000 0.05546255 0.48048382 0.03827349 -1.48180409 -0.00566607 3.12665021 0.74100000 0.04000000 0.04000000
3.010000 0.05593163 0.48179741 0.03861255 -1.48104714 -0.00570574 3.12666902 0.74100000 0.04000000 0.04000000
3.015000 0.05639815 0.48310630 0.03894896 -1.48028982 -0.00574507 3.12668805 0.74100000 0.04000000 0.04000000
3.020000 0.05686213 0.48441050 0.03928275 -1.47953216 -0.00578407 3.12670731 0.74100000 0.04000000 0.04000000
3.025000 0.05732358 0.48571000 0.03961394 -1.47877421 -0.00582273 3.12672676 0.74100000 0.04000000 0.04000000
3.030000 0.05778253 0.48700480 0.03994254 -1.47801602 -0.00586106 3.12674641 0.74100000 0.04000000 0.04000000
3.035000 0.05823898 0.48829489 0.04026858 -1.47725764 -0.00589906 3.12676624 0.74100000 0.04000000 0.04000000
3.040000 0.05869296 0.48958027 0.04059207 -1.47649909 -0.00593673 3.12678624 0.74100000 0.04000000 0.04000000
3.045000 0.05914447 0.49086095 0.04091303 -1.47574043 -0.00597408 3.12680641 0.74100000 0.04000000 0.04000000
3.050000 0.05959354 0.49213691 0.04123148 -1.47498170 -0.00601111 3.12682672 0.74100000 0.04000000 0.04000000
3.055000 0.06004018 0.49340816 0.04154743 -1.47422294 -0.00604781 3.12684717 0.74100000 0.04000000 0.04000000
3.060000 0.06048440 0.49467468 0.04186091 -1.47346419 -0.00608420 3.12686774 0.74100000 0.04000000 0.04000000
3.065000 0.06092622 0.49593649 0.04217194 -1.47270548 -0.00612028 3.12688844 0.74100000 0.04000000 0.04000000
3.070000 0.06136566 0.49719359 0.04248052 -1.47194687 -0.00615604 3.12690924 0.74100000 0.04000000 0.04000000
3.075000 0.06180272 0.49844596 0.04278668 -1.47118838 -0.00619149 3.12693015 0.74100000 0.04000000 0.04000000
3.080000 0.06223743 0.49969361 0.04309043 -1.47043006 -0.00622664 3.12695114 0.74100000 0.04000000 0.04000000
3.085000 0.06266979 0.50093655 0.04339180 -1.46967194 -0.00626148 3.12697221 0.74100000 0.04000000 0.04000000
3.090000 0.06309983 0.50217476 0.04369080 -1.46891406 -0.00629601 3.12699335 0.74100000 0.04000000 0.04000000
3.095000 0.06352756 0.50340826 0.04398744 -1.46815646 -0.00633024 3.12701456 0.74100000 0.04000000 0.04000000
3.100000 0.06395298 0.50463704 0.04428175 -1.46739916 -0.00636418 3.12703581 0.74100000 0.04000000 0.04000000
3.105000 0.06437612 0.50586110 0.04457374 -1.46664221 -0.00639782 3.12705711 0.74100000 0.04000000 0.04000000
3.110000 0.06479699 0.50708046 0.04486342 -1.46588565 -0.00643116 3.12707845 0.74100000 0.04000000 0.04000000
3.115000 0.06521560 0.50829510 0.04515082 -1.46512949 -0.00646421 3.12709981 0.74100000 0.04000000 0.04000000
3.120000 0.06563196 0.50950503 0.04543595 -1.46437378 -0.00649697 3.12712120 0.74100000 0.04000000 0.04000000
3.125000 0.06604610 0.51071026 0.04571883 -1.46361855 -0.00652945 3.12714259 0.74100000 0.04000000 0.04000000
3.130000 0.06645802 0.51191078 0.04599946 -1.46286384 -0.00656163 3.12716398 0.74100000 0.04000000 0.04000000
3.135000 0.06686774 0.51310660 0.04627788 -1.46210966 -0.00659354 3.12718538 0.74100000 0.04000000 0.04000000
3.140000 0.06727526 0.51429773 0.04655409 -1.46135606 -0.00662516 3.12720675 0.74100000 0.04000000 0.04000000
3.145000 0.06768061 0.51548416 0.04682811 -1.46060306 -0.00665650 3.12722811 0.74100000 0.04000000 0.04000000
3.150000 0.06808380 0.51666591 0.04709996 -1.45985070 -0.00668757 3.12724945 0.74100000 0.04000000 0.04000000
3.155000 0.06848484 0.51784297 0.04736965 -1.45909900 -0.00671835 3.12727075 0.74100000 0.04000000 0.04000000
3.160000 0.06888374 0.51901535 0.04763720 -1.45834799 -0.00674887 3.12729200 0.74100000 0.04000000 0.04000000
3.165000 0.06928051 0.52018306 0.04790262 -1.45759771 -0.00677912 3.12731321 0.74100000 0.04000000 0.04000000
3.170000 0.06967517 0.52134609 0.04816593 -1.45684817 -0.00680909 3.12733437 0.74100000 0.04000000 0.04000000
3.175000 0.07006773 0.52250447 0.04842714 -1.45609941 -0.00683880 3.12735546 0.74100000 0.04000000 0.04000000
3.180000 0.07045821 0.52365818 0.04868627 -1.45535145 -0.00686824 3.12737649 0.74100000 0.04000000 0.04000000
3.185000 0.07084661 0.52480724 0.04894334 -1.45460432 -0.00689742 3.12739744 0.74100000 0.04000000 0.04000000
3.190000 0.07123295 0.52595165 0.04919835 -1.45385805 -0.00692634 3.12741831 0.74100000 0.04000000 0.04000000
3.195000 0.07161723 0.52709142 0.04945133 -1.45311266 -0.00695500 3.12743910 0.74100000 0.04000000 0.04000000
3.200000 0.07199949 0.52822656 0.04970228 -1.45236817 -0.00698340 3.12745980 0.74100000 0.04000000 0.04000000
3.205000 0.07237971 0.52935706 0.04995123 -1.45162461 -0.00701154 3.12748040 0.74100000 0.04000000 0.04000000
3.210000 0.07275792 0.53048295 0.05019819 -1.45088201 -0.00703943 3.12750089 0.74100000 0.04000000 0.04000000
3.215000 0.07313413 0.53160422 0.05044316 -1.45014039 -0.00706707 3.12752128 0.74100000 0.04000000 0.04000000
3.220000 0.07350835 0.53272089 0.05068618 -1.44939977 -0.00709446 3.12754155 0.74100000 0.04000000 0.04000000
3.225000 0.07388059 0.53383295 0.05092724 -1.44866017 -0.00712160 3.12756170 0.74100000 0.04000000 0.04000000
3.230000 0.07425086 0.53494042 0.05116636 -1.44792162 -0.00714850 3.12758173 0.74100000 0.04000000 0.04000000
3.235000 0.07461918 0.53604331 0.05140357 -1.44718414 -0.00717515 3.12760163 0.74100000 0.04000000 0.04000000
3.240000 0.07498556 0.53714162 0.05163886 -1.44644775 -0.00720156 3.12762139 0.74100000 0.04000000 0.04000000
3.245000 0.07535000 0.53823536 0.05187226 -1.44571247 -0.00722772 3.12764102 0.74100000 0.04000000 0.04000000
3.250000 0.07571252 0.53932454 0.05210379 -1.44497833 -0.00725365 3.12766050 0.74100000 0.04000000 0.04000000
3.255000 0.07607313 0.54040917 0.05233344 -1.44424534 -0.00727934 3.12767983 0.74100000 0.04000000 0.04000000
3.260000 0.07643185 0.54148925 0.05256124 -1.44351352 -0.00730479 3.12769901 0.74100000 0.04000000 0.04000000
3.265000 0.07678867 0.54256480 0.05278720 -1.44278289 -0.00733002 3.12771804 0.74100000 0.04000000 0.04000000
3.270000 0.07714362 0.54363583 0.05301133 -1.44205348 -0.00735500 3.12773690 0.74100000 0.04000000 0.04000000
3.275000 0.07749670 0.54470234 0.05323365 -1.44132529 -0.00737976 3.12775559 0.74100000 0.04000000 0.04000000
3.280000 0.07784793 0.54576434 0.05345417 -1.44059836 -0.00740429 3.12777412 0.74100000 0.04000000 0.04000000
3.285000 0.07819732 0.54682184 0.05367290 -1.43987269 -0.00742860 3.12779247 0.74100000 0.04000000 0.04000000
3.290000 0.07854487 0.54787485 0.05388985 -1.43914831 -0.00745267 3.12781065 0.74100000 0.04000000 0.04000000
3.295000 0.07889060 0.54892338 0.05410505 -1.43842524 -0.00747653 3.12782864 0.74100000 0.04000000 0.04000000
3.300000 0.07923451 0.54996745 0.05431849 -1.43770348 -0.00750016 3.12784645 0.74100000 0.04000000 0.04000000
3.305000 0.07957662 0.55100705 0.05453020 -1.43698306 -0.00752357 3.12786407 0.74100000 0.04000000 0.04000000
3.310000 0.07991695 0.55204220 0.05474018 -1.43626399 -0.00754676 3.12788150 0.74100000 0.04000000 0.04000000
3.315000 0.08025549 0.55307292 0.05494845 -1.43554629 -0.00756974 3.12789873 0.74100000 0.04000000 0.04000000
3.320000 0.08059226 0.55409921 0.05515503 -1.43482998 -0.00759250 3.12791576 0.74100000 0.04000000 0.04000000
3.325000 0.08092727 0.55512107 0.05535991 -1.43411507 -0.00761505 3.12793259 0.74100000 0.04000000 0.04000000
3.330000 0.08126052 0.55613853 0.05556312 -1.43340157 -0.00763738 3.12794922 0.74100000 0.04000000 0.04000000
3.335000 0.08159204 0.55715159 0.05576467 -1.43268951 -0.00765951 3.12796564 0.74100000 0.04000000 0.04000000
3.340000 0.08192183 0.55816026 0.05596457 -1.43197889 -0.00768142 3.12798184 0.74100000 0.04000000 0.04000000
3.345000 0.08224989 0.55916456 0.05616283 -1.43126973 -0.00770313 3.12799784 0.74100000 0.04000000 0.04000000
3.350000 0.08257625 0.56016449 0.05635946 -1.43056204 -0.00772463 3.12801361 0.74100000 0.04000000 0.04000000
3.355000 0.08290090 0.56116007 0.05655448 -1.42985584 -0.00774593 3.12802917 0.74100000 0.04000000 0.04000000
3.360000 0.08322387 0.56215130 0.05674789 -1.42915113 -0.00776702 3.12804451 0.74100000 0.04000000 0.04000000
3.365000 0.08354515 0.56313820 0.05693971 -1.42844795 -0.00778792 3.12805962 0.74100000 0.04000000 0.04000000
3.370000 0.08386475 0.56412079 0.05712996 -1.42774628 -0.00780861 3.12807450 0.74100000 0.04000000 0.04000000
3.375000 0.08418270 0.56509906 0.05731863 -1.42704616 -0.00782910 3.12808915 0.74100000 0.04000000 0.04000000
3.380000 0.08449899 0.56607303 0.05750574 -1.42634758 -0.00784940 3.12810357 0.74100000 0.04000000 0.04000000
3.385000 0.08481364 0.56704272 0.05769131 -1.42565057 -0.00786950 3.12811776 0.74100000 0.04000000 0.04000000
3.390000 0.08512665 0.56800813 0.05787535 -1.42495514 -0.00788941 3.12813171 0.74100000 0.04000000 0.04000000
3.395000 0.08543804 0.56896928 0.05805785 -1.42426128 -0.00790913 3.12814543 0.74100000 0.04000000 0.04000000
3.400000 0.08574781 0.56992618 0.05823885 -1.42356903 -0.00792865 3.12815890 0.74100000 0.04000000 0.04000000
3.405000 0.08605597 0.57087883 0.05841835 -1.42287838 -0.00794799 3.12817213 0.74100000 0.04000000 0.04000000
3.410000 0.08636254 0.57182727 0.05859635 -1.42218935 -0.00796713 3.12818512 0.74100000 0.04000000 0.04000000
3.415000 0.08666752 0.57277148 0.05877287 -1.42150194 -0.00798609 3.12819786 0.74100000 0.04000000 0.04000000
3.420000 0.08697091 0.57371149 0.05894793 -1.42081618 -0.00800487 3.12821035 0.74100000 0.04000000 0.04000000
3.425000 0.08727274 0.57464732 0.05912152 -1.42013206 -0.00802346 3.12822259 0.74100000 0.04000000 0.04000000
3.430000 0.08757300 0.57557896 0.05929367 -1.41944960 -0.00804186 3.12823459 0.74100000 0.04000000 0.04000000
3.435000 0.08787171 0.57650643 0.05946437 -1.41876881 -0.00806009 3.12824633 0.74100000 0.04000000 0.04000000
3.440000 0.08816887 0.57742976 0.05963365 -1.41808969 -0.00807814 3.12825781 0.74100000 0.04000000 0.04000000
3.445000 0.08846450 0.57834894 0.05980152 -1.41741226 -0.00809600 3.12826904 0.74100000 0.04000000 0.04000000
3.450000 0.08875860 0.57926399 0.05996797 -1.41673652 -0.00811369 3.12828001 0.74100000 0.04000000 0.04000000
3.455000 0.08905118 0.58017492 0.06013303 -1.41606248 -0.00813121 3.12829072 0.74100000 0.04000000 0.04000000
3.460000 0.08934225 0.58108175 0.06029670 -1.41539015 -0.00814855 3.12830118 0.74100000 0.04000000 0.04000000
3.465000 0.08963182 0.58198449 0.06045900 -1.41471955 -0.00816571 3.12831137 0.74100000 0.04000000 0.04000000
3.470000 0.08991989 0.58288315 0.06061993 -1.41405066 -0.00818271 3.12832130 0.74100000 0.04000000 0.04000000
3.475000 0.09020648 0.58377774 0.06077950 -1.41338351 -0.00819953 3.12833097 0.74100000 0.04000000 0.04000000
3.480000 0.09049160 0.58466828 0.06093773 -1.41271810 -0.00821618 3.12834037 0.74100000 0.04000000 0.04000000
3.485000 0.09077524 0.58555478 0.06109462 -1.41205444 -0.00823267 3.12834951 0.74100000 0.04000000 0.04000000
3.490000 0.09105742 0.58643725 0.06125018 -1.41139254 -0.00824899 3.12835838 0.74100000 0.04000000 0.04000000
3.495000 0.09133815 0.58731571 0.06140442 -1.41073239 -0.00826514 3.12836698 0.74100000 0.04000000 0.04000000
3.500000 0.09161743 0.58819016 0.06155736 -1.41007402 -0.00828113 3.12837532 0.74100000 0.04000000 0.04000000
3.505000 0.09189528 0.58906063 0.06170899 -1.40941741 -0.00829695 3.12838339 0.74100000 0.00200000 0.00200000
3.510000 0.09217170 0.58992712 0.06185934 -1.40876259 -0.00831262 3.12839118 0.74100000 0.00200000 0.00200000
3.515000 0.09244670 0.59078965 0.06200840 -1.40810956 -0.00832812 3.12839871 0.74100000 0.00200000 0.00200000
3.520000 0.09272029 0.59164823 0.06215620 -1.40745831 -0.00834346 3.12840597 0.74100000 0.00200000 0.00200000
3.525000 0.09299247 0.59250287 0.06230273 -1.40680887 -0.00835865 3.12841295 0.74100000 0.00200000 0.00200000
3.530000 0.09326325 0.59335358 0.06244801 -1.40616122 -0.00837367 3.12841966 0.74100000 0.00200000 0.00200000
3.535000 0.09353265 0.59420039 0.06259205 -1.40551539 -0.00838855 3.12842610 0.74100000 0.00200000 0.00200000
3.540000 0.09380066 0.59504330 0.06273486 -1.40487137 -0.00840326 3.12843227 0.74100000 0.00200000 0.00200000
3.545000 0.09406730 0.59588233 0.06287643 -1.40422917 -0.00841782 3.12843816 0.74100000 0.00200000 0.00200000
3.550000 0.09433257 0.59671748 0.06301680 -1.40358879 -0.00843223 3.12844378 0.74100000 0.00200000 0.00200000
3.555000 0.09459649 0.59754878 0.06315595 -1.40295024 -0.00844649 3.12844912 0.74100000 0.00200000 0.00200000
3.560000 0.09485905 0.59837623 0.06329391 -1.40231352 -0.00846060 3.12845419 0.74100000 0.00200000 0.00200000
3.565000 0.09512027 0.59919986 0.06343067 -1.40167863 -0.00847456 3.12845898 0.74100000 0.00200000 0.00200000
3.570000 0.09538015 0.60001966 0.06356625 -1.40104559 -0.00848837 3.12846350 0.74100000 0.00200000 0.00200000
3.575000 0.09563870 0.60083566 0.06370066 -1.40041439 -0.00850204 3.12846774 0.74100000 0.00200000 0.00200000
3.580000 0.09589593 0.60164787 0.06383391 -1.39978504 -0.00851556 3.12847171 0.74100000 0.00200000 0.00200000
3.585000 0.09615184 0.60245631 0.06396600 -1.39915753 -0.00852893 3.12847540 0.74100000 0.00200000 0.00200000
3.590000 0.09640645 0.60326098 0.06409694 -1.39853189 -0.00854216 3.12847881 0.74100000 0.00200000 0.00200000
3.595000 0.09665976 0.60406190 0.06422674 -1.39790810 -0.00855525 3.12848195 0.74100000 0.00200000 0.00200000
3.600000 0.09691177 0.60485908 0.06435542 -1.39728617 -0.00856820 3.12848481 0.74100000 0.00200000 0.00200000
3.605000 0.09716250 0.60565254 0.06448296 -1.39666611 -0.00858100 3.12848740 0.74100000 0.00200000 0.00200000
3.610000 0.09741195 0.60644228 0.06460940 -1.39604791 -0.00859367 3.12848971 0.74100000 0.00200000 0.00200000
3.615000 0.09766013 0.60722833 0.06473472 -1.39543158 -0.00860620 3.12849174 0.74100000 0.00200000 0.00200000
3.620000 0.09790704 0.60801070 0.06485895 -1.39481713 -0.00861859 3.12849350 0.74100000 0.00200000 0.00200000
3.625000 0.09815269 0.60878940 0.06498209 -1.39420455 -0.00863085 3.12849498 0.74100000 0.00200000 0.00200000
3.630000 0.09839709 0.60956444 0.06510415 -1.39359384 -0.00864297 3.12849619 0.74100000 0.00200000 0.00200000
3.635000 0.09864025 0.61033584 0.06522513 -1.39298502 -0.00865495 3.12849712 0.74100000 0.00200000 0.00200000
3.640000 0.09888217 0.61110361 0.06534504 -1.39237807 -0.00866681 3.12849777 0.74100000 0.00200000 0.00200000
3.645000 0.09912286 0.61186776 0.06546389 -1.39177301 -0.00867853 3.12849816 0.74100000 0.00200000 0.00200000
3.650000 0.09936233 0.61262831 0.06558170 -1.39116983 -0.00869012 3.12849826 0.74100000 0.00200000 0.00200000
3.655000 0.09960058 0.61338527 0.06569846 -1.39056854 -0.00870158 3.12849809 0.74100000 0.00200000 0.00200000
3.660000 0.09983761 0.61413866 0.06581418 -1.38996914 -0.00871291 3.12849765 0.74100000 0.00200000 0.00200000
3.665000 0.10007345 0.61488848 0.06592887 -1.38937162 -0.00872411 3.12849694 0.74100000 0.00200000 0.00200000
3.670000 0.10030808 0.61563476 0.06604254 -1.38877599 -0.00873519 3.12849595 0.74100000 0.00200000 0.00200000
3.675000 0.10054153 0.61637750 0.06615520 -1.38818226 -0.00874614 3.12849468 0.74100000 0.00200000 0.00200000
3.680000 0.10077379 0.61711671 0.06626685 -1.38759042 -0.00875696 3.12849315 0.74100000 0.00200000 0.00200000
3.685000 0.10100487 0.61785242 0.06637751 -1.38700047 -0.00876766 3.12849134 0.74100000 0.00200000 0.00200000
3.690000 0.10123478 0.61858464 0.06648717 -1.38641241 -0.00877824 3.12848927 0.74100000 0.00200000 0.00200000
3.695000 0.10146352 0.61931337 0.06659584 -1.38582625 -0.00878870 3.12848692 0.74100000 0.00200000 0.00200000
3.700000 0.10169111 0.62003864 0.06670354 -1.38524199 -0.00879903 3.12848430 0.74100000 0.00200000 0.00200000
3.705000 0.10191754 0.62076045 0.06681027 -1.38465962 -0.00880924 3.12848141 0.74100000 0.00200000 0.00200000
3.710000 0.10214282 0.62147882 0.06691603 -1.38407915 -0.00881934 3.12847825 0.74100000 0.00200000 0.00200000
3.715000 0.10236697 0.62219376 0.06702084 -1.38350057 -0.00882931 3.12847482 0.74100000 0.00200000 0.00200000
3.720000 0.10258998 0.62290529 0.06712470 -1.38292389 -0.00883917 3.12847113 0.74100000 0.00200000 0.00200000
3.725000 0.10281187 0.62361342 0.06722762 -1.38234910 -0.00884891 3.12846716 0.74100000 0.00200000 0.00200000
3.730000 0.10303263 0.62431816 0.06732960 -1.38177621 -0.00885853 3.12846293 0.74100000 0.00200000 0.00200000
3.735000 0.10325227 0.62501952 0.06743065 -1.38120522 -0.00886804 3.12845844 0.74100000 0.00200000 0.00200000
3.740000 0.10347081 0.62571753 0.06753078 -1.38063613 -0.00887744 3.12845368 0.74100000 0.00200000 0.00200000
3.745000 0.10368824 0.62641219 0.06762999 -1.38006893 -0.00888672 3.12844865 0.74100000 0.00200000 0.00200000
3.750000 0.10390458 0.62710351 0.06772830 -1.37950362 -0.00889589 3.12844336 0.74100000 0.00200000 0.00200000
3.755000 0.10411982 0.62779151 0.06782570 -1.37894021 -0.00890495 3.12843781 0.74100000 0.00200000 0.00200000
3.760000 0.10433398 0.62847621 0.06792221 -1.37837870 -0.00891389 3.12843199 0.74100000 0.00200000 0.00200000
3.765000 0.10454706 0.62915761 0.06801783 -1.37781907 -0.00892273 3.12842592 0.74100000 0.00200000 0.00200000
3.770000 0.10475906 0.62983573 0.06811256 -1.37726134 -0.00893146 3.12841958 0.74100000 0.00200000 0.00200000
3.775000 0.10496999 0.63051058 0.06820643 -1.37670550 -0.00894008 3.12841298 0.74100000 0.00200000 0.00200000
3.780000 0.10517987 0.63118218 0.06829942 -1.37615156 -0.00894859 3.12840612 0.74100000 0.00200000 0.00200000
3.785000 0.10538868 0.63185053 0.06839154 -1.37559950 -0.00895700 3.12839901 0.74100000 0.00200000 0.00200000
3.790000 0.10559645 0.63251566 0.06848281 -1.37504933 -0.00896530 3.12839164 0.74100000 0.00200000 0.00200000
3.795000 0.10580317 0.63317757 0.06857323 -1.37450105 -0.00897349 3.12838401 0.74100000 0.00200000 0.00200000
3.800000 0.10600885 0.63383629 0.06866281 -1.37395465 -0.00898158 3.12837612 0.74100000 0.00200000 0.00200000
3.805000 0.10621349 0.63449181 0.06875155 -1.37341014 -0.00898957 3.12836798 0.74100000 0.00200000 0.00200000
3.810000 0.10641711 0.63514416 0.06883945 -1.37286751 -0.00899746 3.12835959 0.74100000 0.00200000 0.00200000
3.815000 0.10661970 0.63579334 0.06892653 -1.37232677 -0.00900524 3.12835094 0.74100000 0.00200000 0.00200000
3.820000 0.10682128 0.63643937 0.06901279 -1.37178790 -0.00901293 3.12834205 0.74100000 0.00200000 0.00200000
3.825000 0.10702184 0.63708227 0.06909823 -1.37125091 -0.00902051 3.12833290 0.74100000 0.00200000 0.00200000
3.830000 0.10722140 0.63772205 0.06918287 -1.37071580 -0.00902799 3.12832350 0.74100000 0.00200000 0.00200000
3.835000 0.10741996 0.63835871 0.06926670 -1.37018257 -0.00903538 3.12831385 0.74100000 0.00200000 0.00200000
3.840000 0.10761752 0.63899228 0.06934974 -1.36965120 -0.00904267 3.12830396 0.74100000 0.00200000 0.00200000
3.845000 0.10781409 0.63962276 0.06943199 -1.36912171 -0.00904986 3.12829382 0.74100000 0.00200000 0.00200000
3.850000 0.10800967 0.64025017 0.06951345 -1.36859409 -0.00905695 3.12828343 0.74100000 0.00200000 0.00200000
3.855000 0.10820428 0.64087453 0.06959413 -1.36806834 -0.00906395 3.12827280 0.74100000 0.00200000 0.00200000
3.860000 0.10839791 0.64149583 0.06967404 -1.36754445 -0.00907085 3.12826192 0.74100000 0.00200000 0.00200000
3.865000 0.10859057 0.64211410 0.06975318 -1.36702242 -0.00907766 3.12825080 0.74100000 0.00200000 0.00200000
3.870000 0.10878227 0.64272936 0.06983156 -1.36650225 -0.00908438 3.12823944 0.74100000 0.00200000 0.00200000
3.875000 0.10897301 0.64334160 0.06990919 -1.36598394 -0.00909100 3.12822784 0.74100000 0.00200000 0.00200000
3.880000 0.10916279 0.64395085 0.06998606 -1.36546749 -0.00909753 3.12821600 0.74100000 0.00200000 0.00200000
3.885000 0.10935163 0.64455712 0.07006219 -1.36495289 -0.00910397 3.12820392 0.74100000 0.00200000 0.00200000
3.890000 0.10953952 0.64516042 0.07013757 -1.36444014 -0.00911032 3.12819160 0.74100000 0.00200000 0.00200000
3.895000 0.10972648 0.64576076 0.07021223 -1.36392924 -0.00911658 3.12817905 0.74100000 0.00200000 0.00200000
3.900000 0.10991250 0.64635816 0.07028615 -1.36342019 -0.00912275 3.12816626 0.74100000 0.00200000 0.00200000
3.905000 0.11009759 0.64695263 0.07035935 -1.36291297 -0.00912884 3.12815324 0.74100000 0.00200000 0.00200000
3.910000 0.11028176 0.64754418 0.07043183 -1.36240760 -0.00913483 3.12813999 0.74100000 0.00200000 0.00200000
3.915000 0.11046501 0.64813282 0.07050360 -1.36190407 -0.00914074 3.12812651 0.74100000 0.00200000 0.00200000
3.920000 0.11064735 0.64871857 0.07057465 -1.36140237 -0.00914656 3.12811279 0.74100000 0.00200000 0.00200000
3.925000 0.11082878 0.64930144 0.07064501 -1.36090250 -0.00915230 3.12809885 0.74100000 0.00200000 0.00200000
3.930000 0.11100931 0.64988143 0.07071467 -1.36040446 -0.00915795 3.12808467 0.74100000 0.00200000 0.00200000
3.935000 0.11118893 0.65045858 0.07078364 -1.35990825 -0.00916352 3.12807028 0.74100000 0.00200000 0.00200000
3.940000 0.11136767 0.65103287 0.07085191 -1.35941386 -0.00916900 3.12805565 0.74100000 0.00200000 0.00200000
3.945000 0.11154551 0.65160434 0.07091951 -1.35892129 -0.00917440 3.12804080 0.74100000 0.00200000 0.00200000
3.950000 0.11172247 0.65217299 0.07098643 -1.35843054 -0.00917972 3.12802573 0.74100000 0.00200000 0.00200000
3.955000 0.11189855 0.65273883 0.07105268 -1.35794160 -0.00918496 3.12801044 0.74100000 0.00200000 0.00200000
3.960000 0.11207375 0.65330187 0.07111825 -1.35745447 -0.00919011 3.12799492 0.74100000 0.00200000 0.00200000
3.965000 0.11224809 0.65386214 0.07118317 -1.35696915 -0.00919519 3.12797919 0.74100000 0.00200000 0.00200000
3.970000 0.11242155 0.65441963 0.07124743 -1.35648563 -0.00920018 3.12796323 0.74100000 0.00200000 0.00200000
3.975000 0.11259416 0.65497436 0.07131104 -1.35600391 -0.00920510 3.12794706 0.74100000 0.00200000 0.00200000
3.980000 0.11276591 0.65552635 0.07137399 -1.35552399 -0.00920994 3.12793068 0.74100000 0.00200000 0.00200000
3.985000 0.11293681 0.65607561 0.07143631 -1.35504586 -0.00921470 3.12791408 0.74100000 0.00200000 0.00200000
3.990000 0.11310686 0.65662214 0.07149798 -1.35456953 -0.00921938 3.12789726 0.74100000 0.00200000 0.00200000
3.995000 0.11327607 0.65716596 0.07155902 -1.35409498 -0.00922399 3.12788023 0.74100000 0.00200000 0.00200000
4.000000 0.11344444 0.65770709 0.07161944 -1.35362221 -0.00922852 3.12786300 0.74100000 0.00200000 0.00200000
4.005000 0.11361198 0.65824553 0.07167923 -1.35315122 -0.00923297 3.12784555 0.74100000 0.00200000 0.00200000
4.010000 0.11377869 0.65878129 0.07173839 -1.35268201 -0.00923735 3.12782790 0.74100000 0.00200000 0.00200000
4.015000 0.11394457 0.65931440 0.07179695 -1.35221457 -0.00924166 3.12781003 0.74100000 0.00200000 0.00200000
4.020000 0.11410963 0.65984485 0.07185489 -1.35174890 -0.00924589 3.12779196 0.74100000 0.00200000 0.00200000
4.025000 0.11427388 0.66037266 0.07191222 -1.35128500 -0.00925005 3.12777369 0.74100000 0.00200000 0.00200000
4.030000 0.11443731 0.66089785 0.07196896 -1.35082285 -0.00925413 3.12775521 0.74100000 0.00200000 0.00200000
4.035000 0.11459994 0.66142043 0.07202509 -1.35036247 -0.00925815 3.12773654 0.74100000 0.00200000 0.00200000
4.040000 0.11476176 0.66194040 0.07208064 -1.34990383 -0.00926209 3.12771766 0.74100000 0.00200000 0.00200000
4.045000 0.11492279 0.66245778 0.07213559 -1.34944695 -0.00926597 3.12769858 0.74100000 0.00200000 0.00200000
4.050000 0.11508302 0.66297258 0.07218996 -1.34899181 -0.00926977 3.12767930 0.74100000 0.00200000 0.00200000
4.055000 0.11524246 0.66348481 0.07224375 -1.34853842 -0.00927350 3.12765983 0.74100000 0.00200000 0.00200000
4.060000 0.11540112 0.66399448 0.07229697 -1.34808676 -0.00927716 3.12764016 0.74100000 0.00200000 0.00200000
4.065000 0.11555899 0.66450161 0.07234961 -1.34763684 -0.00928076 3.12762029 0.74100000 0.00200000 0.00200000
4.070000 0.11571608 0.66500621 0.07240169 -1.34718865 -0.00928429 3.12760024 0.74100000 0.00200000 0.00200000
4.075000 0.11587241 0.66550828 0.07245320 -1.34674218 -0.00928775 3.12757999 0.74100000 0.00200000 0.00200000
4.080000 0.11602796 0.66600785 0.07250416 -1.34629744 -0.00929114 3.12755955 0.74100000 0.00200000 0.00200000
4.085000 0.11618275 0.66650491 0.07255456 -1.34585441 -0.00929447 3.12753892 0.74100000 0.00200000 0.00200000
4.090000 0.11633677 0.66699949 0.07260440 -1.34541310 -0.00929773 3.12751810 0.74100000 0.00200000 0.00200000
4.095000 0.11649004 0.66749159 0.07265371 -1.34497350 -0.00930092 3.12749710 0.74100000 0.00200000 0.00200000
4.100000 0.11664256 0.66798123 0.07270247 -1.34453560 -0.00930405 3.12747591 0.74100000 0.00200000 0.00200000
4.105000 0.11679432 0.66846841 0.07275069 -1.34409940 -0.00930712 3.12745453 0.74100000 0.00200000 0.00200000
4.110000 0.11694535 0.66895315 0.07279838 -1.34366491 -0.00931012 3.12743298 0.74100000 0.00200000 0.00200000
4.115000 0.11709563 0.66943546 0.07284554 -1.34323210 -0.00931306 3.12741124 0.74100000 0.00200000 0.00200000
4.120000 0.11724517 0.66991534 0.07289217 -1.34280099 -0.00931594 3.12738932 0.74100000 0.00200000 0.00200000
4.125000 0.11739398 0.67039282 0.07293827 -1.34237156 -0.00931875 3.12736723 0.74100000 0.00200000 0.00200000
4.130000 0.11754206 0.67086790 0.07298386 -1.34194381 -0.00932151 3.12734495 0.74100000 0.00200000 0.00200000
4.135000 0.11768942 0.67134059 0.07302894 -1.34151773 -0.00932420 3.12732250 0.74100000 0.00200000 0.00200000
4.140000 0.11783605 0.67181091 0.07307350 -1.34109333 -0.00932683 3.12729988 0.74100000 0.00200000 0.00200000
4.145000 0.11798197 0.67227886 0.07311756 -1.34067060 -0.00932940 3.12727708 0.74100000 0.00200000 0.00200000
4.150000 0.11812717 0.67274445 0.07316111 -1.34024953 -0.00933191 3.12725410 0.74100000 0.00200000 0.00200000
4.155000 0.11827166 0.67320771 0.07320417 -1.33983012 -0.00933437 3.12723096 0.74100000 0.00200000 0.00200000
4.160000 0.11841545 0.67366863 0.07324673 -1.33941236 -0.00933676 3.12720765 0.74100000 0.00200000 0.00200000
4.165000 0.11855853 0.67412722 0.07328879 -1.33899625 -0.00933910 3.12718417 0.74100000 0.00200000 0.00200000
4.170000 0.11870092 0.67458351 0.07333037 -1.33858179 -0.00934137 3.12716052 0.74100000 0.00200000 0.00200000
4.175000 0.11884261 0.67503750 0.07337146 -1.33816897 -0.00934360 3.12713670 0.74100000 0.00200000 0.00200000
4.180000 0.11898361 0.67548919 0.07341207 -1.33775778 -0.00934576 3.12711272 0.74100000 0.00200000 0.00200000
4.185000 0.11912392 0.67593861 0.07345220 -1.33734823 -0.00934787 3.12708858 0.74100000 0.00200000 0.00200000
4.190000 0.11926354 0.67638576 0.07349186 -1.33694031 -0.00934992 3.12706427 0.74100000 0.00200000 0.00200000
4.195000 0.11940249 0.67683065 0.07353105 -1.33653401 -0.00935191 3.12703981 0.74100000 0.00200000 0.00200000
4.200000 0.11954076 0.67727330 0.07356977 -1.33612932 -0.00935386 3.12701518 0.74100000 0.00200000 0.00200000
4.205000 0.11967836 0.67771370 0.07360803 -1.33572626 -0.00935574 3.12699040 0.74100000 0.00200000 0.00200000
4.210000 0.11981528 0.67815189 0.07364583 -1.33532480 -0.00935758 3.12696546 0.74100000 0.00200000 0.00200000
4.215000 0.11995154 0.67858785 0.07368317 -1.33492495 -0.00935935 3.12694036 0.74100000 0.00200000 0.00200000
4.220000 0.12008714 0.67902161 0.07372006 -1.33452669 -0.00936108 3.12691511 0.74100000 0.00200000 0.00200000
4.225000 0.12022208 0.67945317 0.07375650 -1.33413004 -0.00936275 3.12688971 0.74100000 0.00200000 0.00200000
4.230000 0.12035637 0.67988255 0.07379249 -1.33373497 -0.00936437 3.12686415 0.74100000 0.00200000 0.00200000
4.235000 0.12049000 0.68030976 0.07382804 -1.33334150 -0.00936594 3.12683844 0.74100000 0.00200000 0.00200000
4.240000 0.12062298 0.68073480 0.07386315 -1.33294960 -0.00936746 3.12681259 0.74100000 0.00200000 0.00200000
4.245000 0.12075532 0.68115768 0.07389782 -1.33255928 -0.00936893 3.12678658 0.74100000 0.00200000 0.00200000
4.250000 0.12088702 0.68157842 0.07393206 -1.33217054 -0.00937035 3.12676043 0.74100000 0.00200000 0.00200000
4.255000 0.12101808 0.68199703 0.07396587 -1.33178336 -0.00937171 3.12673413 0.74100000 0.00200000 0.00200000
4.260000 0.12114850 0.68241352 0.07399925 -1.33139775 -0.00937303 3.12670769 0.74100000 0.00200000 0.00200000
4.265000 0.12127829 0.68282789 0.07403221 -1.33101370 -0.00937429 3.12668111 0.74100000 0.00200000 0.00200000
4.270000 0.12140746 0.68324015 0.07406475 -1.33063120 -0.00937551 3.12665438 0.74100000 0.00200000 0.00200000
4.275000 0.12153600 0.68365032 0.07409687 -1.33025025 -0.00937668 3.12662751 0.74100000 0.00200000 0.00200000
4.280000 0.12166392 0.68405841 0.07412858 -1.32987085 -0.00937780 3.12660051 0.74100000 0.00200000 0.00200000
4.285000 0.12179122 0.68446443 0.07415987 -1.32949299 -0.00937888 3.12657336 0.74100000 0.00200000 0.00200000
4.290000 0.12191790 0.68486838 0.07419076 -1.32911666 -0.00937991 3.12654608 0.74100000 0.00200000 0.00200000
4.295000 0.12204398 0.68527027 0.07422125 -1.32874187 -0.00938089 3.12651866 0.74100000 0.00200000 0.00200000
4.300000 0.12216944 0.68567012 0.07425133 -1.32836860 -0.00938182 3.12649111 0.74100000 0.00200000 0.00200000
4.305000 0.12229430 0.68606794 0.07428102 -1.32799685 -0.00938271 3.12646343 0.74100000 0.00200000 0.00200000
4.310000 0.12241856 0.68646373 0.07431031 -1.32762662 -0.00938355 3.12643561 0.74100000 0.00200000 0.00200000
4.315000 0.12254222 0.68685750 0.07433920 -1.32725790 -0.00938434 3.12640766 0.74100000 0.00200000 0.00200000
4.320000 0.12266529 0.68724927 0.07436771 -1.32689069 -0.00938510 3.12637959 0.74100000 0.00200000 0.00200000
4.325000 0.12278776 0.68763904 0.07439583 -1.32652498 -0.00938580 3.12635138 0.74100000 0.00200000 0.00200000
4.330000 0.12290964 0.68802683 0.07442357 -1.32616078 -0.00938647 3.12632305 0.74100000 0.00200000 0.00200000
4.335000 0.12303094 0.68841264 0.07445092 -1.32579806 -0.00938709 3.12629459 0.74100000 0.00200000 0.00200000
4.340000 0.12315165 0.68879648 0.07447790 -1.32543683 -0.00938766 3.12626601 0.74100000 0.00200000 0.00200000
4.345000 0.12327178 0.68917836 0.07450450 -1.32507709 -0.00938819 3.12623730 0.74100000 0.00200000 0.00200000
4.350000 0.12339134 0.68955829 0.07453073 -1.32471883 -0.00938868 3.12620847 0.74100000 0.00200000 0.00200000
4.355000 0.12351032 0.68993628 0.07455659 -1.32436204 -0.00938913 3.12617953 0.74100000 0.00200000 0.00200000
4.360000 0.12362874 0.69031235 0.07458209 -1.32400672 -0.00938954 3.12615046 0.74100000 0.00200000 0.00200000
4.365000 0.12374658 0.69068649 0.07460722 -1.32365287 -0.00938990 3.12612127 0.74100000 0.00200000 0.00200000
4.370000 0.12386386 0.69105872 0.07463199 -1.32330047 -0.00939023 3.12609196 0.74100000 0.00200000 0.00200000
4.375000 0.12398058 0.69142905 0.07465640 -1.32294954 -0.00939051 3.12606254 0.74100000 0.00200000 0.00200000
4.380000 0.12409674 0.69179748 0.07468046 -1.32260005 -0.00939075 3.12603300 0.74100000 0.00200000 0.00200000
4.385000 0.12421235 0.69216403 0.07470416 -1.32225201 -0.00939095 3.12600335 0.74100000 0.00200000 0.00200000
4.390000 0.12432740 0.69252870 0.07472752 -1.32190541 -0.00939111 3.12597359 0.74100000 0.00200000 0.00200000
4.395000 0.12444190 0.69289151 0.07475052 -1.32156025 -0.00939123 3.12594371 0.74100000 0.00200000 0.00200000
4.400000 0.12455585 0.69325246 0.07477318 -1.32121652 -0.00939132 3.12591373 0.74100000 0.00200000 0.00200000
4.405000 0.12466926 0.69361156 0.07479550 -1.32087421 -0.00939136 3.12588363 0.74100000 0.00200000 0.00200000
4.410000 0.12478213 0.69396883 0.07481748 -1.32053333 -0.00939137 3.12585343 0.74100000 0.00200000 0.00200000
4.415000 0.12489446 0.69432426 0.07483913 -1.32019387 -0.00939134 3.12582312 0.74100000 0.00200000 0.00200000
4.420000 0.12500626 0.69467787 0.07486044 -1.31985582 -0.00939127 3.12579271 0.74100000 0.00200000 0.00200000
4.425000 0.12511752 0.69502967 0.07488141 -1.31951918 -0.00939116 3.12576219 0.74100000 0.00200000 0.00200000
4.430000 0.12522826 0.69537967 0.07490206 -1.31918394 -0.00939101 3.12573156 0.74100000 0.00200000 0.00200000
4.435000 0.12533846 0.69572787 0.07492238 -1.31885010 -0.00939083 3.12570083 0.74100000 0.00200000 0.00200000
4.440000 0.12544814 0.69607428 0.07494238 -1.31851765 -0.00939062 3.12567001 0.74100000 0.00200000 0.00200000
4.445000 0.12555730 0.69641892 0.07496206 -1.31818660 -0.00939036 3.12563908 0.74100000 0.00200000 0.00200000
4.450000 0.12566595 0.69676179 0.07498141 -1.31785692 -0.00939007 3.12560805 0.74100000 0.00200000 0.00200000
4.455000 0.12577407 0.69710289 0.07500045 -1.31752863 -0.00938975 3.12557693 0.74100000 0.00200000 0.00200000
4.460000 0.12588168 0.69744225 0.07501918 -1.31720171 -0.00938939 3.12554571 0.74100000 0.00200000 0.00200000
4.465000 0.12598879 0.69777986 0.07503759 -1.31687617 -0.00938899 3.12551439 0.74100000 0.00200000 0.00200000
4.470000 0.12609538 0.69811574 0.07505570 -1.31655199 -0.00938856 3.12548298 0.74100000 0.00200000 0.00200000
4.475000 0.12620147 0.69844989 0.07507349 -1.31622916 -0.00938810 3.12545147 0.74100000 0.00200000 0.00200000
4.480000 0.12630706 0.69878232 0.07509099 -1.31590770 -0.00938760 3.12541987 0.74100000 0.00200000 0.00200000
4.485000 0.12641214 0.69911304 0.07510818 -1.31558759 -0.00938707 3.12538819 0.74100000 0.00200000 0.00200000
4.490000 0.12651673 0.69944207 0.07512507 -1.31526882 -0.00938650 3.12535641 0.74100000 0.00200000 0.00200000
4.495000 0.12662083 0.69976940 0.07514166 -1.31495140 -0.00938590 3.12532454 0.74100000 0.00200000 0.00200000
