haoxiangNtu/stiff-physics/assets/trajectories/xarm7_fold.txt
# time joint1 joint2 joint3 joint4 joint5 joint6 joint7 drive_joint left_finger_joint left_inner_knuckle_joint right_outer_knuckle_joint right_finger_joint right_inner_knuckle_joint
0.000000 -0.00019719 -0.00359257 -0.00019719 -0.00096820 0.00007275 0.00015047 0.00000000 0.61818182 0.61818182 0.61818182 0.61818182 0.61818182 0.61818182
0.005000 -0.00039505 -0.00717819 -0.00039395 -0.00192988 0.00014556 0.00029890 0.00000000 0.61818182 0.61818182 0.61818182 0.61818182 0.61818182 0.61818182
0.010000 -0.00059357 -0.01075679 -0.00059026 -0.00288502 0.00021843 0.00044530 0.00000000 0.61818182 0.61818182 0.61818182 0.61818182 0.61818182 0.61818182
0.015000 -0.00079274 -0.01432835 -0.00078612 -0.00383361 0.00029134 0.00058965 0.00000000 0.61818182 0.61818182 0.61818182 0.61818182 0.61818182 0.61818182
0.020000 -0.00099256 -0.01789281 -0.00098150 -0.00477566 0.00036430 0.00073195 0.00000000 0.61818182 0.61818182 0.61818182 0.61818182 0.61818182 0.61818182
0.025000 -0.00119302 -0.02145013 -0.00117641 -0.00571114 0.00043730 0.00087219 0.00000000 0.61818182 0.61818182 0.61818182 0.61818182 0.61818182 0.61818182
0.030000 -0.00139411 -0.02500025 -0.00137083 -0.00664007 0.00051033 0.00101037 0.00000000 0.61818182 0.61818182 0.61818182 0.61818182 0.61818182 0.61818182
0.035000 -0.00159583 -0.02854315 -0.00156474 -0.00756242 0.00058339 0.00114648 0.00000000 0.61818182 0.61818182 0.61818182 0.61818182 0.61818182 0.61818182
0.040000 -0.00179818 -0.03207877 -0.00175814 -0.00847819 0.00065648 0.00128051 0.00000000 0.61818182 0.61818182 0.61818182 0.61818182 0.61818182 0.61818182
0.045000 -0.00200113 -0.03560707 -0.00195102 -0.00938739 0.00072959 0.00141245 0.00000000 0.61818182 0.61818182 0.61818182 0.61818182 0.61818182 0.61818182
0.050000 -0.00220469 -0.03912801 -0.00214336 -0.01028999 0.00080272 0.00154231 0.00000000 0.61818182 0.61818182 0.61818182 0.61818182 0.61818182 0.61818182
0.055000 -0.00240884 -0.04264155 -0.00233516 -0.01118601 0.00087585 0.00167007 0.00000000 0.61818182 0.61818182 0.61818182 0.61818182 0.61818182 0.61818182
0.060000 -0.00261359 -0.04614764 -0.00252641 -0.01207543 0.00094900 0.00179573 0.00000000 0.61818182 0.61818182 0.61818182 0.61818182 0.61818182 0.61818182
0.065000 -0.00281891 -0.04964625 -0.00271709 -0.01295824 0.00102214 0.00191928 0.00000000 0.61818182 0.61818182 0.61818182 0.61818182 0.61818182 0.61818182
0.070000 -0.00302481 -0.05313733 -0.00290719 -0.01383446 0.00109528 0.00204071 0.00000000 0.61818182 0.61818182 0.61818182 0.61818182 0.61818182 0.61818182
0.075000 -0.00323128 -0.05662084 -0.00309671 -0.01470406 0.00116841 0.00216003 0.00000000 0.61818182 0.61818182 0.61818182 0.61818182 0.61818182 0.61818182
0.080000 -0.00343830 -0.06009675 -0.00328563 -0.01556705 0.00124153 0.00227722 0.00000000 0.61818182 0.61818182 0.61818182 0.61818182 0.61818182 0.61818182
0.085000 -0.00364586 -0.06356501 -0.00347395 -0.01642342 0.00131464 0.00239227 0.00000000 0.61818182 0.61818182 0.61818182 0.61818182 0.61818182 0.61818182
0.090000 -0.00385397 -0.06702558 -0.00366166 -0.01727317 0.00138772 0.00250519 0.00000000 0.61818182 0.61818182 0.61818182 0.61818182 0.61818182 0.61818182
0.095000 -0.00406261 -0.07047844 -0.00384874 -0.01811630 0.00146077 0.00261597 0.00000000 0.61818182 0.61818182 0.61818182 0.61818182 0.61818182 0.61818182
0.100000 -0.00427177 -0.07392354 -0.00403519 -0.01895281 0.00153379 0.00272459 0.00000000 0.61818182 0.61818182 0.61818182 0.61818182 0.61818182 0.61818182
0.105000 -0.00448144 -0.07736084 -0.00422100 -0.01978268 0.00160678 0.00283106 0.00000000 0.61818182 0.61818182 0.61818182 0.61818182 0.61818182 0.61818182
0.110000 -0.00469161 -0.08079032 -0.00440617 -0.02060593 0.00167973 0.00293537 0.00000000 0.61818182 0.61818182 0.61818182 0.61818182 0.61818182 0.61818182
0.115000 -0.00490228 -0.08421192 -0.00459067 -0.02142255 0.00175263 0.00303752 0.00000000 0.61818182 0.61818182 0.61818182 0.61818182 0.61818182 0.61818182
0.120000 -0.00511344 -0.08762563 -0.00477451 -0.02223254 0.00182548 0.00313749 0.00000000 0.61818182 0.61818182 0.61818182 0.61818182 0.61818182 0.61818182
0.125000 -0.00532506 -0.09103140 -0.00495767 -0.02303589 0.00189827 0.00323529 0.00000000 0.61818182 0.61818182 0.61818182 0.61818182 0.61818182 0.61818182
0.130000 -0.00553716 -0.09442919 -0.00514015 -0.02383261 0.00197101 0.00333090 0.00000000 0.61818182 0.61818182 0.61818182 0.61818182 0.61818182 0.61818182
0.135000 -0.00574970 -0.09781899 -0.00532195 -0.02462269 0.00204369 0.00342432 0.00000000 0.61818182 0.61818182 0.61818182 0.61818182 0.61818182 0.61818182
0.140000 -0.00596270 -0.10120075 -0.00550304 -0.02540613 0.00211629 0.00351555 0.00000000 0.61818182 0.61818182 0.61818182 0.61818182 0.61818182 0.61818182
0.145000 -0.00617613 -0.10457444 -0.00568343 -0.02618295 0.00218883 0.00360459 0.00000000 0.61818182 0.61818182 0.61818182 0.61818182 0.61818182 0.61818182
0.150000 -0.00638998 -0.10794003 -0.00586311 -0.02695312 0.00226129 0.00369142 0.00000000 0.61818182 0.61818182 0.61818182 0.61818182 0.61818182 0.61818182
0.155000 -0.00660425 -0.11129749 -0.00604207 -0.02771666 0.00233366 0.00377604 0.00000000 0.61818182 0.61818182 0.61818182 0.61818182 0.61818182 0.61818182
0.160000 -0.00681893 -0.11464678 -0.00622030 -0.02847357 0.00240596 0.00385844 0.00000000 0.61818182 0.61818182 0.61818182 0.61818182 0.61818182 0.61818182
0.165000 -0.00703400 -0.11798789 -0.00639780 -0.02922384 0.00247816 0.00393863 0.00000000 0.61818182 0.61818182 0.61818182 0.61818182 0.61818182 0.61818182
0.170000 -0.00724946 -0.12132077 -0.00657456 -0.02996748 0.00255027 0.00401659 0.00000000 0.61818182 0.61818182 0.61818182 0.61818182 0.61818182 0.61818182
0.175000 -0.00746529 -0.12464541 -0.00675058 -0.03070449 0.00262228 0.00409233 0.00000000 0.61818182 0.61818182 0.61818182 0.61818182 0.61818182 0.61818182
0.180000 -0.00768149 -0.12796177 -0.00692585 -0.03143487 0.00269419 0.00416583 0.00000000 0.61818182 0.61818182 0.61818182 0.61818182 0.61818182 0.61818182
0.185000 -0.00789804 -0.13126982 -0.00710036 -0.03215862 0.00276600 0.00423710 0.00000000 0.61818182 0.61818182 0.61818182 0.61818182 0.61818182 0.61818182
0.190000 -0.00811493 -0.13456953 -0.00727410 -0.03287575 0.00283769 0.00430612 0.00000000 0.61818182 0.61818182 0.61818182 0.61818182 0.61818182 0.61818182
0.195000 -0.00833215 -0.13786089 -0.00744708 -0.03358626 0.00290928 0.00437289 0.00000000 0.61818182 0.61818182 0.61818182 0.61818182 0.61818182 0.61818182
0.200000 -0.00854970 -0.14114387 -0.00761928 -0.03429014 0.00298074 0.00443742 0.00000000 0.61818182 0.61818182 0.61818182 0.61818182 0.61818182 0.61818182
0.205000 -0.00876756 -0.14441843 -0.00779070 -0.03498741 0.00305208 0.00449969 0.00000000 0.61818182 0.61818182 0.61818182 0.61818182 0.61818182 0.61818182
0.210000 -0.00898572 -0.14768456 -0.00796134 -0.03567807 0.00312330 0.00455969 0.00000000 0.61818182 0.61818182 0.61818182 0.61818182 0.61818182 0.61818182
0.215000 -0.00920417 -0.15094222 -0.00813120 -0.03636211 0.00319439 0.00461743 0.00000000 0.61818182 0.61818182 0.61818182 0.61818182 0.61818182 0.61818182
0.220000 -0.00942290 -0.15419141 -0.00830025 -0.03703955 0.00326534 0.00467291 0.00000000 0.61818182 0.61818182 0.61818182 0.61818182 0.61818182 0.61818182
0.225000 -0.00964190 -0.15743208 -0.00846851 -0.03771039 0.00333616 0.00472611 0.00000000 0.61818182 0.61818182 0.61818182 0.61818182 0.61818182 0.61818182
0.230000 -0.00986116 -0.16066423 -0.00863597 -0.03837463 0.00340684 0.00477703 0.00000000 0.61818182 0.61818182 0.61818182 0.61818182 0.61818182 0.61818182
0.235000 -0.01008066 -0.16388782 -0.00880262 -0.03903227 0.00347737 0.00482567 0.00000000 0.61818182 0.61818182 0.61818182 0.61818182 0.61818182 0.61818182
0.240000 -0.01030041 -0.16710284 -0.00896847 -0.03968333 0.00354776 0.00487203 0.00000000 0.61818182 0.61818182 0.61818182 0.61818182 0.61818182 0.61818182
0.245000 -0.01052037 -0.17030927 -0.00913349 -0.04032780 0.00361799 0.00491609 0.00000000 0.61818182 0.61818182 0.61818182 0.61818182 0.61818182 0.61818182
0.250000 -0.01074055 -0.17350708 -0.00929771 -0.04096569 0.00368807 0.00495787 0.00000000 0.61818182 0.61818182 0.61818182 0.61818182 0.61818182 0.61818182
0.255000 -0.01096094 -0.17669625 -0.00946110 -0.04159701 0.00375799 0.00499735 0.00000000 0.61818182 0.61818182 0.61818182 0.61818182 0.61818182 0.61818182
0.260000 -0.01118152 -0.17987677 -0.00962367 -0.04222176 0.00382775 0.00503452 0.00000000 0.61818182 0.61818182 0.61818182 0.61818182 0.61818182 0.61818182
0.265000 -0.01140228 -0.18304861 -0.00978541 -0.04283994 0.00389735 0.00506940 0.00000000 0.61818182 0.61818182 0.61818182 0.61818182 0.61818182 0.61818182
0.270000 -0.01162322 -0.18621177 -0.00994632 -0.04345157 0.00396678 0.00510196 0.00000000 0.61818182 0.61818182 0.61818182 0.61818182 0.61818182 0.61818182
0.275000 -0.01184431 -0.18936621 -0.01010640 -0.04405665 0.00403604 0.00513222 0.00000000 0.61818182 0.61818182 0.61818182 0.61818182 0.61818182 0.61818182
0.280000 -0.01206556 -0.19251192 -0.01026564 -0.04465519 0.00410512 0.00516016 0.00000000 0.61818182 0.61818182 0.61818182 0.61818182 0.61818182 0.61818182
0.285000 -0.01228694 -0.19564890 -0.01042405 -0.04524718 0.00417403 0.00518578 0.00000000 0.61818182 0.61818182 0.61818182 0.61818182 0.61818182 0.61818182
0.290000 -0.01250846 -0.19877711 -0.01058162 -0.04583265 0.00424276 0.00520908 0.00000000 0.61818182 0.61818182 0.61818182 0.61818182 0.61818182 0.61818182
0.295000 -0.01273009 -0.20189654 -0.01073835 -0.04641159 0.00431130 0.00523006 0.00000000 0.61818182 0.61818182 0.61818182 0.61818182 0.61818182 0.61818182
0.300000 -0.01295183 -0.20500718 -0.01089424 -0.04698401 0.00437966 0.00524871 0.00000000 0.61818182 0.61818182 0.61818182 0.61818182 0.61818182 0.61818182
0.305000 -0.01317367 -0.20810901 -0.01104928 -0.04754993 0.00444783 0.00526503 0.00000000 0.61818182 0.61818182 0.61818182 0.61818182 0.61818182 0.61818182
0.310000 -0.01339560 -0.21120203 -0.01120347 -0.04810934 0.00451580 0.00527902 0.00000000 0.61818182 0.61818182 0.61818182 0.61818182 0.61818182 0.61818182
0.315000 -0.01361760 -0.21428620 -0.01135682 -0.04866226 0.00458359 0.00529067 0.00000000 0.61818182 0.61818182 0.61818182 0.61818182 0.61818182 0.61818182
0.320000 -0.01383967 -0.21736153 -0.01150932 -0.04920870 0.00465117 0.00529998 0.00000000 0.61818182 0.61818182 0.61818182 0.61818182 0.61818182 0.61818182
0.325000 -0.01406179 -0.22042800 -0.01166098 -0.04974865 0.00471856 0.00530696 0.00000000 0.61818182 0.61818182 0.61818182 0.61818182 0.61818182 0.61818182
0.330000 -0.01428396 -0.22348559 -0.01181178 -0.05028214 0.00478574 0.00531158 0.00000000 0.61818182 0.61818182 0.61818182 0.61818182 0.61818182 0.61818182
0.335000 -0.01450616 -0.22653430 -0.01196173 -0.05080916 0.00485272 0.00531387 0.00000000 0.61818182 0.61818182 0.61818182 0.61818182 0.61818182 0.61818182
0.340000 -0.01472839 -0.22957411 -0.01211083 -0.05132973 0.00491949 0.00531380 0.00000000 0.61818182 0.61818182 0.61818182 0.61818182 0.61818182 0.61818182
0.345000 -0.01495064 -0.23260501 -0.01225908 -0.05184386 0.00498605 0.00531138 0.00000000 0.61818182 0.61818182 0.61818182 0.61818182 0.61818182 0.61818182
0.350000 -0.01517288 -0.23562699 -0.01240647 -0.05235155 0.00505240 0.00530661 0.00000000 0.61818182 0.61818182 0.61818182 0.61818182 0.61818182 0.61818182
0.355000 -0.01539513 -0.23864004 -0.01255302 -0.05285282 0.00511853 0.00529948 0.00000000 0.61818182 0.61818182 0.61818182 0.61818182 0.61818182 0.61818182
0.360000 -0.01561735 -0.24164415 -0.01269871 -0.05334767 0.00518445 0.00529000 0.00000000 0.61818182 0.61818182 0.61818182 0.61818182 0.61818182 0.61818182
0.365000 -0.01583955 -0.24463932 -0.01284355 -0.05383611 0.00525015 0.00527815 0.00000000 0.61818182 0.61818182 0.61818182 0.61818182 0.61818182 0.61818182
0.370000 -0.01606172 -0.24762552 -0.01298754 -0.05431816 0.00531563 0.00526395 0.00000000 0.61818182 0.61818182 0.61818182 0.61818182 0.61818182 0.61818182
0.375000 -0.01628384 -0.25060276 -0.01313067 -0.05479382 0.00538088 0.00524737 0.00000000 0.61818182 0.61818182 0.61818182 0.61818182 0.61818182 0.61818182
0.380000 -0.01650590 -0.25357103 -0.01327296 -0.05526310 0.00544591 0.00522844 0.00000000 0.61818182 0.61818182 0.61818182 0.61818182 0.61818182 0.61818182
0.385000 -0.01672791 -0.25653032 -0.01341440 -0.05572601 0.00551071 0.00520713 0.00000000 0.61818182 0.61818182 0.61818182 0.61818182 0.61818182 0.61818182
0.390000 -0.01694983 -0.25948062 -0.01355499 -0.05618257 0.00557529 0.00518346 0.00000000 0.61818182 0.61818182 0.61818182 0.61818182 0.61818182 0.61818182
0.395000 -0.01717168 -0.26242192 -0.01369473 -0.05663278 0.00563963 0.00515742 0.00000000 0.61818182 0.61818182 0.61818182 0.61818182 0.61818182 0.61818182
0.400000 -0.01739343 -0.26535422 -0.01383362 -0.05707665 0.00570374 0.00512900 0.00000000 0.61818182 0.61818182 0.61818182 0.61818182 0.61818182 0.61818182
0.405000 -0.01761508 -0.26827751 -0.01397167 -0.05751419 0.00576762 0.00509821 0.00000000 0.61818182 0.61818182 0.61818182 0.61818182 0.61818182 0.61818182
0.410000 -0.01783661 -0.27119179 -0.01410887 -0.05794542 0.00583126 0.00506505 0.00000000 0.61818182 0.61818182 0.61818182 0.61818182 0.61818182 0.61818182
0.415000 -0.01805803 -0.27409705 -0.01424523 -0.05837035 0.00589466 0.00502951 0.00000000 0.61818182 0.61818182 0.61818182 0.61818182 0.61818182 0.61818182
0.420000 -0.01827932 -0.27699329 -0.01438075 -0.05878898 0.00595782 0.00499159 0.00000000 0.61818182 0.61818182 0.61818182 0.61818182 0.61818182 0.61818182
0.425000 -0.01850047 -0.27988050 -0.01451543 -0.05920133 0.00602074 0.00495129 0.00000000 0.61818182 0.61818182 0.61818182 0.61818182 0.61818182 0.61818182
0.430000 -0.01872147 -0.28275868 -0.01464927 -0.05960741 0.00608342 0.00490862 0.00000000 0.61818182 0.61818182 0.61818182 0.61818182 0.61818182 0.61818182
0.435000 -0.01894232 -0.28562783 -0.01478227 -0.06000722 0.00614586 0.00486356 0.00000000 0.61818182 0.61818182 0.61818182 0.61818182 0.61818182 0.61818182
0.440000 -0.01916300 -0.28848794 -0.01491444 -0.06040079 0.00620805 0.00481612 0.00000000 0.61818182 0.61818182 0.61818182 0.61818182 0.61818182 0.61818182
0.445000 -0.01938350 -0.29133900 -0.01504578 -0.06078812 0.00626999 0.00476630 0.00000000 0.61818182 0.61818182 0.61818182 0.61818182 0.61818182 0.61818182
0.450000 -0.01960383 -0.29418102 -0.01517628 -0.06116922 0.00633168 0.00471410 0.00000000 0.61818182 0.61818182 0.61818182 0.61818182 0.61818182 0.61818182
0.455000 -0.01982396 -0.29701400 -0.01530596 -0.06154412 0.00639313 0.00465952 0.00000000 0.61818182 0.61818182 0.61818182 0.61818182 0.61818182 0.61818182
0.460000 -0.02004390 -0.29983792 -0.01543482 -0.06191280 0.00645433 0.00460255 0.00000000 0.61818182 0.61818182 0.61818182 0.61818182 0.61818182 0.61818182
0.465000 -0.02026363 -0.30265280 -0.01556285 -0.06227530 0.00651527 0.00454320 0.00000000 0.61818182 0.61818182 0.61818182 0.61818182 0.61818182 0.61818182
0.470000 -0.02048314 -0.30545862 -0.01569006 -0.06263162 0.00657596 0.00448146 0.00000000 0.61818182 0.61818182 0.61818182 0.61818182 0.61818182 0.61818182
0.475000 -0.02070243 -0.30825539 -0.01581645 -0.06298177 0.00663640 0.00441734 0.00000000 0.61818182 0.61818182 0.61818182 0.61818182 0.61818182 0.61818182
0.480000 -0.02092149 -0.31104311 -0.01594203 -0.06332577 0.00669658 0.00435083 0.00000000 0.61818182 0.61818182 0.61818182 0.61818182 0.61818182 0.61818182
0.485000 -0.02114032 -0.31382178 -0.01606679 -0.06366362 0.00675651 0.00428194 0.00000000 0.61818182 0.61818182 0.61818182 0.61818182 0.61818182 0.61818182
0.490000 -0.02135889 -0.31659139 -0.01619075 -0.06399535 0.00681618 0.00421066 0.00000000 0.61818182 0.61818182 0.61818182 0.61818182 0.61818182 0.61818182
0.495000 -0.02157721 -0.31935195 -0.01631389 -0.06432095 0.00687560 0.00413700 0.00000000 0.61818182 0.61818182 0.61818182 0.61818182 0.61818182 0.61818182
0.500000 -0.02179527 -0.32210345 -0.01643624 -0.06464046 0.00693475 0.00406095 0.00000000 0.61818182 0.61818182 0.61818182 0.61818182 0.61818182 0.61818182
0.505000 -0.02201306 -0.32484591 -0.01655778 -0.06495386 0.00699365 0.00398252 0.00000000 0.61818182 0.61818182 0.61818182 0.61818182 0.61818182 0.61818182
0.510000 -0.02223057 -0.32757931 -0.01667853 -0.06526119 0.00705229 0.00390170 0.00000000 0.61818182 0.61818182 0.61818182 0.61818182 0.61818182 0.61818182
0.515000 -0.02244780 -0.33030366 -0.01679848 -0.06556245 0.00711066 0.00381850 0.00000000 0.61818182 0.61818182 0.61818182 0.61818182 0.61818182 0.61818182
0.520000 -0.02266474 -0.33301896 -0.01691764 -0.06585765 0.00716878 0.00373291 0.00000000 0.61818182 0.61818182 0.61818182 0.61818182 0.61818182 0.61818182
0.525000 -0.02288138 -0.33572522 -0.01703602 -0.06614681 0.00722663 0.00364495 0.00000000 0.61818182 0.61818182 0.61818182 0.61818182 0.61818182 0.61818182
0.530000 -0.02309772 -0.33842244 -0.01715361 -0.06642994 0.00728422 0.00355460 0.00000000 0.61818182 0.61818182 0.61818182 0.61818182 0.61818182 0.61818182
0.535000 -0.02331374 -0.34111061 -0.01727042 -0.06670706 0.00734155 0.00346187 0.00000000 0.61818182 0.61818182 0.61818182 0.61818182 0.61818182 0.61818182
0.540000 -0.02352945 -0.34378974 -0.01738645 -0.06697817 0.00739861 0.00336676 0.00000000 0.61818182 0.61818182 0.61818182 0.61818182 0.61818182 0.61818182
0.545000 -0.02374483 -0.34645983 -0.01750171 -0.06724328 0.00745542 0.00326927 0.00000000 0.61818182 0.61818182 0.61818182 0.61818182 0.61818182 0.61818182
0.550000 -0.02395988 -0.34912090 -0.01761620 -0.06750242 0.00751195 0.00316940 0.00000000 0.61818182 0.61818182 0.61818182 0.61818182 0.61818182 0.61818182
0.555000 -0.02417460 -0.35177293 -0.01772993 -0.06775559 0.00756822 0.00306715 0.00000000 0.61818182 0.61818182 0.61818182 0.61818182 0.61818182 0.61818182
0.560000 -0.02438896 -0.35441593 -0.01784289 -0.06800281 0.00762423 0.00296253 0.00000000 0.61818182 0.61818182 0.61818182 0.61818182 0.61818182 0.61818182
0.565000 -0.02460298 -0.35704991 -0.01795509 -0.06824408 0.00767997 0.00285553 0.00000000 0.61818182 0.61818182 0.61818182 0.61818182 0.61818182 0.61818182
0.570000 -0.02481664 -0.35967488 -0.01806654 -0.06847943 0.00773545 0.00274616 0.00000000 0.61818182 0.61818182 0.61818182 0.61818182 0.61818182 0.61818182
0.575000 -0.02502994 -0.36229082 -0.01817724 -0.06870887 0.00779066 0.00263441 0.00000000 0.61818182 0.61818182 0.61818182 0.61818182 0.61818182 0.61818182
0.580000 -0.02524287 -0.36489776 -0.01828719 -0.06893240 0.00784561 0.00252029 0.00000000 0.61818182 0.61818182 0.61818182 0.61818182 0.61818182 0.61818182
0.585000 -0.02545543 -0.36749569 -0.01839640 -0.06915005 0.00790029 0.00240381 0.00000000 0.61818182 0.61818182 0.61818182 0.61818182 0.61818182 0.61818182
0.590000 -0.02566761 -0.37008462 -0.01850487 -0.06936182 0.00795470 0.00228496 0.00000000 0.61818182 0.61818182 0.61818182 0.61818182 0.61818182 0.61818182
0.595000 -0.02587940 -0.37266455 -0.01861260 -0.06956772 0.00800885 0.00216374 0.00000000 0.61818182 0.61818182 0.61818182 0.61818182 0.61818182 0.61818182
0.600000 -0.02609080 -0.37523549 -0.01871960 -0.06976778 0.00806273 0.00204015 0.00000000 0.61818182 0.61818182 0.61818182 0.61818182 0.61818182 0.61818182
0.605000 -0.02630180 -0.37779744 -0.01882588 -0.06996200 0.00811634 0.00191421 0.00000000 0.61818182 0.61818182 0.61818182 0.61818182 0.61818182 0.61818182
0.610000 -0.02651241 -0.38035041 -0.01893144 -0.07015040 0.00816969 0.00178590 0.00000000 0.61818182 0.61818182 0.61818182 0.61818182 0.61818182 0.61818182
0.615000 -0.02672260 -0.38289441 -0.01903628 -0.07033298 0.00822277 0.00165524 0.00000000 0.61818182 0.61818182 0.61818182 0.61818182 0.61818182 0.61818182
0.620000 -0.02693238 -0.38542943 -0.01914040 -0.07050977 0.00827558 0.00152222 0.00000000 0.61818182 0.61818182 0.61818182 0.61818182 0.61818182 0.61818182
0.625000 -0.02714175 -0.38795549 -0.01924381 -0.07068078 0.00832813 0.00138685 0.00000000 0.61818182 0.61818182 0.61818182 0.61818182 0.61818182 0.61818182
0.630000 -0.02735070 -0.39047259 -0.01934652 -0.07084601 0.00838041 0.00124912 0.00000000 0.61818182 0.61818182 0.61818182 0.61818182 0.61818182 0.61818182
0.635000 -0.02755921 -0.39298074 -0.01944853 -0.07100548 0.00843243 0.00110905 0.00000000 0.61818182 0.61818182 0.61818182 0.61818182 0.61818182 0.61818182
0.640000 -0.02776730 -0.39547995 -0.01954984 -0.07115921 0.00848418 0.00096663 0.00000000 0.61818182 0.61818182 0.61818182 0.61818182 0.61818182 0.61818182
0.645000 -0.02797495 -0.39797021 -0.01965046 -0.07130721 0.00853567 0.00082186 0.00000000 0.61818182 0.61818182 0.61818182 0.61818182 0.61818182 0.61818182
0.650000 -0.02818216 -0.40045154 -0.01975039 -0.07144948 0.00858689 0.00067476 0.00000000 0.61818182 0.61818182 0.61818182 0.61818182 0.61818182 0.61818182
0.655000 -0.02838892 -0.40292395 -0.01984964 -0.07158605 0.00863784 0.00052532 0.00000000 0.61818182 0.61818182 0.61818182 0.61818182 0.61818182 0.61818182
0.660000 -0.02859524 -0.40538743 -0.01994821 -0.07171693 0.00868853 0.00037354 0.00000000 0.61818182 0.61818182 0.61818182 0.61818182 0.61818182 0.61818182
0.665000 -0.02880110 -0.40784200 -0.02004610 -0.07184212 0.00873896 0.00021943 0.00000000 0.61818182 0.61818182 0.61818182 0.61818182 0.61818182 0.61818182
0.670000 -0.02900650 -0.41028767 -0.02014333 -0.07196164 0.00878912 0.00006298 0.00000000 0.61818182 0.61818182 0.61818182 0.61818182 0.61818182 0.61818182
0.675000 -0.02921144 -0.41272443 -0.02023989 -0.07207551 0.00883902 -0.00009578 0.00000000 0.61818182 0.61818182 0.61818182 0.61818182 0.61818182 0.61818182
0.680000 -0.02941592 -0.41515231 -0.02033578 -0.07218374 0.00888865 -0.00025687 0.00000000 0.61818182 0.61818182 0.61818182 0.61818182 0.61818182 0.61818182
0.685000 -0.02961992 -0.41757130 -0.02043102 -0.07228634 0.00893802 -0.00042028 0.00000000 0.61818182 0.61818182 0.61818182 0.61818182 0.61818182 0.61818182
0.690000 -0.02982345 -0.41998141 -0.02052561 -0.07238332 0.00898713 -0.00058601 0.00000000 0.61818182 0.61818182 0.61818182 0.61818182 0.61818182 0.61818182
0.695000 -0.03002651 -0.42238266 -0.02061955 -0.07247469 0.00903598 -0.00075405 0.00000000 0.61818182 0.61818182 0.61818182 0.61818182 0.61818182 0.61818182
0.700000 -0.03022908 -0.42477504 -0.02071285 -0.07256047 0.00908457 -0.00092440 0.00000000 0.61818182 0.61818182 0.61818182 0.61818182 0.61818182 0.61818182
0.705000 -0.03043117 -0.42715856 -0.02080551 -0.07264068 0.00913289 -0.00109706 0.00000000 0.61818182 0.61818182 0.61818182 0.61818182 0.61818182 0.61818182
0.710000 -0.03063277 -0.42953324 -0.02089753 -0.07271531 0.00918095 -0.00127202 0.00000000 0.61818182 0.61818182 0.61818182 0.61818182 0.61818182 0.61818182
0.715000 -0.03083388 -0.43189908 -0.02098893 -0.07278439 0.00922876 -0.00144927 0.00000000 0.61818182 0.61818182 0.61818182 0.61818182 0.61818182 0.61818182
0.720000 -0.03103449 -0.43425609 -0.02107970 -0.07284793 0.00927630 -0.00162883 0.00000000 0.61818182 0.61818182 0.61818182 0.61818182 0.61818182 0.61818182
0.725000 -0.03123460 -0.43660428 -0.02116985 -0.07290594 0.00932359 -0.00181067 0.00000000 0.61818182 0.61818182 0.61818182 0.61818182 0.61818182 0.61818182
0.730000 -0.03143422 -0.43894365 -0.02125938 -0.07295843 0.00937061 -0.00199480 0.00000000 0.61818182 0.61818182 0.61818182 0.61818182 0.61818182 0.61818182
0.735000 -0.03163333 -0.44127421 -0.02134830 -0.07300542 0.00941738 -0.00218121 0.00000000 0.61818182 0.61818182 0.61818182 0.61818182 0.61818182 0.61818182
0.740000 -0.03183193 -0.44359597 -0.02143661 -0.07304691 0.00946389 -0.00236991 0.00000000 0.61818182 0.61818182 0.61818182 0.61818182 0.61818182 0.61818182
0.745000 -0.03203002 -0.44590894 -0.02152433 -0.07308293 0.00951015 -0.00256087 0.00000000 0.61818182 0.61818182 0.61818182 0.61818182 0.61818182 0.61818182
0.750000 -0.03222760 -0.44821313 -0.02161144 -0.07311347 0.00955615 -0.00275411 0.00000000 0.61818182 0.61818182 0.61818182 0.61818182 0.61818182 0.61818182
0.755000 -0.03242466 -0.45050854 -0.02169796 -0.07313856 0.00960189 -0.00294961 0.00000000 0.61818182 0.61818182 0.61818182 0.61818182 0.61818182 0.61818182
0.760000 -0.03262120 -0.45279519 -0.02178389 -0.07315820 0.00964738 -0.00314737 0.00000000 0.61818182 0.61818182 0.61818182 0.61818182 0.61818182 0.61818182
0.765000 -0.03281722 -0.45507307 -0.02186924 -0.07317241 0.00969262 -0.00334739 0.00000000 0.61818182 0.61818182 0.61818182 0.61818182 0.61818182 0.61818182
0.770000 -0.03301272 -0.45734221 -0.02195401 -0.07318120 0.00973760 -0.00354967 0.00000000 0.61818182 0.61818182 0.61818182 0.61818182 0.61818182 0.61818182
0.775000 -0.03320769 -0.45960261 -0.02203820 -0.07318459 0.00978233 -0.00375419 0.00000000 0.61818182 0.61818182 0.61818182 0.61818182 0.61818182 0.61818182
0.780000 -0.03340214 -0.46185427 -0.02212182 -0.07318257 0.00982681 -0.00396095 0.00000000 0.61818182 0.61818182 0.61818182 0.61818182 0.61818182 0.61818182
0.785000 -0.03359605 -0.46409720 -0.02220488 -0.07317517 0.00987104 -0.00416995 0.00000000 0.61818182 0.61818182 0.61818182 0.61818182 0.61818182 0.61818182
0.790000 -0.03378943 -0.46633142 -0.02228738 -0.07316239 0.00991502 -0.00438118 0.00000000 0.61818182 0.61818182 0.61818182 0.61818182 0.61818182 0.61818182
0.795000 -0.03398227 -0.46855693 -0.02236931 -0.07314425 0.00995875 -0.00459464 0.00000000 0.61818182 0.61818182 0.61818182 0.61818182 0.61818182 0.61818182
0.800000 -0.03417458 -0.47077374 -0.02245070 -0.07312076 0.01000223 -0.00481032 0.00000000 0.61818182 0.61818182 0.61818182 0.61818182 0.61818182 0.61818182
0.805000 -0.03436634 -0.47298186 -0.02253153 -0.07309194 0.01004546 -0.00502822 0.00000000 0.61818182 0.61818182 0.61818182 0.61818182 0.61818182 0.61818182
0.810000 -0.03455757 -0.47518130 -0.02261183 -0.07305778 0.01008845 -0.00524833 0.00000000 0.61818182 0.61818182 0.61818182 0.61818182 0.61818182 0.61818182
0.815000 -0.03474825 -0.47737206 -0.02269158 -0.07301831 0.01013119 -0.00547065 0.00000000 0.61818182 0.61818182 0.61818182 0.61818182 0.61818182 0.61818182
0.820000 -0.03493838 -0.47955415 -0.02277080 -0.07297353 0.01017368 -0.00569517 0.00000000 0.61818182 0.61818182 0.61818182 0.61818182 0.61818182 0.61818182
0.825000 -0.03512797 -0.48172759 -0.02284949 -0.07292345 0.01021593 -0.00592189 0.00000000 0.61818182 0.61818182 0.61818182 0.61818182 0.61818182 0.61818182
0.830000 -0.03531701 -0.48389238 -0.02292765 -0.07286810 0.01025794 -0.00615080 0.00000000 0.61818182 0.61818182 0.61818182 0.61818182 0.61818182 0.61818182
0.835000 -0.03550550 -0.48604853 -0.02300529 -0.07280747 0.01029971 -0.00638189 0.00000000 0.61818182 0.61818182 0.61818182 0.61818182 0.61818182 0.61818182
0.840000 -0.03569343 -0.48819604 -0.02308241 -0.07274158 0.01034123 -0.00661516 0.00000000 0.61818182 0.61818182 0.61818182 0.61818182 0.61818182 0.61818182
0.845000 -0.03588082 -0.49033493 -0.02315902 -0.07267043 0.01038251 -0.00685060 0.00000000 0.61818182 0.61818182 0.61818182 0.61818182 0.61818182 0.61818182
0.850000 -0.03606764 -0.49246521 -0.02323512 -0.07259405 0.01042355 -0.00708821 0.00000000 0.61818182 0.61818182 0.61818182 0.61818182 0.61818182 0.61818182
0.855000 -0.03625391 -0.49458688 -0.02331072 -0.07251244 0.01046435 -0.00732798 0.00000000 0.61818182 0.61818182 0.61818182 0.61818182 0.61818182 0.61818182
0.860000 -0.03643962 -0.49669996 -0.02338582 -0.07242561 0.01050492 -0.00756991 0.00000000 0.61818182 0.61818182 0.61818182 0.61818182 0.61818182 0.61818182
0.865000 -0.03662477 -0.49880444 -0.02346042 -0.07233357 0.01054525 -0.00781399 0.00000000 0.61818182 0.61818182 0.61818182 0.61818182 0.61818182 0.61818182
0.870000 -0.03680936 -0.50090034 -0.02353453 -0.07223633 0.01058534 -0.00806020 0.00000000 0.61818182 0.61818182 0.61818182 0.61818182 0.61818182 0.61818182
0.875000 -0.03699339 -0.50298767 -0.02360815 -0.07213391 0.01062519 -0.00830856 0.00000000 0.61818182 0.61818182 0.61818182 0.61818182 0.61818182 0.61818182
0.880000 -0.03717686 -0.50506644 -0.02368129 -0.07202631 0.01066481 -0.00855905 0.00000000 0.61818182 0.61818182 0.61818182 0.61818182 0.61818182 0.61818182
0.885000 -0.03735976 -0.50713664 -0.02375395 -0.07191354 0.01070420 -0.00881166 0.00000000 0.61818182 0.61818182 0.61818182 0.61818182 0.61818182 0.61818182
0.890000 -0.03754209 -0.50919831 -0.02382614 -0.07179561 0.01074336 -0.00906639 0.00000000 0.61818182 0.61818182 0.61818182 0.61818182 0.61818182 0.61818182
0.895000 -0.03772386 -0.51125143 -0.02389786 -0.07167254 0.01078228 -0.00932323 0.00000000 0.61818182 0.61818182 0.61818182 0.61818182 0.61818182 0.61818182
0.900000 -0.03790506 -0.51329602 -0.02396911 -0.07154433 0.01082097 -0.00958217 0.00000000 0.61818182 0.61818182 0.61818182 0.61818182 0.61818182 0.61818182
0.905000 -0.03808570 -0.51533209 -0.02403990 -0.07141100 0.01085944 -0.00984321 0.00000000 0.61818182 0.61818182 0.61818182 0.61818182 0.61818182 0.61818182
0.910000 -0.03826576 -0.51735965 -0.02411023 -0.07127254 0.01089767 -0.01010635 0.00000000 0.61818182 0.61818182 0.61818182 0.61818182 0.61818182 0.61818182
0.915000 -0.03844525 -0.51937870 -0.02418011 -0.07112898 0.01093568 -0.01037157 0.00000000 0.61818182 0.61818182 0.61818182 0.61818182 0.61818182 0.61818182
0.920000 -0.03862417 -0.52138925 -0.02424954 -0.07098032 0.01097346 -0.01063886 0.00000000 0.61818182 0.61818182 0.61818182 0.61818182 0.61818182 0.61818182
0.925000 -0.03880252 -0.52339131 -0.02431853 -0.07082657 0.01101101 -0.01090823 0.00000000 0.61818182 0.61818182 0.61818182 0.61818182 0.61818182 0.61818182
0.930000 -0.03898030 -0.52538489 -0.02438707 -0.07066774 0.01104834 -0.01117966 0.00000000 0.61818182 0.61818182 0.61818182 0.61818182 0.61818182 0.61818182
0.935000 -0.03915751 -0.52737000 -0.02445518 -0.07050385 0.01108545 -0.01145315 0.00000000 0.61818182 0.61818182 0.61818182 0.61818182 0.61818182 0.61818182
0.940000 -0.03933414 -0.52934664 -0.02452285 -0.07033489 0.01112233 -0.01172868 0.00000000 0.61818182 0.61818182 0.61818182 0.61818182 0.61818182 0.61818182
0.945000 -0.03951019 -0.53131483 -0.02459009 -0.07016088 0.01115899 -0.01200626 0.00000000 0.61818182 0.61818182 0.61818182 0.61818182 0.61818182 0.61818182
0.950000 -0.03968568 -0.53327457 -0.02465691 -0.06998183 0.01119543 -0.01228588 0.00000000 0.61818182 0.61818182 0.61818182 0.61818182 0.61818182 0.61818182
0.955000 -0.03986058 -0.53522587 -0.02472331 -0.06979774 0.01123165 -0.01256752 0.00000000 0.61818182 0.61818182 0.61818182 0.61818182 0.61818182 0.61818182
0.960000 -0.04003491 -0.53716873 -0.02478929 -0.06960863 0.01126765 -0.01285119 0.00000000 0.61818182 0.61818182 0.61818182 0.61818182 0.61818182 0.61818182
0.965000 -0.04020867 -0.53910318 -0.02485486 -0.06941451 0.01130344 -0.01313686 0.00000000 0.61818182 0.61818182 0.61818182 0.61818182 0.61818182 0.61818182
0.970000 -0.04038185 -0.54102920 -0.02492002 -0.06921538 0.01133900 -0.01342454 0.00000000 0.61818182 0.61818182 0.61818182 0.61818182 0.61818182 0.61818182
0.975000 -0.04055445 -0.54294682 -0.02498477 -0.06901125 0.01137435 -0.01371422 0.00000000 0.61818182 0.61818182 0.61818182 0.61818182 0.61818182 0.61818182
0.980000 -0.04072647 -0.54485603 -0.02504912 -0.06880213 0.01140949 -0.01400589 0.00000000 0.61818182 0.61818182 0.61818182 0.61818182 0.61818182 0.61818182
0.985000 -0.04089792 -0.54675686 -0.02511307 -0.06858804 0.01144441 -0.01429955 0.00000000 0.61818182 0.61818182 0.61818182 0.61818182 0.61818182 0.61818182
0.990000 -0.04106879 -0.54864929 -0.02517663 -0.06836897 0.01147912 -0.01459518 0.00000000 0.61818182 0.61818182 0.61818182 0.61818182 0.61818182 0.61818182
0.995000 -0.04123908 -0.55053335 -0.02523980 -0.06814493 0.01151362 -0.01489277 0.00000000 0.61818182 0.61818182 0.61818182 0.61818182 0.61818182 0.61818182
1.000000 -0.04140880 -0.55240904 -0.02530258 -0.06791594 0.01154791 -0.01519233 0.00000000 0.61818182 0.61818182 0.61818182 0.61818182 0.61818182 0.61818182
1.005000 -0.04157793 -0.55427637 -0.02536498 -0.06768201 0.01158198 -0.01549383 0.00000000 0.61818182 0.61818182 0.61818182 0.61818182 0.61818182 0.61818182
1.010000 -0.04174649 -0.55613535 -0.02542700 -0.06744313 0.01161585 -0.01579728 0.00000000 0.61818182 0.61818182 0.61818182 0.61818182 0.61818182 0.61818182
1.015000 -0.04191447 -0.55798598 -0.02548864 -0.06719932 0.01164951 -0.01610267 0.00000000 0.61818182 0.61818182 0.61818182 0.61818182 0.61818182 0.61818182
1.020000 -0.04208187 -0.55982827 -0.02554992 -0.06695059 0.01168297 -0.01640998 0.00000000 0.61818182 0.61818182 0.61818182 0.61818182 0.61818182 0.61818182
1.025000 -0.04224869 -0.56166223 -0.02561082 -0.06669695 0.01171622 -0.01671922 0.00000000 0.61818182 0.61818182 0.61818182 0.61818182 0.61818182 0.61818182
1.030000 -0.04241494 -0.56348786 -0.02567136 -0.06643839 0.01174926 -0.01703036 0.00000000 0.61818182 0.61818182 0.61818182 0.61818182 0.61818182 0.61818182
1.035000 -0.04258060 -0.56530518 -0.02573154 -0.06617494 0.01178210 -0.01734341 0.00000000 0.61818182 0.61818182 0.61818182 0.61818182 0.61818182 0.61818182
1.040000 -0.04274569 -0.56711419 -0.02579137 -0.06590660 0.01181474 -0.01765835 0.00000000 0.61818182 0.61818182 0.61818182 0.61818182 0.61818182 0.61818182
1.045000 -0.04291020 -0.56891490 -0.02585084 -0.06563337 0.01184717 -0.01797518 0.00000000 0.61818182 0.61818182 0.61818182 0.61818182 0.61818182 0.61818182
1.050000 -0.04307414 -0.57070732 -0.02590996 -0.06535526 0.01187941 -0.01829389 0.00000000 0.61818182 0.61818182 0.61818182 0.61818182 0.61818182 0.61818182
1.055000 -0.04323749 -0.57249144 -0.02596873 -0.06507229 0.01191144 -0.01861446 0.00000000 0.61818182 0.61818182 0.61818182 0.61818182 0.61818182 0.61818182
1.060000 -0.04340027 -0.57426729 -0.02602716 -0.06478445 0.01194328 -0.01893690 0.00000000 0.61818182 0.61818182 0.61818182 0.61818182 0.61818182 0.61818182
1.065000 -0.04356247 -0.57603487 -0.02608525 -0.06449176 0.01197492 -0.01926119 0.00000000 0.61818182 0.61818182 0.61818182 0.61818182 0.61818182 0.61818182
1.070000 -0.04372409 -0.57779419 -0.02614301 -0.06419422 0.01200636 -0.01958733 0.00000000 0.61818182 0.61818182 0.61818182 0.61818182 0.61818182 0.61818182
1.075000 -0.04388514 -0.57954524 -0.02620043 -0.06389184 0.01203761 -0.01991530 0.00000000 0.61818182 0.61818182 0.61818182 0.61818182 0.61818182 0.61818182
1.080000 -0.04404561 -0.58128805 -0.02625752 -0.06358462 0.01206866 -0.02024510 0.00000000 0.61818182 0.61818182 0.61818182 0.61818182 0.61818182 0.61818182
1.085000 -0.04420551 -0.58302261 -0.02631429 -0.06327258 0.01209952 -0.02057671 0.00000000 0.61818182 0.61818182 0.61818182 0.61818182 0.61818182 0.61818182
1.090000 -0.04436483 -0.58474894 -0.02637073 -0.06295572 0.01213019 -0.02091014 0.00000000 0.61818182 0.61818182 0.61818182 0.61818182 0.61818182 0.61818182
1.095000 -0.04452357 -0.58646703 -0.02642686 -0.06263405 0.01216066 -0.02124536 0.00000000 0.61818182 0.61818182 0.61818182 0.61818182 0.61818182 0.61818182
1.100000 -0.04468174 -0.58817691 -0.02648267 -0.06230757 0.01219095 -0.02158238 0.00000000 0.61818182 0.61818182 0.61818182 0.61818182 0.61818182 0.61818182
1.105000 -0.04483933 -0.58987857 -0.02653816 -0.06197630 0.01222104 -0.02192118 0.00000000 0.61818182 0.61818182 0.61818182 0.61818182 0.61818182 0.61818182
1.110000 -0.04499635 -0.59157203 -0.02659335 -0.06164023 0.01225095 -0.02226175 0.00000000 0.61818182 0.61818182 0.61818182 0.61818182 0.61818182 0.61818182
1.115000 -0.04515280 -0.59325728 -0.02664823 -0.06129937 0.01228066 -0.02260409 0.00000000 0.61818182 0.61818182 0.61818182 0.61818182 0.61818182 0.61818182
1.120000 -0.04530867 -0.59493434 -0.02670281 -0.06095374 0.01231020 -0.02294819 0.00000000 0.61818182 0.61818182 0.61818182 0.61818182 0.61818182 0.61818182
1.125000 -0.04546397 -0.59660321 -0.02675709 -0.06060333 0.01233954 -0.02329403 0.00000000 0.61818182 0.61818182 0.61818182 0.61818182 0.61818182 0.61818182
1.130000 -0.04561870 -0.59826390 -0.02681107 -0.06024815 0.01236870 -0.02364161 0.00000000 0.61818182 0.61818182 0.61818182 0.61818182 0.61818182 0.61818182
1.135000 -0.04577286 -0.59991642 -0.02686476 -0.05988822 0.01239768 -0.02399092 0.00000000 0.61818182 0.61818182 0.61818182 0.61818182 0.61818182 0.61818182
1.140000 -0.04592645 -0.60156078 -0.02691816 -0.05952353 0.01242647 -0.02434195 0.00000000 0.61818182 0.61818182 0.61818182 0.61818182 0.61818182 0.61818182
1.145000 -0.04607946 -0.60319697 -0.02697127 -0.05915409 0.01245509 -0.02469469 0.00000000 0.61818182 0.61818182 0.61818182 0.61818182 0.61818182 0.61818182
1.150000 -0.04623191 -0.60482501 -0.02702410 -0.05877992 0.01248352 -0.02504913 0.00000000 0.61818182 0.61818182 0.61818182 0.61818182 0.61818182 0.61818182
1.155000 -0.04638378 -0.60644491 -0.02707665 -0.05840100 0.01251177 -0.02540526 0.00000000 0.61818182 0.61818182 0.61818182 0.61818182 0.61818182 0.61818182
1.160000 -0.04653509 -0.60805667 -0.02712892 -0.05801736 0.01253984 -0.02576308 0.00000000 0.61818182 0.61818182 0.61818182 0.61818182 0.61818182 0.61818182
1.165000 -0.04668583 -0.60966029 -0.02718091 -0.05762899 0.01256774 -0.02612256 0.00000000 0.61818182 0.61818182 0.61818182 0.61818182 0.61818182 0.61818182
1.170000 -0.04683600 -0.61125579 -0.02723264 -0.05723591 0.01259545 -0.02648372 0.00000000 0.61818182 0.61818182 0.61818182 0.61818182 0.61818182 0.61818182
1.175000 -0.04698561 -0.61284317 -0.02728409 -0.05683811 0.01262300 -0.02684653 0.00000000 0.61818182 0.61818182 0.61818182 0.61818182 0.61818182 0.61818182
1.180000 -0.04713465 -0.61442244 -0.02733528 -0.05643561 0.01265036 -0.02721098 0.00000000 0.61818182 0.61818182 0.61818182 0.61818182 0.61818182 0.61818182
1.185000 -0.04728312 -0.61599360 -0.02738620 -0.05602841 0.01267756 -0.02757707 0.00000000 0.61818182 0.61818182 0.61818182 0.61818182 0.61818182 0.61818182
1.190000 -0.04743103 -0.61755667 -0.02743687 -0.05561651 0.01270457 -0.02794479 0.00000000 0.61818182 0.61818182 0.61818182 0.61818182 0.61818182 0.61818182
1.195000 -0.04757837 -0.61911164 -0.02748728 -0.05519993 0.01273142 -0.02831412 0.00000000 0.61818182 0.61818182 0.61818182 0.61818182 0.61818182 0.61818182
1.200000 -0.04772516 -0.62065852 -0.02753743 -0.05477866 0.01275810 -0.02868506 0.00000000 0.61818182 0.61818182 0.61818182 0.61818182 0.61818182 0.61818182
1.205000 -0.04787137 -0.62219733 -0.02758733 -0.05435271 0.01278460 -0.02905760 0.00000000 0.61818182 0.61818182 0.61818182 0.61818182 0.61818182 0.61818182
1.210000 -0.04801703 -0.62372806 -0.02763699 -0.05392209 0.01281094 -0.02943173 0.00000000 0.61818182 0.61818182 0.61818182 0.61818182 0.61818182 0.61818182
1.215000 -0.04816213 -0.62525073 -0.02768639 -0.05348680 0.01283710 -0.02980744 0.00000000 0.61818182 0.61818182 0.61818182 0.61818182 0.61818182 0.61818182
1.220000 -0.04830667 -0.62676534 -0.02773556 -0.05304685 0.01286310 -0.03018471 0.00000000 0.61818182 0.61818182 0.61818182 0.61818182 0.61818182 0.61818182
1.225000 -0.04845064 -0.62827190 -0.02778448 -0.05260225 0.01288894 -0.03056355 0.00000000 0.61818182 0.61818182 0.61818182 0.61818182 0.61818182 0.61818182
1.230000 -0.04859406 -0.62977041 -0.02783317 -0.05215299 0.01291460 -0.03094393 0.00000000 0.61818182 0.61818182 0.61818182 0.61818182 0.61818182 0.61818182
1.235000 -0.04873692 -0.63126088 -0.02788162 -0.05169909 0.01294011 -0.03132586 0.00000000 0.61818182 0.61818182 0.61818182 0.61818182 0.61818182 0.61818182
1.240000 -0.04887923 -0.63274331 -0.02792984 -0.05124055 0.01296544 -0.03170932 0.00000000 0.61818182 0.61818182 0.61818182 0.61818182 0.61818182 0.61818182
1.245000 -0.04902097 -0.63421772 -0.02797783 -0.05077737 0.01299062 -0.03209430 0.00000000 0.61818182 0.61818182 0.61818182 0.61818182 0.61818182 0.61818182
1.250000 -0.04916217 -0.63568411 -0.02802560 -0.05030957 0.01301563 -0.03248079 0.00000000 0.61818182 0.61818182 0.61818182 0.61818182 0.61818182 0.61818182
1.255000 -0.04930280 -0.63714249 -0.02807314 -0.04983713 0.01304048 -0.03286878 0.00000000 0.61818182 0.61818182 0.61818182 0.61818182 0.61818182 0.61818182
1.260000 -0.04944289 -0.63859286 -0.02812046 -0.04936008 0.01306517 -0.03325826 0.00000000 0.61818182 0.61818182 0.61818182 0.61818182 0.61818182 0.61818182
1.265000 -0.04958242 -0.64003523 -0.02816756 -0.04887841 0.01308970 -0.03364923 0.00000000 0.61818182 0.61818182 0.61818182 0.61818182 0.61818182 0.61818182
1.270000 -0.04972140 -0.64146960 -0.02821444 -0.04839213 0.01311407 -0.03404167 0.00000000 0.61818182 0.61818182 0.61818182 0.61818182 0.61818182 0.61818182
1.275000 -0.04985983 -0.64289599 -0.02826111 -0.04790125 0.01313829 -0.03443557 0.00000000 0.61818182 0.61818182 0.61818182 0.61818182 0.61818182 0.61818182
1.280000 -0.04999771 -0.64431440 -0.02830757 -0.04740576 0.01316235 -0.03483092 0.00000000 0.61818182 0.61818182 0.61818182 0.61818182 0.61818182 0.61818182
1.285000 -0.05013504 -0.64572483 -0.02835382 -0.04690569 0.01318625 -0.03522772 0.00000000 0.61818182 0.61818182 0.61818182 0.61818182 0.61818182 0.61818182
1.290000 -0.05027182 -0.64712729 -0.02839986 -0.04640101 0.01320999 -0.03562595 0.00000000 0.61818182 0.61818182 0.61818182 0.61818182 0.61818182 0.61818182
1.295000 -0.05040806 -0.64852179 -0.02844570 -0.04589176 0.01323358 -0.03602560 0.00000000 0.61818182 0.61818182 0.61818182 0.61818182 0.61818182 0.61818182
1.300000 -0.05054374 -0.64990834 -0.02849134 -0.04537792 0.01325702 -0.03642667 0.00000000 0.61818182 0.61818182 0.61818182 0.61818182 0.61818182 0.61818182
1.305000 -0.05067889 -0.65128694 -0.02853678 -0.04485951 0.01328031 -0.03682914 0.00000000 0.61818182 0.61818182 0.61818182 0.61818182 0.61818182 0.61818182
1.310000 -0.05081349 -0.65265759 -0.02858203 -0.04433652 0.01330344 -0.03723301 0.00000000 0.61818182 0.61818182 0.61818182 0.61818182 0.61818182 0.61818182
1.315000 -0.05094754 -0.65402031 -0.02862708 -0.04380897 0.01332642 -0.03763826 0.00000000 0.61818182 0.61818182 0.61818182 0.61818182 0.61818182 0.61818182
1.320000 -0.05108106 -0.65537511 -0.02867193 -0.04327685 0.01334926 -0.03804489 0.00000000 0.61818182 0.61818182 0.61818182 0.61818182 0.61818182 0.61818182
1.325000 -0.05121403 -0.65672198 -0.02871660 -0.04274018 0.01337194 -0.03845287 0.00000000 0.61818182 0.61818182 0.61818182 0.61818182 0.61818182 0.61818182
1.330000 -0.05134646 -0.65806093 -0.02876109 -0.04219895 0.01339447 -0.03886222 0.00000000 0.61818182 0.61818182 0.61818182 0.61818182 0.61818182 0.61818182
1.335000 -0.05147835 -0.65939198 -0.02880538 -0.04165318 0.01341686 -0.03927291 0.00000000 0.61818182 0.61818182 0.61818182 0.61818182 0.61818182 0.61818182
1.340000 -0.05160970 -0.66071513 -0.02884950 -0.04110286 0.01343910 -0.03968493 0.00000000 0.61818182 0.61818182 0.61818182 0.61818182 0.61818182 0.61818182
1.345000 -0.05174052 -0.66203037 -0.02889344 -0.04054800 0.01346119 -0.04009828 0.00000000 0.61818182 0.61818182 0.61818182 0.61818182 0.61818182 0.61818182
1.350000 -0.05187079 -0.66333774 -0.02893719 -0.03998861 0.01348314 -0.04051295 0.00000000 0.61818182 0.61818182 0.61818182 0.61818182 0.61818182 0.61818182
1.355000 -0.05200054 -0.66463721 -0.02898078 -0.03942468 0.01350494 -0.04092892 0.00000000 0.61818182 0.61818182 0.61818182 0.61818182 0.61818182 0.61818182
1.360000 -0.05212974 -0.66592882 -0.02902419 -0.03885623 0.01352660 -0.04134618 0.00000000 0.61818182 0.61818182 0.61818182 0.61818182 0.61818182 0.61818182
1.365000 -0.05225842 -0.66721255 -0.02906743 -0.03828326 0.01354812 -0.04176473 0.00000000 0.61818182 0.61818182 0.61818182 0.61818182 0.61818182 0.61818182
1.370000 -0.05238656 -0.66848842 -0.02911050 -0.03770577 0.01356950 -0.04218456 0.00000000 0.61818182 0.61818182 0.61818182 0.61818182 0.61818182 0.61818182
1.375000 -0.05251417 -0.66975644 -0.02915340 -0.03712377 0.01359073 -0.04260566 0.00000000 0.61818182 0.61818182 0.61818182 0.61818182 0.61818182 0.61818182
1.380000 -0.05264125 -0.67101661 -0.02919614 -0.03653726 0.01361182 -0.04302801 0.00000000 0.61818182 0.61818182 0.61818182 0.61818182 0.61818182 0.61818182
1.385000 -0.05276780 -0.67226894 -0.02923872 -0.03594625 0.01363278 -0.04345160 0.00000000 0.61818182 0.61818182 0.61818182 0.61818182 0.61818182 0.61818182
1.390000 -0.05289382 -0.67351344 -0.02928113 -0.03535074 0.01365359 -0.04387644 0.00000000 0.61818182 0.61818182 0.61818182 0.61818182 0.61818182 0.61818182
1.395000 -0.05301932 -0.67475010 -0.02932339 -0.03475073 0.01367427 -0.04430250 0.00000000 0.61818182 0.61818182 0.61818182 0.61818182 0.61818182 0.61818182
1.400000 -0.05314428 -0.67597895 -0.02936549 -0.03414623 0.01369481 -0.04472978 0.00000000 0.61818182 0.61818182 0.61818182 0.61818182 0.61818182 0.61818182
1.405000 -0.05326872 -0.67719998 -0.02940744 -0.03353724 0.01371521 -0.04515826 0.00000000 0.61818182 0.61818182 0.61818182 0.61818182 0.61818182 0.61818182
1.410000 -0.05339264 -0.67841321 -0.02944924 -0.03292377 0.01373547 -0.04558795 0.00000000 0.61818182 0.61818182 0.61818182 0.61818182 0.61818182 0.61818182
1.415000 -0.05351604 -0.67961864 -0.02949089 -0.03230583 0.01375560 -0.04601882 0.00000000 0.61818182 0.61818182 0.61818182 0.61818182 0.61818182 0.61818182
1.420000 -0.05363891 -0.68081627 -0.02953239 -0.03168341 0.01377560 -0.04645087 0.00000000 0.61818182 0.61818182 0.61818182 0.61818182 0.61818182 0.61818182
1.425000 -0.05376126 -0.68200612 -0.02957374 -0.03105652 0.01379546 -0.04688409 0.00000000 0.61818182 0.61818182 0.61818182 0.61818182 0.61818182 0.61818182
1.430000 -0.05388309 -0.68318819 -0.02961495 -0.03042517 0.01381519 -0.04731846 0.00000000 0.61818182 0.61818182 0.61818182 0.61818182 0.61818182 0.61818182
1.435000 -0.05400440 -0.68436250 -0.02965602 -0.02978936 0.01383479 -0.04775399 0.00000000 0.61818182 0.61818182 0.61818182 0.61818182 0.61818182 0.61818182
1.440000 -0.05412519 -0.68552903 -0.02969695 -0.02914909 0.01385426 -0.04819065 0.00000000 0.61818182 0.61818182 0.61818182 0.61818182 0.61818182 0.61818182
1.445000 -0.05424547 -0.68668781 -0.02973774 -0.02850437 0.01387359 -0.04862845 0.00000000 0.61818182 0.61818182 0.61818182 0.61818182 0.61818182 0.61818182
1.450000 -0.05436523 -0.68783885 -0.02977840 -0.02785520 0.01389280 -0.04906737 0.00000000 0.61818182 0.61818182 0.61818182 0.61818182 0.61818182 0.61818182
1.455000 -0.05448448 -0.68898214 -0.02981892 -0.02720158 0.01391187 -0.04950739 0.00000000 0.61818182 0.61818182 0.61818182 0.61818182 0.61818182 0.61818182
1.460000 -0.05460321 -0.69011770 -0.02985931 -0.02654353 0.01393082 -0.04994852 0.00000000 0.61818182 0.61818182 0.61818182 0.61818182 0.61818182 0.61818182
1.465000 -0.05472143 -0.69124553 -0.02989957 -0.02588105 0.01394964 -0.05039074 0.00000000 0.61818182 0.61818182 0.61818182 0.61818182 0.61818182 0.61818182
1.470000 -0.05483913 -0.69236564 -0.02993970 -0.02521413 0.01396833 -0.05083404 0.00000000 0.61818182 0.61818182 0.61818182 0.61818182 0.61818182 0.61818182
1.475000 -0.05495633 -0.69347804 -0.02997971 -0.02454279 0.01398689 -0.05127841 0.00000000 0.61818182 0.61818182 0.61818182 0.61818182 0.61818182 0.61818182
1.480000 -0.05507302 -0.69458273 -0.03001959 -0.02386703 0.01400533 -0.05172384 0.00000000 0.61818182 0.61818182 0.61818182 0.61818182 0.61818182 0.61818182
1.485000 -0.05518919 -0.69567973 -0.03005934 -0.02318685 0.01402365 -0.05217033 0.00000000 0.61818182 0.61818182 0.61818182 0.61818182 0.61818182 0.61818182
1.490000 -0.05530487 -0.69676904 -0.03009898 -0.02250226 0.01404183 -0.05261786 0.00000000 0.61818182 0.61818182 0.61818182 0.61818182 0.61818182 0.61818182
1.495000 -0.05542003 -0.69785067 -0.03013850 -0.02181326 0.01405990 -0.05306643 0.00000000 0.61818182 0.61818182 0.61818182 0.61818182 0.61818182 0.61818182
1.500000 -0.05553469 -0.69892463 -0.03017790 -0.02111985 0.01407784 -0.05351602 0.00000000 0.61818182 0.61818182 0.61818182 0.61818182 0.61818182 0.61818182
1.505000 -0.05564884 -0.69999092 -0.03021718 -0.02042204 0.01409566 -0.05396663 0.00000000 0.61818182 0.61818182 0.61818182 0.61818182 0.61818182 0.61818182
1.510000 -0.05576250 -0.70104955 -0.03025635 -0.01971984 0.01411336 -0.05441824 0.00000000 0.61818182 0.61818182 0.61818182 0.61818182 0.61818182 0.61818182
1.515000 -0.05587565 -0.70210054 -0.03029541 -0.01901325 0.01413094 -0.05487085 0.00000000 0.61818182 0.61818182 0.61818182 0.61818182 0.61818182 0.61818182
1.520000 -0.05598829 -0.70314388 -0.03033435 -0.01830227 0.01414839 -0.05532445 0.00000000 0.61818182 0.61818182 0.61818182 0.61818182 0.61818182 0.61818182
1.525000 -0.05610044 -0.70417959 -0.03037319 -0.01758691 0.01416573 -0.05577902 0.00000000 0.61818182 0.61818182 0.61818182 0.61818182 0.61818182 0.61818182
1.530000 -0.05621209 -0.70520768 -0.03041192 -0.01686717 0.01418295 -0.05623457 0.00000000 0.61818182 0.61818182 0.61818182 0.61818182 0.61818182 0.61818182
1.535000 -0.05632325 -0.70622815 -0.03045055 -0.01614306 0.01420004 -0.05669107 0.00000000 0.61818182 0.61818182 0.61818182 0.61818182 0.61818182 0.61818182
1.540000 -0.05643390 -0.70724101 -0.03048907 -0.01541458 0.01421703 -0.05714852 0.00000000 0.61818182 0.61818182 0.61818182 0.61818182 0.61818182 0.61818182
1.545000 -0.05654406 -0.70824627 -0.03052749 -0.01468173 0.01423389 -0.05760692 0.00000000 0.61818182 0.61818182 0.61818182 0.61818182 0.61818182 0.61818182
1.550000 -0.05665373 -0.70924393 -0.03056581 -0.01394453 0.01425064 -0.05806625 0.00000000 0.61818182 0.61818182 0.61818182 0.61818182 0.61818182 0.61818182
1.555000 -0.05676290 -0.71023402 -0.03060403 -0.01320297 0.01426727 -0.05852650 0.00000000 0.61818182 0.61818182 0.61818182 0.61818182 0.61818182 0.61818182
1.560000 -0.05687158 -0.71121652 -0.03064215 -0.01245705 0.01428378 -0.05898766 0.00000000 0.61818182 0.61818182 0.61818182 0.61818182 0.61818182 0.61818182
1.565000 -0.05697977 -0.71219147 -0.03068018 -0.01170679 0.01430018 -0.05944973 0.00000000 0.61818182 0.61818182 0.61818182 0.61818182 0.61818182 0.61818182
1.570000 -0.05708747 -0.71315885 -0.03071811 -0.01095219 0.01431647 -0.05991269 0.00000000 0.61818182 0.61818182 0.61818182 0.61818182 0.61818182 0.61818182
1.575000 -0.05719468 -0.71411869 -0.03075595 -0.01019325 0.01433264 -0.06037654 0.00000000 0.61818182 0.61818182 0.61818182 0.61818182 0.61818182 0.61818182
1.580000 -0.05730140 -0.71507098 -0.03079370 -0.00942998 0.01434870 -0.06084127 0.00000000 0.61818182 0.61818182 0.61818182 0.61818182 0.61818182 0.61818182
1.585000 -0.05740763 -0.71601574 -0.03083136 -0.00866238 0.01436465 -0.06130687 0.00000000 0.61818182 0.61818182 0.61818182 0.61818182 0.61818182 0.61818182
1.590000 -0.05751338 -0.71695298 -0.03086893 -0.00789046 0.01438048 -0.06177333 0.00000000 0.61818182 0.61818182 0.61818182 0.61818182 0.61818182 0.61818182
1.595000 -0.05761865 -0.71788271 -0.03090641 -0.00711422 0.01439621 -0.06224064 0.00000000 0.61818182 0.61818182 0.61818182 0.61818182 0.61818182 0.61818182
1.600000 -0.05772343 -0.71880493 -0.03094381 -0.00633366 0.01441182 -0.06270879 0.00000000 0.61818182 0.61818182 0.61818182 0.61818182 0.61818182 0.61818182
1.605000 -0.05782773 -0.71971965 -0.03098113 -0.00554879 0.01442732 -0.06317778 0.00000000 0.61818182 0.61818182 0.61818182 0.61818182 0.61818182 0.61818182
1.610000 -0.05793154 -0.72062689 -0.03101836 -0.00475962 0.01444272 -0.06364759 0.00000000 0.61818182 0.61818182 0.61818182 0.61818182 0.61818182 0.61818182
1.615000 -0.05803488 -0.72152665 -0.03105552 -0.00396615 0.01445800 -0.06411821 0.00000000 0.61818182 0.61818182 0.61818182 0.61818182 0.61818182 0.61818182
1.620000 -0.05813774 -0.72241894 -0.03109259 -0.00316838 0.01447318 -0.06458965 0.00000000 0.61818182 0.61818182 0.61818182 0.61818182 0.61818182 0.61818182
1.625000 -0.05824012 -0.72330378 -0.03112958 -0.00236632 0.01448825 -0.06506188 0.00000000 0.61818182 0.61818182 0.61818182 0.61818182 0.61818182 0.61818182
1.630000 -0.05834202 -0.72418116 -0.03116650 -0.00155997 0.01450321 -0.06553490 0.00000000 0.61818182 0.61818182 0.61818182 0.61818182 0.61818182 0.61818182
1.635000 -0.05844344 -0.72505110 -0.03120335 -0.00074935 0.01451807 -0.06600871 0.00000000 0.61818182 0.61818182 0.61818182 0.61818182 0.61818182 0.61818182
1.640000 -0.05854440 -0.72591362 -0.03124012 0.00006556 0.01453282 -0.06648329 0.00000000 0.61818182 0.61818182 0.61818182 0.61818182 0.61818182 0.61818182
1.645000 -0.05864487 -0.72676871 -0.03127682 0.00088473 0.01454746 -0.06695863 0.00000000 0.61818182 0.61818182 0.61818182 0.61818182 0.61818182 0.61818182
1.650000 -0.05874488 -0.72761639 -0.03131344 0.00170817 0.01456200 -0.06743473 0.00000000 0.61818182 0.61818182 0.61818182 0.61818182 0.61818182 0.61818182
1.655000 -0.05884441 -0.72845667 -0.03135000 0.00253588 0.01457643 -0.06791158 0.00000000 0.61818182 0.61818182 0.61818182 0.61818182 0.61818182 0.61818182
1.660000 -0.05894347 -0.72928955 -0.03138649 0.00336784 0.01459076 -0.06838916 0.00000000 0.61818182 0.61818182 0.61818182 0.61818182 0.61818182 0.61818182
1.665000 -0.05904206 -0.73011506 -0.03142291 0.00420405 0.01460499 -0.06886748 0.00000000 0.61818182 0.61818182 0.61818182 0.61818182 0.61818182 0.61818182
1.670000 -0.05914019 -0.73093319 -0.03145927 0.00504451 0.01461912 -0.06934652 0.00000000 0.61818182 0.61818182 0.61818182 0.61818182 0.61818182 0.61818182
1.675000 -0.05923785 -0.73174396 -0.03149556 0.00588921 0.01463314 -0.06982628 0.00000000 0.61818182 0.61818182 0.61818182 0.61818182 0.61818182 0.61818182
1.680000 -0.05933504 -0.73254738 -0.03153179 0.00673815 0.01464706 -0.07030674 0.00000000 0.61818182 0.61818182 0.61818182 0.61818182 0.61818182 0.61818182
1.685000 -0.05943176 -0.73334346 -0.03156795 0.00759132 0.01466088 -0.07078790 0.00000000 0.61818182 0.61818182 0.61818182 0.61818182 0.61818182 0.61818182
1.690000 -0.05952802 -0.73413220 -0.03160406 0.00844871 0.01467460 -0.07126976 0.00000000 0.61818182 0.61818182 0.61818182 0.61818182 0.61818182 0.61818182
1.695000 -0.05962382 -0.73491363 -0.03164011 0.00931033 0.01468822 -0.07175229 0.00000000 0.61818182 0.61818182 0.61818182 0.61818182 0.61818182 0.61818182
1.700000 -0.05971916 -0.73568774 -0.03167610 0.01017617 0.01470174 -0.07223550 0.00000000 0.61818182 0.61818182 0.61818182 0.61818182 0.61818182 0.61818182
1.705000 -0.05981403 -0.73645456 -0.03171203 0.01104622 0.01471516 -0.07271937 0.00000000 0.61818182 0.61818182 0.61818182 0.61818182 0.61818182 0.61818182
1.710000 -0.05990845 -0.73721408 -0.03174790 0.01192047 0.01472848 -0.07320391 0.00000000 0.61818182 0.61818182 0.61818182 0.61818182 0.61818182 0.61818182
1.715000 -0.06000241 -0.73796632 -0.03178372 0.01279892 0.01474170 -0.07368909 0.00000000 0.61818182 0.61818182 0.61818182 0.61818182 0.61818182 0.61818182
1.720000 -0.06009591 -0.73871130 -0.03181949 0.01368157 0.01475483 -0.07417492 0.00000000 0.61818182 0.61818182 0.61818182 0.61818182 0.61818182 0.61818182
1.725000 -0.06018895 -0.73944902 -0.03185521 0.01456841 0.01476786 -0.07466138 0.00000000 0.61818182 0.61818182 0.61818182 0.61818182 0.61818182 0.61818182
1.730000 -0.06028154 -0.74017949 -0.03189087 0.01545944 0.01478079 -0.07514847 0.00000000 0.61818182 0.61818182 0.61818182 0.61818182 0.61818182 0.61818182
1.735000 -0.06037367 -0.74090272 -0.03192649 0.01635464 0.01479363 -0.07563618 0.00000000 0.61818182 0.61818182 0.61818182 0.61818182 0.61818182 0.61818182
1.740000 -0.06046535 -0.74161873 -0.03196206 0.01725402 0.01480637 -0.07612450 0.00000000 0.61818182 0.61818182 0.61818182 0.61818182 0.61818182 0.61818182
1.745000 -0.06055657 -0.74232753 -0.03199757 0.01815757 0.01481901 -0.07661342 0.00000000 0.61818182 0.61818182 0.61818182 0.61818182 0.61818182 0.61818182
1.750000 -0.06064735 -0.74302912 -0.03203305 0.01906528 0.01483156 -0.07710294 0.00000000 0.61818182 0.61818182 0.61818182 0.61818182 0.61818182 0.61818182
1.755000 -0.06073768 -0.74372352 -0.03206847 0.01997715 0.01484402 -0.07759305 0.00000000 0.61818182 0.61818182 0.61818182 0.61818182 0.61818182 0.61818182
1.760000 -0.06082755 -0.74441074 -0.03210386 0.02089318 0.01485638 -0.07808374 0.00000000 0.61818182 0.61818182 0.61818182 0.61818182 0.61818182 0.61818182
1.765000 -0.06091698 -0.74509079 -0.03213920 0.02181335 0.01486865 -0.07857501 0.00000000 0.61818182 0.61818182 0.61818182 0.61818182 0.61818182 0.61818182
1.770000 -0.06100596 -0.74576368 -0.03217450 0.02273766 0.01488083 -0.07906684 0.00000000 0.61818182 0.61818182 0.61818182 0.61818182 0.61818182 0.61818182
1.775000 -0.06109450 -0.74642943 -0.03220975 0.02366611 0.01489291 -0.07955924 0.00000000 0.61818182 0.61818182 0.61818182 0.61818182 0.61818182 0.61818182
1.780000 -0.06118259 -0.74708804 -0.03224497 0.02459869 0.01490491 -0.08005218 0.00000000 0.61818182 0.61818182 0.61818182 0.61818182 0.61818182 0.61818182
1.785000 -0.06127024 -0.74773953 -0.03228015 0.02553539 0.01491681 -0.08054567 0.00000000 0.61818182 0.61818182 0.61818182 0.61818182 0.61818182 0.61818182
1.790000 -0.06135744 -0.74838390 -0.03231529 0.02647621 0.01492862 -0.08103970 0.00000000 0.61818182 0.61818182 0.61818182 0.61818182 0.61818182 0.61818182
1.795000 -0.06144421 -0.74902118 -0.03235039 0.02742115 0.01494034 -0.08153426 0.00000000 0.61818182 0.61818182 0.61818182 0.61818182 0.61818182 0.61818182
1.800000 -0.06153053 -0.74965137 -0.03238546 0.02837019 0.01495197 -0.08202934 0.00000000 0.61818182 0.61818182 0.61818182 0.61818182 0.61818182 0.61818182
1.805000 -0.06161641 -0.75027448 -0.03242049 0.02932334 0.01496351 -0.08252494 0.00000000 0.61818182 0.61818182 0.61818182 0.61818182 0.61818182 0.61818182
1.810000 -0.06170186 -0.75089052 -0.03245549 0.03028058 0.01497496 -0.08302105 0.00000000 0.61818182 0.61818182 0.61818182 0.61818182 0.61818182 0.61818182
1.815000 -0.06178687 -0.75149952 -0.03249046 0.03124191 0.01498632 -0.08351766 0.00000000 0.61818182 0.61818182 0.61818182 0.61818182 0.61818182 0.61818182
1.820000 -0.06187144 -0.75210147 -0.03252539 0.03220733 0.01499760 -0.08401477 0.00000000 0.61818182 0.61818182 0.61818182 0.61818182 0.61818182 0.61818182
1.825000 -0.06195558 -0.75269640 -0.03256029 0.03317683 0.01500878 -0.08451237 0.00000000 0.61818182 0.61818182 0.61818182 0.61818182 0.61818182 0.61818182
1.830000 -0.06203928 -0.75328431 -0.03259517 0.03415039 0.01501988 -0.08501044 0.00000000 0.61818182 0.61818182 0.61818182 0.61818182 0.61818182 0.61818182
1.835000 -0.06212255 -0.75386521 -0.03263001 0.03512803 0.01503089 -0.08550900 0.00000000 0.61818182 0.61818182 0.61818182 0.61818182 0.61818182 0.61818182
1.840000 -0.06220538 -0.75443913 -0.03266483 0.03610973 0.01504182 -0.08600802 0.00000000 0.61818182 0.61818182 0.61818182 0.61818182 0.61818182 0.61818182
1.845000 -0.06228779 -0.75500606 -0.03269962 0.03709548 0.01505266 -0.08650750 0.00000000 0.61818182 0.61818182 0.61818182 0.61818182 0.61818182 0.61818182
1.850000 -0.06236977 -0.75556603 -0.03273438 0.03808528 0.01506341 -0.08700744 0.00000000 0.61818182 0.61818182 0.61818182 0.61818182 0.61818182 0.61818182
1.855000 -0.06245131 -0.75611905 -0.03276912 0.03907912 0.01507408 -0.08750783 0.00000000 0.61818182 0.61818182 0.61818182 0.61818182 0.61818182 0.61818182
1.860000 -0.06253243 -0.75666512 -0.03280383 0.04007700 0.01508466 -0.08800866 0.00000000 0.61818182 0.61818182 0.61818182 0.61818182 0.61818182 0.61818182
1.865000 -0.06261313 -0.75720427 -0.03283852 0.04107891 0.01509516 -0.08850993 0.00000000 0.61818182 0.61818182 0.61818182 0.61818182 0.61818182 0.61818182
1.870000 -0.06269339 -0.75773650 -0.03287319 0.04208485 0.01510558 -0.08901162 0.00000000 0.61818182 0.61818182 0.61818182 0.61818182 0.61818182 0.61818182
1.875000 -0.06277324 -0.75826182 -0.03290783 0.04309480 0.01511591 -0.08951374 0.00000000 0.61818182 0.61818182 0.61818182 0.61818182 0.61818182 0.61818182
1.880000 -0.06285266 -0.75878026 -0.03294246 0.04410877 0.01512616 -0.09001628 0.00000000 0.61818182 0.61818182 0.61818182 0.61818182 0.61818182 0.61818182
1.885000 -0.06293165 -0.75929182 -0.03297706 0.04512674 0.01513632 -0.09051922 0.00000000 0.61818182 0.61818182 0.61818182 0.61818182 0.61818182 0.61818182
1.890000 -0.06301023 -0.75979652 -0.03301164 0.04614871 0.01514640 -0.09102257 0.00000000 0.61818182 0.61818182 0.61818182 0.61818182 0.61818182 0.61818182
1.895000 -0.06308838 -0.76029436 -0.03304621 0.04717467 0.01515640 -0.09152632 0.00000000 0.61818182 0.61818182 0.61818182 0.61818182 0.61818182 0.61818182
1.900000 -0.06316612 -0.76078537 -0.03308076 0.04820463 0.01516632 -0.09203046 0.00000000 0.61818182 0.61818182 0.61818182 0.61818182 0.61818182 0.61818182
1.905000 -0.06324343 -0.76126955 -0.03311529 0.04923856 0.01517616 -0.09253498 0.00000000 0.61818182 0.61818182 0.61818182 0.61818182 0.61818182 0.61818182
1.910000 -0.06332033 -0.76174692 -0.03314981 0.05027647 0.01518592 -0.09303989 0.00000000 0.61818182 0.61818182 0.61818182 0.61818182 0.61818182 0.61818182
1.915000 -0.06339682 -0.76221749 -0.03318431 0.05131835 0.01519559 -0.09354516 0.00000000 0.61818182 0.61818182 0.61818182 0.61818182 0.61818182 0.61818182
1.920000 -0.06347289 -0.76268127 -0.03321880 0.05236418 0.01520519 -0.09405081 0.00000000 0.61818182 0.61818182 0.61818182 0.61818182 0.61818182 0.61818182
1.925000 -0.06354854 -0.76313829 -0.03325327 0.05341398 0.01521471 -0.09455682 0.00000000 0.61818182 0.61818182 0.61818182 0.61818182 0.61818182 0.61818182
1.930000 -0.06362378 -0.76358855 -0.03328773 0.05446772 0.01522414 -0.09506318 0.00000000 0.61818182 0.61818182 0.61818182 0.61818182 0.61818182 0.61818182
1.935000 -0.06369861 -0.76403206 -0.03332218 0.05552541 0.01523350 -0.09556989 0.00000000 0.61818182 0.61818182 0.61818182 0.61818182 0.61818182 0.61818182
1.940000 -0.06377303 -0.76446884 -0.03335661 0.05658703 0.01524278 -0.09607695 0.00000000 0.61818182 0.61818182 0.61818182 0.61818182 0.61818182 0.61818182
1.945000 -0.06384704 -0.76489891 -0.03339104 0.05765258 0.01525198 -0.09658434 0.00000000 0.61818182 0.61818182 0.61818182 0.61818182 0.61818182 0.61818182
1.950000 -0.06392064 -0.76532227 -0.03342546 0.05872205 0.01526110 -0.09709207 0.00000000 0.61818182 0.61818182 0.61818182 0.61818182 0.61818182 0.61818182
1.955000 -0.06399383 -0.76573894 -0.03345987 0.05979544 0.01527015 -0.09760013 0.00000000 0.61818182 0.61818182 0.61818182 0.61818182 0.61818182 0.61818182
1.960000 -0.06406661 -0.76614894 -0.03349426 0.06087274 0.01527911 -0.09810850 0.00000000 0.61818182 0.61818182 0.61818182 0.61818182 0.61818182 0.61818182
1.965000 -0.06413899 -0.76655227 -0.03352866 0.06195395 0.01528801 -0.09861719 0.00000000 0.61818182 0.61818182 0.61818182 0.61818182 0.61818182 0.61818182
1.970000 -0.06421097 -0.76694895 -0.03356304 0.06303905 0.01529682 -0.09912620 0.00000000 0.61818182 0.61818182 0.61818182 0.61818182 0.61818182 0.61818182
1.975000 -0.06428254 -0.76733901 -0.03359742 0.06412804 0.01530556 -0.09963551 0.00000000 0.61818182 0.61818182 0.61818182 0.61818182 0.61818182 0.61818182
1.980000 -0.06435371 -0.76772244 -0.03363179 0.06522091 0.01531422 -0.10014511 0.00000000 0.61818182 0.61818182 0.61818182 0.61818182 0.61818182 0.61818182
1.985000 -0.06442447 -0.76809926 -0.03366616 0.06631766 0.01532281 -0.10065502 0.00000000 0.61818182 0.61818182 0.61818182 0.61818182 0.61818182 0.61818182
1.990000 -0.06449484 -0.76846950 -0.03370052 0.06741828 0.01533132 -0.10116521 0.00000000 0.61818182 0.61818182 0.61818182 0.61818182 0.61818182 0.61818182
1.995000 -0.06456480 -0.76883315 -0.03373488 0.06852276 0.01533976 -0.10167568 0.00000000 0.61818182 0.61818182 0.61818182 0.61818182 0.61818182 0.61818182
2.000000 -0.06463437 -0.76919025 -0.03376924 0.06963110 0.01534812 -0.10218644 0.00000000 0.61818182 0.61818182 0.61818182 0.61818182 0.61818182 0.61818182
2.005000 -0.06474279 -0.76864160 -0.03384720 0.07124784 0.01537009 -0.10273229 0.00000000 0.61818182 0.61818182 0.61818182 0.61818182 0.61818182 0.61818182
2.010000 -0.06485053 -0.76808854 -0.03392513 0.07286718 0.01539190 -0.10327810 0.00000000 0.61818182 0.61818182 0.61818182 0.61818182 0.61818182 0.61818182
2.015000 -0.06495760 -0.76753106 -0.03400304 0.07448911 0.01541355 -0.10382385 0.00000000 0.61818182 0.61818182 0.61818182 0.61818182 0.61818182 0.61818182
2.020000 -0.06506400 -0.76696919 -0.03408093 0.07611362 0.01543505 -0.10436954 0.00000000 0.61818182 0.61818182 0.61818182 0.61818182 0.61818182 0.61818182
2.025000 -0.06516974 -0.76640293 -0.03415879 0.07774073 0.01545639 -0.10491518 0.00000000 0.61818182 0.61818182 0.61818182 0.61818182 0.61818182 0.61818182
2.030000 -0.06527481 -0.76583229 -0.03423662 0.07937041 0.01547758 -0.10546076 0.00000000 0.61818182 0.61818182 0.61818182 0.61818182 0.61818182 0.61818182
2.035000 -0.06537923 -0.76525729 -0.03431443 0.08100267 0.01549862 -0.10600629 0.00000000 0.61818182 0.61818182 0.61818182 0.61818182 0.61818182 0.61818182
2.040000 -0.06548298 -0.76467793 -0.03439222 0.08263750 0.01551951 -0.10655175 0.00000000 0.61818182 0.61818182 0.61818182 0.61818182 0.61818182 0.61818182
2.045000 -0.06558608 -0.76409423 -0.03446997 0.08427490 0.01554024 -0.10709715 0.00000000 0.61818182 0.61818182 0.61818182 0.61818182 0.61818182 0.61818182
2.050000 -0.06568853 -0.76350620 -0.03454770 0.08591487 0.01556082 -0.10764248 0.00000000 0.61818182 0.61818182 0.61818182 0.61818182 0.61818182 0.61818182
2.055000 -0.06579033 -0.76291384 -0.03462541 0.08755740 0.01558126 -0.10818776 0.00000000 0.61818182 0.61818182 0.61818182 0.61818182 0.61818182 0.61818182
2.060000 -0.06589149 -0.76231718 -0.03470308 0.08920248 0.01560154 -0.10873296 0.00000000 0.61818182 0.61818182 0.61818182 0.61818182 0.61818182 0.61818182
2.065000 -0.06599200 -0.76171621 -0.03478073 0.09085012 0.01562168 -0.10927810 0.00000000 0.61818182 0.61818182 0.61818182 0.61818182 0.61818182 0.61818182
2.070000 -0.06609187 -0.76111096 -0.03485835 0.09250031 0.01564167 -0.10982317 0.00000000 0.61818182 0.61818182 0.61818182 0.61818182 0.61818182 0.61818182
2.075000 -0.06619111 -0.76050144 -0.03493595 0.09415304 0.01566151 -0.11036817 0.00000000 0.61818182 0.61818182 0.61818182 0.61818182 0.61818182 0.61818182
2.080000 -0.06628971 -0.75988764 -0.03501352 0.09580831 0.01568120 -0.11091310 0.00000000 0.61818182 0.61818182 0.61818182 0.61818182 0.61818182 0.61818182
2.085000 -0.06638768 -0.75926960 -0.03509105 0.09746612 0.01570075 -0.11145796 0.00000000 0.61818182 0.61818182 0.61818182 0.61818182 0.61818182 0.61818182
2.090000 -0.06648502 -0.75864731 -0.03516856 0.09912646 0.01572016 -0.11200274 0.00000000 0.61818182 0.61818182 0.61818182 0.61818182 0.61818182 0.61818182
2.095000 -0.06658173 -0.75802079 -0.03524605 0.10078933 0.01573942 -0.11254745 0.00000000 0.61818182 0.61818182 0.61818182 0.61818182 0.61818182 0.61818182
2.100000 -0.06667782 -0.75739005 -0.03532350 0.10245473 0.01575853 -0.11309208 0.00000000 0.61818182 0.61818182 0.61818182 0.61818182 0.61818182 0.61818182
2.105000 -0.06677329 -0.75675510 -0.03540093 0.10412265 0.01577751 -0.11363663 0.00000000 0.61818182 0.61818182 0.61818182 0.61818182 0.61818182 0.61818182
2.110000 -0.06686814 -0.75611595 -0.03547832 0.10579308 0.01579634 -0.11418110 0.00000000 0.61818182 0.61818182 0.61818182 0.61818182 0.61818182 0.61818182
2.115000 -0.06696237 -0.75547262 -0.03555569 0.10746603 0.01581503 -0.11472550 0.00000000 0.61818182 0.61818182 0.61818182 0.61818182 0.61818182 0.61818182
2.120000 -0.06705599 -0.75482511 -0.03563303 0.10914149 0.01583358 -0.11526981 0.00000000 0.61818182 0.61818182 0.61818182 0.61818182 0.61818182 0.61818182
2.125000 -0.06714901 -0.75417344 -0.03571033 0.11081945 0.01585198 -0.11581404 0.00000000 0.61818182 0.61818182 0.61818182 0.61818182 0.61818182 0.61818182
2.130000 -0.06724141 -0.75351761 -0.03578761 0.11249991 0.01587025 -0.11635818 0.00000000 0.61818182 0.61818182 0.61818182 0.61818182 0.61818182 0.61818182
2.135000 -0.06733322 -0.75285765 -0.03586486 0.11418288 0.01588838 -0.11690224 0.00000000 0.61818182 0.61818182 0.61818182 0.61818182 0.61818182 0.61818182
2.140000 -0.06742442 -0.75219355 -0.03594208 0.11586833 0.01590637 -0.11744621 0.00000000 0.61818182 0.61818182 0.61818182 0.61818182 0.61818182 0.61818182
2.145000 -0.06751502 -0.75152533 -0.03601927 0.11755628 0.01592423 -0.11799010 0.00000000 0.61818182 0.61818182 0.61818182 0.61818182 0.61818182 0.61818182
2.150000 -0.06760502 -0.75085301 -0.03609643 0.11924671 0.01594195 -0.11853389 0.00000000 0.61818182 0.61818182 0.61818182 0.61818182 0.61818182 0.61818182
2.155000 -0.06769443 -0.75017659 -0.03617356 0.12093963 0.01595953 -0.11907760 0.00000000 0.61818182 0.61818182 0.61818182 0.61818182 0.61818182 0.61818182
2.160000 -0.06778325 -0.74949608 -0.03625066 0.12263502 0.01597697 -0.11962121 0.00000000 0.61818182 0.61818182 0.61818182 0.61818182 0.61818182 0.61818182
2.165000 -0.06787149 -0.74881149 -0.03632772 0.12433289 0.01599428 -0.12016473 0.00000000 0.61818182 0.61818182 0.61818182 0.61818182 0.61818182 0.61818182
2.170000 -0.06795913 -0.74812285 -0.03640476 0.12603323 0.01601146 -0.12070816 0.00000000 0.61818182 0.61818182 0.61818182 0.61818182 0.61818182 0.61818182
2.175000 -0.06804620 -0.74743015 -0.03648177 0.12773604 0.01602850 -0.12125149 0.00000000 0.61818182 0.61818182 0.61818182 0.61818182 0.61818182 0.61818182
2.180000 -0.06813268 -0.74673340 -0.03655874 0.12944131 0.01604541 -0.12179472 0.00000000 0.61818182 0.61818182 0.61818182 0.61818182 0.61818182 0.61818182
2.185000 -0.06821859 -0.74603263 -0.03663569 0.13114904 0.01606219 -0.12233786 0.00000000 0.61818182 0.61818182 0.61818182 0.61818182 0.61818182 0.61818182
2.190000 -0.06830392 -0.74532784 -0.03671260 0.13285923 0.01607883 -0.12288090 0.00000000 0.61818182 0.61818182 0.61818182 0.61818182 0.61818182 0.61818182
2.195000 -0.06838868 -0.74461904 -0.03678949 0.13457187 0.01609535 -0.12342384 0.00000000 0.61818182 0.61818182 0.61818182 0.61818182 0.61818182 0.61818182
2.200000 -0.06847287 -0.74390624 -0.03686634 0.13628696 0.01611173 -0.12396667 0.00000000 0.61818182 0.61818182 0.61818182 0.61818182 0.61818182 0.61818182
2.205000 -0.06855649 -0.74318945 -0.03694316 0.13800449 0.01612798 -0.12450941 0.00000000 0.61818182 0.61818182 0.61818182 0.61818182 0.61818182 0.61818182
2.210000 -0.06863955 -0.74246869 -0.03701995 0.13972447 0.01614411 -0.12505204 0.00000000 0.61818182 0.61818182 0.61818182 0.61818182 0.61818182 0.61818182
2.215000 -0.06872204 -0.74174396 -0.03709671 0.14144689 0.01616010 -0.12559456 0.00000000 0.61818182 0.61818182 0.61818182 0.61818182 0.61818182 0.61818182
2.220000 -0.06880398 -0.74101527 -0.03717344 0.14317174 0.01617597 -0.12613698 0.00000000 0.61818182 0.61818182 0.61818182 0.61818182 0.61818182 0.61818182
2.225000 -0.06888536 -0.74028264 -0.03725014 0.14489902 0.01619171 -0.12667929 0.00000000 0.61818182 0.61818182 0.61818182 0.61818182 0.61818182 0.61818182
2.230000 -0.06896619 -0.73954608 -0.03732680 0.14662873 0.01620733 -0.12722149 0.00000000 0.61818182 0.61818182 0.61818182 0.61818182 0.61818182 0.61818182
2.235000 -0.06904646 -0.73880559 -0.03740343 0.14836086 0.01622282 -0.12776359 0.00000000 0.61818182 0.61818182 0.61818182 0.61818182 0.61818182 0.61818182
2.240000 -0.06912619 -0.73806120 -0.03748004 0.15009542 0.01623818 -0.12830557 0.00000000 0.61818182 0.61818182 0.61818182 0.61818182 0.61818182 0.61818182
2.245000 -0.06920537 -0.73731290 -0.03755661 0.15183239 0.01625341 -0.12884744 0.00000000 0.61818182 0.61818182 0.61818182 0.61818182 0.61818182 0.61818182
2.250000 -0.06928401 -0.73656070 -0.03763315 0.15357178 0.01626853 -0.12938920 0.00000000 0.61818182 0.61818182 0.61818182 0.61818182 0.61818182 0.61818182
2.255000 -0.06936210 -0.73580463 -0.03770966 0.15531357 0.01628352 -0.12993084 0.00000000 0.61818182 0.61818182 0.61818182 0.61818182 0.61818182 0.61818182
2.260000 -0.06943966 -0.73504469 -0.03778613 0.15705778 0.01629838 -0.13047237 0.00000000 0.61818182 0.61818182 0.61818182 0.61818182 0.61818182 0.61818182
2.265000 -0.06951668 -0.73428089 -0.03786258 0.15880439 0.01631313 -0.13101378 0.00000000 0.61818182 0.61818182 0.61818182 0.61818182 0.61818182 0.61818182
2.270000 -0.06959316 -0.73351323 -0.03793899 0.16055340 0.01632775 -0.13155507 0.00000000 0.61818182 0.61818182 0.61818182 0.61818182 0.61818182 0.61818182
2.275000 -0.06966912 -0.73274174 -0.03801537 0.16230481 0.01634225 -0.13209624 0.00000000 0.61818182 0.61818182 0.61818182 0.61818182 0.61818182 0.61818182
2.280000 -0.06974454 -0.73196642 -0.03809172 0.16405862 0.01635663 -0.13263729 0.00000000 0.61818182 0.61818182 0.61818182 0.61818182 0.61818182 0.61818182
2.285000 -0.06981944 -0.73118728 -0.03816804 0.16581481 0.01637089 -0.13317823 0.00000000 0.61818182 0.61818182 0.61818182 0.61818182 0.61818182 0.61818182
2.290000 -0.06989382 -0.73040433 -0.03824433 0.16757340 0.01638503 -0.13371903 0.00000000 0.61818182 0.61818182 0.61818182 0.61818182 0.61818182 0.61818182
2.295000 -0.06996768 -0.72961758 -0.03832059 0.16933437 0.01639905 -0.13425972 0.00000000 0.61818182 0.61818182 0.61818182 0.61818182 0.61818182 0.61818182
2.300000 -0.07004101 -0.72882705 -0.03839681 0.17109772 0.01641295 -0.13480028 0.00000000 0.61818182 0.61818182 0.61818182 0.61818182 0.61818182 0.61818182
2.305000 -0.07011383 -0.72803273 -0.03847300 0.17286345 0.01642674 -0.13534071 0.00000000 0.61818182 0.61818182 0.61818182 0.61818182 0.61818182 0.61818182
2.310000 -0.07018614 -0.72723465 -0.03854917 0.17463156 0.01644040 -0.13588102 0.00000000 0.61818182 0.61818182 0.61818182 0.61818182 0.61818182 0.61818182
2.315000 -0.07025793 -0.72643280 -0.03862530 0.17640205 0.01645396 -0.13642119 0.00000000 0.61818182 0.61818182 0.61818182 0.61818182 0.61818182 0.61818182
2.320000 -0.07032922 -0.72562721 -0.03870140 0.17817490 0.01646739 -0.13696124 0.00000000 0.61818182 0.61818182 0.61818182 0.61818182 0.61818182 0.61818182
2.325000 -0.07040000 -0.72481788 -0.03877747 0.17995012 0.01648071 -0.13750116 0.00000000 0.61818182 0.61818182 0.61818182 0.61818182 0.61818182 0.61818182
2.330000 -0.07047028 -0.72400481 -0.03885350 0.18172771 0.01649391 -0.13804094 0.00000000 0.61818182 0.61818182 0.61818182 0.61818182 0.61818182 0.61818182
2.335000 -0.07054005 -0.72318803 -0.03892951 0.18350766 0.01650700 -0.13858059 0.00000000 0.61818182 0.61818182 0.61818182 0.61818182 0.61818182 0.61818182
2.340000 -0.07060933 -0.72236754 -0.03900548 0.18528997 0.01651998 -0.13912011 0.00000000 0.61818182 0.61818182 0.61818182 0.61818182 0.61818182 0.61818182
2.345000 -0.07067811 -0.72154334 -0.03908143 0.18707464 0.01653284 -0.13965949 0.00000000 0.61818182 0.61818182 0.61818182 0.61818182 0.61818182 0.61818182
2.350000 -0.07074639 -0.72071545 -0.03915734 0.18886166 0.01654559 -0.14019873 0.00000000 0.61818182 0.61818182 0.61818182 0.61818182 0.61818182 0.61818182
2.355000 -0.07081418 -0.71988389 -0.03923323 0.19065104 0.01655823 -0.14073784 0.00000000 0.61818182 0.61818182 0.61818182 0.61818182 0.61818182 0.61818182
2.360000 -0.07088149 -0.71904864 -0.03930908 0.19244276 0.01657076 -0.14127680 0.00000000 0.61818182 0.61818182 0.61818182 0.61818182 0.61818182 0.61818182
2.365000 -0.07094830 -0.71820974 -0.03938490 0.19423683 0.01658317 -0.14181563 0.00000000 0.61818182 0.61818182 0.61818182 0.61818182 0.61818182 0.61818182
2.370000 -0.07101463 -0.71736718 -0.03946069 0.19603325 0.01659548 -0.14235431 0.00000000 0.61818182 0.61818182 0.61818182 0.61818182 0.61818182 0.61818182
2.375000 -0.07108048 -0.71652097 -0.03953645 0.19783200 0.01660767 -0.14289285 0.00000000 0.61818182 0.61818182 0.61818182 0.61818182 0.61818182 0.61818182
2.380000 -0.07114585 -0.71567113 -0.03961218 0.19963310 0.01661975 -0.14343125 0.00000000 0.61818182 0.61818182 0.61818182 0.61818182 0.61818182 0.61818182
2.385000 -0.07121074 -0.71481766 -0.03968788 0.20143653 0.01663173 -0.14396950 0.00000000 0.61818182 0.61818182 0.61818182 0.61818182 0.61818182 0.61818182
2.390000 -0.07127515 -0.71396057 -0.03976355 0.20324230 0.01664360 -0.14450761 0.00000000 0.61818182 0.61818182 0.61818182 0.61818182 0.61818182 0.61818182
2.395000 -0.07133910 -0.71309987 -0.03983919 0.20505041 0.01665536 -0.14504556 0.00000000 0.61818182 0.61818182 0.61818182 0.61818182 0.61818182 0.61818182
2.400000 -0.07140257 -0.71223557 -0.03991479 0.20686084 0.01666701 -0.14558337 0.00000000 0.61818182 0.61818182 0.61818182 0.61818182 0.61818182 0.61818182
2.405000 -0.07146557 -0.71136768 -0.03999037 0.20867360 0.01667856 -0.14612103 0.00000000 0.61818182 0.61818182 0.61818182 0.61818182 0.61818182 0.61818182
2.410000 -0.07152811 -0.71049620 -0.04006592 0.21048868 0.01668999 -0.14665853 0.00000000 0.61818182 0.61818182 0.61818182 0.61818182 0.61818182 0.61818182
2.415000 -0.07159018 -0.70962115 -0.04014144 0.21230610 0.01670133 -0.14719589 0.00000000 0.61818182 0.61818182 0.61818182 0.61818182 0.61818182 0.61818182
2.420000 -0.07165179 -0.70874253 -0.04021693 0.21412583 0.01671256 -0.14773309 0.00000000 0.61818182 0.61818182 0.61818182 0.61818182 0.61818182 0.61818182
2.425000 -0.07171295 -0.70786035 -0.04029239 0.21594788 0.01672368 -0.14827013 0.00000000 0.61818182 0.61818182 0.61818182 0.61818182 0.61818182 0.61818182
2.430000 -0.07177364 -0.70697463 -0.04036782 0.21777225 0.01673470 -0.14880702 0.00000000 0.61818182 0.61818182 0.61818182 0.61818182 0.61818182 0.61818182
2.435000 -0.07183388 -0.70608536 -0.04044322 0.21959894 0.01674561 -0.14934375 0.00000000 0.61818182 0.61818182 0.61818182 0.61818182 0.61818182 0.61818182
2.440000 -0.07189367 -0.70519256 -0.04051860 0.22142794 0.01675643 -0.14988032 0.00000000 0.61818182 0.61818182 0.61818182 0.61818182 0.61818182 0.61818182
2.445000 -0.07195301 -0.70429623 -0.04059394 0.22325926 0.01676714 -0.15041673 0.00000000 0.61818182 0.61818182 0.61818182 0.61818182 0.61818182 0.61818182
2.450000 -0.07201190 -0.70339639 -0.04066926 0.22509288 0.01677774 -0.15095298 0.00000000 0.61818182 0.61818182 0.61818182 0.61818182 0.61818182 0.61818182
2.455000 -0.07207035 -0.70249303 -0.04074454 0.22692882 0.01678825 -0.15148907 0.00000000 0.61818182 0.61818182 0.61818182 0.61818182 0.61818182 0.61818182
2.460000 -0.07212835 -0.70158618 -0.04081980 0.22876706 0.01679865 -0.15202499 0.00000000 0.61818182 0.61818182 0.61818182 0.61818182 0.61818182 0.61818182
2.465000 -0.07218591 -0.70067583 -0.04089503 0.23060761 0.01680896 -0.15256075 0.00000000 0.61818182 0.61818182 0.61818182 0.61818182 0.61818182 0.61818182
2.470000 -0.07224304 -0.69976199 -0.04097023 0.23245047 0.01681916 -0.15309634 0.00000000 0.61818182 0.61818182 0.61818182 0.61818182 0.61818182 0.61818182
2.475000 -0.07229972 -0.69884468 -0.04104541 0.23429562 0.01682926 -0.15363176 0.00000000 0.61818182 0.61818182 0.61818182 0.61818182 0.61818182 0.61818182
2.480000 -0.07235597 -0.69792390 -0.04112055 0.23614308 0.01683927 -0.15416702 0.00000000 0.61818182 0.61818182 0.61818182 0.61818182 0.61818182 0.61818182
2.485000 -0.07241179 -0.69699965 -0.04119567 0.23799284 0.01684917 -0.15470210 0.00000000 0.61818182 0.61818182 0.61818182 0.61818182 0.61818182 0.61818182
2.490000 -0.07246718 -0.69607194 -0.04127076 0.23984490 0.01685898 -0.15523702 0.00000000 0.61818182 0.61818182 0.61818182 0.61818182 0.61818182 0.61818182
2.495000 -0.07252215 -0.69514079 -0.04134582 0.24169925 0.01686869 -0.15577176 0.00000000 0.61818182 0.61818182 0.61818182 0.61818182 0.61818182 0.61818182
2.500000 -0.07257668 -0.69420620 -0.04142086 0.24355590 0.01687831 -0.15630632 0.00000000 0.61818182 0.61818182 0.61818182 0.61818182 0.61818182 0.61818182
2.505000 -0.07263079 -0.69326817 -0.04149586 0.24541485 0.01688782 -0.15684071 0.00000000 0.61818182 0.61818182 0.61818182 0.61818182 0.61818182 0.61818182
2.510000 -0.07268449 -0.69232671 -0.04157085 0.24727609 0.01689724 -0.15737492 0.00000000 0.61818182 0.61818182 0.61818182 0.61818182 0.61818182 0.61818182
2.515000 -0.07273776 -0.69138183 -0.04164580 0.24913962 0.01690656 -0.15790896 0.00000000 0.61818182 0.61818182 0.61818182 0.61818182 0.61818182 0.61818182
2.520000 -0.07279061 -0.69043354 -0.04172073 0.25100545 0.01691579 -0.15844281 0.00000000 0.61818182 0.61818182 0.61818182 0.61818182 0.61818182 0.61818182
2.525000 -0.07284305 -0.68948184 -0.04179563 0.25287357 0.01692493 -0.15897649 0.00000000 0.61818182 0.61818182 0.61818182 0.61818182 0.61818182 0.61818182
2.530000 -0.07289508 -0.68852674 -0.04187051 0.25474397 0.01693397 -0.15950998 0.00000000 0.61818182 0.61818182 0.61818182 0.61818182 0.61818182 0.61818182
2.535000 -0.07294670 -0.68756825 -0.04194536 0.25661667 0.01694291 -0.16004329 0.00000000 0.61818182 0.61818182 0.61818182 0.61818182 0.61818182 0.61818182
2.540000 -0.07299791 -0.68660637 -0.04202018 0.25849165 0.01695176 -0.16057641 0.00000000 0.61818182 0.61818182 0.61818182 0.61818182 0.61818182 0.61818182
2.545000 -0.07304871 -0.68564111 -0.04209498 0.26036892 0.01696052 -0.16110935 0.00000000 0.61818182 0.61818182 0.61818182 0.61818182 0.61818182 0.61818182
2.550000 -0.07309911 -0.68467247 -0.04216975 0.26224848 0.01696919 -0.16164210 0.00000000 0.61818182 0.61818182 0.61818182 0.61818182 0.61818182 0.61818182
2.555000 -0.07314911 -0.68370047 -0.04224450 0.26413033 0.01697776 -0.16217466 0.00000000 0.61818182 0.61818182 0.61818182 0.61818182 0.61818182 0.61818182
2.560000 -0.07319870 -0.68272511 -0.04231922 0.26601446 0.01698624 -0.16270703 0.00000000 0.61818182 0.61818182 0.61818182 0.61818182 0.61818182 0.61818182
2.565000 -0.07324790 -0.68174638 -0.04239392 0.26790088 0.01699463 -0.16323921 0.00000000 0.61818182 0.61818182 0.61818182 0.61818182 0.61818182 0.61818182
2.570000 -0.07329671 -0.68076431 -0.04246859 0.26978958 0.01700293 -0.16377120 0.00000000 0.61818182 0.61818182 0.61818182 0.61818182 0.61818182 0.61818182
2.575000 -0.07334512 -0.67977890 -0.04254324 0.27168056 0.01701114 -0.16430299 0.00000000 0.61818182 0.61818182 0.61818182 0.61818182 0.61818182 0.61818182
2.580000 -0.07339314 -0.67879014 -0.04261786 0.27357383 0.01701926 -0.16483458 0.00000000 0.61818182 0.61818182 0.61818182 0.61818182 0.61818182 0.61818182
2.585000 -0.07344077 -0.67779805 -0.04269246 0.27546939 0.01702729 -0.16536598 0.00000000 0.61818182 0.61818182 0.61818182 0.61818182 0.61818182 0.61818182
2.590000 -0.07348801 -0.67680264 -0.04276704 0.27736722 0.01703523 -0.16589718 0.00000000 0.61818182 0.61818182 0.61818182 0.61818182 0.61818182 0.61818182
2.595000 -0.07353486 -0.67580390 -0.04284159 0.27926734 0.01704309 -0.16642817 0.00000000 0.61818182 0.61818182 0.61818182 0.61818182 0.61818182 0.61818182
2.600000 -0.07358134 -0.67480184 -0.04291612 0.28116975 0.01705085 -0.16695897 0.00000000 0.61818182 0.61818182 0.61818182 0.61818182 0.61818182 0.61818182
2.605000 -0.07362743 -0.67379648 -0.04299063 0.28307444 0.01705853 -0.16748956 0.00000000 0.61818182 0.61818182 0.61818182 0.61818182 0.61818182 0.61818182
2.610000 -0.07367314 -0.67278781 -0.04306511 0.28498141 0.01706612 -0.16801995 0.00000000 0.61818182 0.61818182 0.61818182 0.61818182 0.61818182 0.61818182
2.615000 -0.07371847 -0.67177583 -0.04313957 0.28689066 0.01707362 -0.16855013 0.00000000 0.61818182 0.61818182 0.61818182 0.61818182 0.61818182 0.61818182
2.620000 -0.07376343 -0.67076056 -0.04321401 0.28880220 0.01708104 -0.16908011 0.00000000 0.61818182 0.61818182 0.61818182 0.61818182 0.61818182 0.61818182
2.625000 -0.07380802 -0.66974200 -0.04328842 0.29071602 0.01708837 -0.16960987 0.00000000 0.61818182 0.61818182 0.61818182 0.61818182 0.61818182 0.61818182
2.630000 -0.07385224 -0.66872015 -0.04336282 0.29263212 0.01709561 -0.17013943 0.00000000 0.61818182 0.61818182 0.61818182 0.61818182 0.61818182 0.61818182
2.635000 -0.07389608 -0.66769502 -0.04343719 0.29455051 0.01710277 -0.17066877 0.00000000 0.61818182 0.61818182 0.61818182 0.61818182 0.61818182 0.61818182
2.640000 -0.07393956 -0.66666661 -0.04351154 0.29647119 0.01710985 -0.17119790 0.00000000 0.61818182 0.61818182 0.61818182 0.61818182 0.61818182 0.61818182
2.645000 -0.07398268 -0.66563493 -0.04358587 0.29839414 0.01711684 -0.17172682 0.00000000 0.61818182 0.61818182 0.61818182 0.61818182 0.61818182 0.61818182
2.650000 -0.07402543 -0.66459998 -0.04366017 0.30031939 0.01712375 -0.17225551 0.00000000 0.61818182 0.61818182 0.61818182 0.61818182 0.61818182 0.61818182
2.655000 -0.07406782 -0.66356177 -0.04373446 0.30224692 0.01713057 -0.17278399 0.00000000 0.61818182 0.61818182 0.61818182 0.61818182 0.61818182 0.61818182
2.660000 -0.07410985 -0.66252029 -0.04380873 0.30417674 0.01713731 -0.17331225 0.00000000 0.61818182 0.61818182 0.61818182 0.61818182 0.61818182 0.61818182
2.665000 -0.07415152 -0.66147556 -0.04388297 0.30610884 0.01714397 -0.17384029 0.00000000 0.61818182 0.61818182 0.61818182 0.61818182 0.61818182 0.61818182
2.670000 -0.07419284 -0.66042757 -0.04395720 0.30804324 0.01715054 -0.17436810 0.00000000 0.61818182 0.61818182 0.61818182 0.61818182 0.61818182 0.61818182
2.675000 -0.07423381 -0.65937634 -0.04403140 0.30997992 0.01715704 -0.17489570 0.00000000 0.61818182 0.61818182 0.61818182 0.61818182 0.61818182 0.61818182
2.680000 -0.07427442 -0.65832186 -0.04410559 0.31191889 0.01716345 -0.17542306 0.00000000 0.61818182 0.61818182 0.61818182 0.61818182 0.61818182 0.61818182
2.685000 -0.07431468 -0.65726413 -0.04417976 0.31386016 0.01716978 -0.17595020 0.00000000 0.61818182 0.61818182 0.61818182 0.61818182 0.61818182 0.61818182
2.690000 -0.07435460 -0.65620317 -0.04425390 0.31580371 0.01717603 -0.17647710 0.00000000 0.61818182 0.61818182 0.61818182 0.61818182 0.61818182 0.61818182
2.695000 -0.07439399 -0.65514241 -0.04432778 0.31774265 0.01718215 -0.17700205 0.00000000 0.61818182 0.61818182 0.61818182 0.61818182 0.61818182 0.61818182
2.700000 -0.07443278 -0.65408379 -0.04440124 0.31967317 0.01718813 -0.17752409 0.00000000 0.61818182 0.61818182 0.61818182 0.61818182 0.61818182 0.61818182
2.705000 -0.07447097 -0.65302734 -0.04447429 0.32159528 0.01719396 -0.17804324 0.00000000 0.61818182 0.61818182 0.61818182 0.61818182 0.61818182 0.61818182
2.710000 -0.07450856 -0.65197311 -0.04454695 0.32350900 0.01719965 -0.17855951 0.00000000 0.61818182 0.61818182 0.61818182 0.61818182 0.61818182 0.61818182
2.715000 -0.07454558 -0.65092114 -0.04461920 0.32541435 0.01720520 -0.17907292 0.00000000 0.61818182 0.61818182 0.61818182 0.61818182 0.61818182 0.61818182
2.720000 -0.07458201 -0.64987146 -0.04469105 0.32731135 0.01721061 -0.17958348 0.00000000 0.61818182 0.61818182 0.61818182 0.61818182 0.61818182 0.61818182
2.725000 -0.07461789 -0.64882410 -0.04476251 0.32920001 0.01721588 -0.18009122 0.00000000 0.61818182 0.61818182 0.61818182 0.61818182 0.61818182 0.61818182
2.730000 -0.07465321 -0.64777911 -0.04483357 0.33108037 0.01722101 -0.18059614 0.00000000 0.61818182 0.61818182 0.61818182 0.61818182 0.61818182 0.61818182
2.735000 -0.07468798 -0.64673652 -0.04490425 0.33295243 0.01722601 -0.18109826 0.00000000 0.61818182 0.61818182 0.61818182 0.61818182 0.61818182 0.61818182
2.740000 -0.07472220 -0.64569636 -0.04497455 0.33481623 0.01723088 -0.18159760 0.00000000 0.61818182 0.61818182 0.61818182 0.61818182 0.61818182 0.61818182
2.745000 -0.07475590 -0.64465867 -0.04504446 0.33667177 0.01723562 -0.18209417 0.00000000 0.61818182 0.61818182 0.61818182 0.61818182 0.61818182 0.61818182
2.750000 -0.07478907 -0.64362347 -0.04511399 0.33851908 0.01724024 -0.18258799 0.00000000 0.61818182 0.61818182 0.61818182 0.61818182 0.61818182 0.61818182
2.755000 -0.07482173 -0.64259080 -0.04518315 0.34035818 0.01724472 -0.18307907 0.00000000 0.61818182 0.61818182 0.61818182 0.61818182 0.61818182 0.61818182
2.760000 -0.07485387 -0.64156068 -0.04525194 0.34218909 0.01724908 -0.18356743 0.00000000 0.61818182 0.61818182 0.61818182 0.61818182 0.61818182 0.61818182
2.765000 -0.07488552 -0.64053314 -0.04532036 0.34401183 0.01725333 -0.18405307 0.00000000 0.61818182 0.61818182 0.61818182 0.61818182 0.61818182 0.61818182
2.770000 -0.07491667 -0.63950822 -0.04538841 0.34582643 0.01725745 -0.18453603 0.00000000 0.61818182 0.61818182 0.61818182 0.61818182 0.61818182 0.61818182
2.775000 -0.07494733 -0.63848593 -0.04545610 0.34763291 0.01726145 -0.18501630 0.00000000 0.61818182 0.61818182 0.61818182 0.61818182 0.61818182 0.61818182
2.780000 -0.07497751 -0.63746631 -0.04552342 0.34943128 0.01726533 -0.18549391 0.00000000 0.61818182 0.61818182 0.61818182 0.61818182 0.61818182 0.61818182
2.785000 -0.07500722 -0.63644938 -0.04559039 0.35122158 0.01726910 -0.18596887 0.00000000 0.61818182 0.61818182 0.61818182 0.61818182 0.61818182 0.61818182
2.790000 -0.07503646 -0.63543516 -0.04565701 0.35300382 0.01727275 -0.18644119 0.00000000 0.61818182 0.61818182 0.61818182 0.61818182 0.61818182 0.61818182
2.795000 -0.07506525 -0.63442368 -0.04572327 0.35477803 0.01727630 -0.18691090 0.00000000 0.61818182 0.61818182 0.61818182 0.61818182 0.61818182 0.61818182
2.800000 -0.07509358 -0.63341496 -0.04578918 0.35654423 0.01727973 -0.18737799 0.00000000 0.61818182 0.61818182 0.61818182 0.61818182 0.61818182 0.61818182
2.805000 -0.07512146 -0.63240903 -0.04585475 0.35830244 0.01728305 -0.18784250 0.00000000 0.61818182 0.61818182 0.61818182 0.61818182 0.61818182 0.61818182
2.810000 -0.07514890 -0.63140589 -0.04591997 0.36005268 0.01728627 -0.18830442 0.00000000 0.61818182 0.61818182 0.61818182 0.61818182 0.61818182 0.61818182
2.815000 -0.07517591 -0.63040558 -0.04598486 0.36179499 0.01728937 -0.18876379 0.00000000 0.61818182 0.61818182 0.61818182 0.61818182 0.61818182 0.61818182
2.820000 -0.07520250 -0.62940812 -0.04604940 0.36352938 0.01729238 -0.18922060 0.00000000 0.61818182 0.61818182 0.61818182 0.61818182 0.61818182 0.61818182
2.825000 -0.07522866 -0.62841351 -0.04611361 0.36525588 0.01729528 -0.18967488 0.00000000 0.61818182 0.61818182 0.61818182 0.61818182 0.61818182 0.61818182
2.830000 -0.07525440 -0.62742179 -0.04617748 0.36697451 0.01729808 -0.19012663 0.00000000 0.61818182 0.61818182 0.61818182 0.61818182 0.61818182 0.61818182
2.835000 -0.07527974 -0.62643297 -0.04624102 0.36868529 0.01730078 -0.19057588 0.00000000 0.61818182 0.61818182 0.61818182 0.61818182 0.61818182 0.61818182
2.840000 -0.07530467 -0.62544707 -0.04630424 0.37038825 0.01730338 -0.19102263 0.00000000 0.61818182 0.61818182 0.61818182 0.61818182 0.61818182 0.61818182
2.845000 -0.07532921 -0.62446409 -0.04636713 0.37208342 0.01730589 -0.19146691 0.00000000 0.61818182 0.61818182 0.61818182 0.61818182 0.61818182 0.61818182
2.850000 -0.07535335 -0.62348407 -0.04642969 0.37377082 0.01730829 -0.19190871 0.00000000 0.61818182 0.61818182 0.61818182 0.61818182 0.61818182 0.61818182
2.855000 -0.07537710 -0.62250701 -0.04649194 0.37545047 0.01731061 -0.19234807 0.00000000 0.61818182 0.61818182 0.61818182 0.61818182 0.61818182 0.61818182
2.860000 -0.07540048 -0.62153294 -0.04655386 0.37712241 0.01731283 -0.19278498 0.00000000 0.61818182 0.61818182 0.61818182 0.61818182 0.61818182 0.61818182
2.865000 -0.07542348 -0.62056185 -0.04661547 0.37878664 0.01731496 -0.19321947 0.00000000 0.61818182 0.61818182 0.61818182 0.61818182 0.61818182 0.61818182
2.870000 -0.07544610 -0.61959377 -0.04667677 0.38044320 0.01731699 -0.19365154 0.00000000 0.61818182 0.61818182 0.61818182 0.61818182 0.61818182 0.61818182
2.875000 -0.07546836 -0.61862872 -0.04673776 0.38209212 0.01731894 -0.19408122 0.00000000 0.61818182 0.61818182 0.61818182 0.61818182 0.61818182 0.61818182
2.880000 -0.07549026 -0.61766669 -0.04679843 0.38373342 0.01732080 -0.19450851 0.00000000 0.61818182 0.61818182 0.61818182 0.61818182 0.61818182 0.61818182
2.885000 -0.07551181 -0.61670771 -0.04685880 0.38536712 0.01732257 -0.19493343 0.00000000 0.61818182 0.61818182 0.61818182 0.61818182 0.61818182 0.61818182
2.890000 -0.07553300 -0.61575179 -0.04691887 0.38699325 0.01732426 -0.19535599 0.00000000 0.61818182 0.61818182 0.61818182 0.61818182 0.61818182 0.61818182
2.895000 -0.07555385 -0.61479893 -0.04697863 0.38861183 0.01732586 -0.19577620 0.00000000 0.61818182 0.61818182 0.61818182 0.61818182 0.61818182 0.61818182
2.900000 -0.07557436 -0.61384915 -0.04703809 0.39022290 0.01732738 -0.19619408 0.00000000 0.61818182 0.61818182 0.61818182 0.61818182 0.61818182 0.61818182
2.905000 -0.07559453 -0.61290246 -0.04709726 0.39182648 0.01732881 -0.19660963 0.00000000 0.61818182 0.61818182 0.61818182 0.61818182 0.61818182 0.61818182
2.910000 -0.07561437 -0.61195886 -0.04715612 0.39342258 0.01733017 -0.19702288 0.00000000 0.61818182 0.61818182 0.61818182 0.61818182 0.61818182 0.61818182
2.915000 -0.07563388 -0.61101837 -0.04721470 0.39501125 0.01733145 -0.19743384 0.00000000 0.61818182 0.61818182 0.61818182 0.61818182 0.61818182 0.61818182
2.920000 -0.07565307 -0.61008100 -0.04727298 0.39659250 0.01733264 -0.19784251 0.00000000 0.61818182 0.61818182 0.61818182 0.61818182 0.61818182 0.61818182
2.925000 -0.07567194 -0.60914675 -0.04733098 0.39816636 0.01733376 -0.19824892 0.00000000 0.61818182 0.61818182 0.61818182 0.61818182 0.61818182 0.61818182
2.930000 -0.07569050 -0.60821563 -0.04738868 0.39973285 0.01733480 -0.19865306 0.00000000 0.61818182 0.61818182 0.61818182 0.61818182 0.61818182 0.61818182
2.935000 -0.07570875 -0.60728764 -0.04744610 0.40129201 0.01733577 -0.19905497 0.00000000 0.61818182 0.61818182 0.61818182 0.61818182 0.61818182 0.61818182
2.940000 -0.07572669 -0.60636280 -0.04750324 0.40284386 0.01733666 -0.19945464 0.00000000 0.61818182 0.61818182 0.61818182 0.61818182 0.61818182 0.61818182
2.945000 -0.07574433 -0.60544111 -0.04756010 0.40438842 0.01733748 -0.19985209 0.00000000 0.61818182 0.61818182 0.61818182 0.61818182 0.61818182 0.61818182
2.950000 -0.07576168 -0.60452258 -0.04761668 0.40592572 0.01733822 -0.20024733 0.00000000 0.61818182 0.61818182 0.61818182 0.61818182 0.61818182 0.61818182
2.955000 -0.07577873 -0.60360721 -0.04767298 0.40745579 0.01733889 -0.20064038 0.00000000 0.61818182 0.61818182 0.61818182 0.61818182 0.61818182 0.61818182
2.960000 -0.07579549 -0.60269501 -0.04772900 0.40897865 0.01733950 -0.20103125 0.00000000 0.61818182 0.61818182 0.61818182 0.61818182 0.61818182 0.61818182
2.965000 -0.07581196 -0.60178598 -0.04778475 0.41049433 0.01734003 -0.20141995 0.00000000 0.61818182 0.61818182 0.61818182 0.61818182 0.61818182 0.61818182
2.970000 -0.07582816 -0.60088013 -0.04784023 0.41200286 0.01734049 -0.20180649 0.00000000 0.61818182 0.61818182 0.61818182 0.61818182 0.61818182 0.61818182
2.975000 -0.07584408 -0.59997746 -0.04789544 0.41350427 0.01734089 -0.20219088 0.00000000 0.61818182 0.61818182 0.61818182 0.61818182 0.61818182 0.61818182
2.980000 -0.07585972 -0.59907798 -0.04795039 0.41499857 0.01734122 -0.20257314 0.00000000 0.61818182 0.61818182 0.61818182 0.61818182 0.61818182 0.61818182
2.985000 -0.07587509 -0.59818168 -0.04800506 0.41648579 0.01734148 -0.20295328 0.00000000 0.61818182 0.61818182 0.61818182 0.61818182 0.61818182 0.61818182
2.990000 -0.07589019 -0.59728858 -0.04805947 0.41796597 0.01734168 -0.20333130 0.00000000 0.61818182 0.61818182 0.61818182 0.61818182 0.61818182 0.61818182
2.995000 -0.07590504 -0.59639867 -0.04811362 0.41943913 0.01734182 -0.20370723 0.00000000 0.61818182 0.61818182 0.61818182 0.61818182 0.61818182 0.61818182
3.000000 -0.07591962 -0.59551196 -0.04816751 0.42090529 0.01734189 -0.20408107 0.00000000 0.61818182 0.61818182 0.61818182 0.61818182 0.61818182 0.61818182
3.005000 -0.07593394 -0.59462845 -0.04822115 0.42236448 0.01734190 -0.20445284 0.00000000 0.61818182 0.61818182 0.61818182 0.61818182 0.61818182 0.61818182
3.010000 -0.07594802 -0.59374814 -0.04827452 0.42381673 0.01734184 -0.20482254 0.00000000 0.61818182 0.61818182 0.61818182 0.61818182 0.61818182 0.61818182
3.015000 -0.07596184 -0.59287103 -0.04832764 0.42526206 0.01734173 -0.20519020 0.00000000 0.61818182 0.61818182 0.61818182 0.61818182 0.61818182 0.61818182
3.020000 -0.07597542 -0.59199713 -0.04838050 0.42670051 0.01734156 -0.20555581 0.00000000 0.61818182 0.61818182 0.61818182 0.61818182 0.61818182 0.61818182
3.025000 -0.07598875 -0.59112643 -0.04843312 0.42813209 0.01734132 -0.20591939 0.00000000 0.61818182 0.61818182 0.61818182 0.61818182 0.61818182 0.61818182
3.030000 -0.07600184 -0.59025894 -0.04848548 0.42955684 0.01734103 -0.20628095 0.00000000 0.61818182 0.61818182 0.61818182 0.61818182 0.61818182 0.61818182
3.035000 -0.07601470 -0.58939465 -0.04853760 0.43097477 0.01734068 -0.20664051 0.00000000 0.61818182 0.61818182 0.61818182 0.61818182 0.61818182 0.61818182
3.040000 -0.07602732 -0.58853358 -0.04858946 0.43238593 0.01734028 -0.20699808 0.00000000 0.61818182 0.61818182 0.61818182 0.61818182 0.61818182 0.61818182
3.045000 -0.07603971 -0.58767571 -0.04864109 0.43379032 0.01733982 -0.20735366 0.00000000 0.61818182 0.61818182 0.61818182 0.61818182 0.61818182 0.61818182
3.050000 -0.07605188 -0.58682104 -0.04869247 0.43518799 0.01733930 -0.20770726 0.00000000 0.61818182 0.61818182 0.61818182 0.61818182 0.61818182 0.61818182
3.055000 -0.07606382 -0.58596958 -0.04874360 0.43657895 0.01733873 -0.20805891 0.00000000 0.61818182 0.61818182 0.61818182 0.61818182 0.61818182 0.61818182
3.060000 -0.07607553 -0.58512133 -0.04879450 0.43796324 0.01733811 -0.20840860 0.00000000 0.61818182 0.61818182 0.61818182 0.61818182 0.61818182 0.61818182
3.065000 -0.07608703 -0.58427628 -0.04884516 0.43934087 0.01733743 -0.20875636 0.00000000 0.61818182 0.61818182 0.61818182 0.61818182 0.61818182 0.61818182
3.070000 -0.07609831 -0.58343443 -0.04889558 0.44071188 0.01733670 -0.20910218 0.00000000 0.61818182 0.61818182 0.61818182 0.61818182 0.61818182 0.61818182
3.075000 -0.07610938 -0.58259579 -0.04894577 0.44207630 0.01733592 -0.20944609 0.00000000 0.61818182 0.61818182 0.61818182 0.61818182 0.61818182 0.61818182
3.080000 -0.07612024 -0.58176035 -0.04899572 0.44343414 0.01733509 -0.20978810 0.00000000 0.61818182 0.61818182 0.61818182 0.61818182 0.61818182 0.61818182
3.085000 -0.07613089 -0.58092810 -0.04904544 0.44478543 0.01733421 -0.21012820 0.00000000 0.61818182 0.61818182 0.61818182 0.61818182 0.61818182 0.61818182
3.090000 -0.07614133 -0.58009905 -0.04909493 0.44613021 0.01733328 -0.21046642 0.00000000 0.61818182 0.61818182 0.61818182 0.61818182 0.61818182 0.61818182
3.095000 -0.07615157 -0.57927319 -0.04914419 0.44746849 0.01733230 -0.21080277 0.00000000 0.61818182 0.61818182 0.61818182 0.61818182 0.61818182 0.61818182
3.100000 -0.07616161 -0.57845052 -0.04919322 0.44880031 0.01733127 -0.21113725 0.00000000 0.61818182 0.61818182 0.61818182 0.61818182 0.61818182 0.61818182
3.105000 -0.07617146 -0.57763104 -0.04924202 0.45012569 0.01733019 -0.21146987 0.00000000 0.61818182 0.61818182 0.61818182 0.61818182 0.61818182 0.61818182
3.110000 -0.07618111 -0.57681475 -0.04929060 0.45144465 0.01732907 -0.21180066 0.00000000 0.61818182 0.61818182 0.61818182 0.61818182 0.61818182 0.61818182
3.115000 -0.07619056 -0.57600164 -0.04933896 0.45275723 0.01732790 -0.21212961 0.00000000 0.61818182 0.61818182 0.61818182 0.61818182 0.61818182 0.61818182
3.120000 -0.07619983 -0.57519171 -0.04938709 0.45406344 0.01732669 -0.21245674 0.00000000 0.61818182 0.61818182 0.61818182 0.61818182 0.61818182 0.61818182
3.125000 -0.07620890 -0.57438495 -0.04943500 0.45536332 0.01732543 -0.21278205 0.00000000 0.61818182 0.61818182 0.61818182 0.61818182 0.61818182 0.61818182
3.130000 -0.07621780 -0.57358137 -0.04948270 0.45665689 0.01732412 -0.21310556 0.00000000 0.61818182 0.61818182 0.61818182 0.61818182 0.61818182 0.61818182
3.135000 -0.07622650 -0.57278095 -0.04953017 0.45794418 0.01732278 -0.21342728 0.00000000 0.61818182 0.61818182 0.61818182 0.61818182 0.61818182 0.61818182
3.140000 -0.07623503 -0.57198370 -0.04957743 0.45922521 0.01732139 -0.21374722 0.00000000 0.61818182 0.61818182 0.61818182 0.61818182 0.61818182 0.61818182
3.145000 -0.07624338 -0.57118960 -0.04962447 0.46050000 0.01731995 -0.21406539 0.00000000 0.61818182 0.61818182 0.61818182 0.61818182 0.61818182 0.61818182
3.150000 -0.07625155 -0.57039867 -0.04967130 0.46176859 0.01731848 -0.21438179 0.00000000 0.61818182 0.61818182 0.61818182 0.61818182 0.61818182 0.61818182
3.155000 -0.07625955 -0.56961088 -0.04971792 0.46303101 0.01731696 -0.21469645 0.00000000 0.61818182 0.61818182 0.61818182 0.61818182 0.61818182 0.61818182
3.160000 -0.07626738 -0.56882624 -0.04976432 0.46428727 0.01731540 -0.21500936 0.00000000 0.61818182 0.61818182 0.61818182 0.61818182 0.61818182 0.61818182
3.165000 -0.07627504 -0.56804475 -0.04981052 0.46553740 0.01731381 -0.21532054 0.00000000 0.61818182 0.61818182 0.61818182 0.61818182 0.61818182 0.61818182
3.170000 -0.07628252 -0.56726638 -0.04985650 0.46678143 0.01731217 -0.21562999 0.00000000 0.61818182 0.61818182 0.61818182 0.61818182 0.61818182 0.61818182
3.175000 -0.07628985 -0.56649116 -0.04990228 0.46801938 0.01731049 -0.21593774 0.00000000 0.61818182 0.61818182 0.61818182 0.61818182 0.61818182 0.61818182
3.180000 -0.07629701 -0.56571906 -0.04994785 0.46925128 0.01730878 -0.21624378 0.00000000 0.61818182 0.61818182 0.61818182 0.61818182 0.61818182 0.61818182
3.185000 -0.07630400 -0.56495008 -0.04999322 0.47047715 0.01730702 -0.21654813 0.00000000 0.61818182 0.61818182 0.61818182 0.61818182 0.61818182 0.61818182
